;%_N_5_MPF
;MASTERCAM - 2024
;MCX PATH  - G:\ФЃаЭПт\ЧЧвуВЉ\
;MCAM FILE - ЖржсФЃаЭ.MCAM
;POST      - HEN-Xxzy_LITZ_LU400_SIEMENS.PST
;PROGRAM   - 5.MPF
;DATE      - 2026.03.12
;TIME      - 2:49 PM
;T1   - 4 ЧђЕЖ/дВБЧЯГЕЖ            - D1   - D4.000mm - R2.000mm
G00 G17 G40 G71 G90
G00 SUPA Z0. D0
G00 SUPA X-255. Y175.
D1
M51 ; C-Axis lock-off
M53 ; C-Axis lock-off
G00 B0. C=DC(0.)
M1

N1
;OPERATION NO - 14
;OPERATION TYPE - CONVERT 5AX
T1 ;4 ЧђЕЖ/дВБЧЯГЕЖ
M06
D1
G54 G90
G00 X-36.674 Y-47.5
B5. C=DC(0.)
TRAORI
CYCLE832(.025,_ROUGH,1)
X-36.674 Y-47.5 Z50.008 S3000 M03
Z5.508
G94 G01 X-36.674 Y-47.5 Z5.008 B5. C=DC(0.) F360.
X-36.674 Y-47.489 Z4.546 B5. C=DC(0.)
X-36.674 Y-47.457 Z4.085 B5. C=DC(0.)
X-36.674 Y-47.404 Z3.626 B5. C=DC(0.)
X-36.674 Y-47.33 Z3.17 B5. C=DC(0.)
X-36.674 Y-47.234 Z2.718 B5. C=DC(0.)
X-36.674 Y-47.118 Z2.271 B5. C=DC(0.)
X-36.674 Y-46.982 Z1.83 B5. C=DC(0.)
X-36.674 Y-46.825 Z1.395 B5. C=DC(0.)
X-36.674 Y-46.648 Z.968 B5. C=DC(0.)
X-36.674 Y-46.452 Z.55 B5. C=DC(0.)
X-36.674 Y-46.236 Z.142 B5. C=DC(0.)
X-36.674 Y-46.002 Z-.257 B5. C=DC(0.)
X-36.674 Y-45.75 Z-.644 B5. C=DC(0.)
X-36.674 Y-45.48 Z-1.019 B5. C=DC(0.)
X-36.674 Y-45.193 Z-1.381 B5. C=DC(0.)
X-36.674 Y-44.89 Z-1.729 B5. C=DC(0.)
X-36.674 Y-44.571 Z-2.063 B5. C=DC(0.)
X-36.674 Y-44.237 Z-2.382 B5. C=DC(0.)
X-36.674 Y-43.888 Z-2.686 B5. C=DC(0.)
X-36.674 Y-43.526 Z-2.973 B5. C=DC(0.)
X-36.674 Y-43.151 Z-3.242 B5. C=DC(0.)
X-36.674 Y-42.764 Z-3.495 B5. C=DC(0.)
X-36.674 Y-42.366 Z-3.729 B5. C=DC(0.)
X-36.674 Y-41.957 Z-3.944 B5. C=DC(0.)
X-36.674 Y-41.539 Z-4.14 B5. C=DC(0.)
X-36.674 Y-41.112 Z-4.317 B5. C=DC(0.)
X-36.674 Y-40.678 Z-4.474 B5. C=DC(0.)
X-36.674 Y-40.237 Z-4.611 B5. C=DC(0.)
X-36.674 Y-39.79 Z-4.727 B5. C=DC(0.)
X-36.674 Y-39.337 Z-4.822 B5. C=DC(0.)
X-36.674 Y-38.882 Z-4.896 B5. C=DC(0.)
X-36.674 Y-38.423 Z-4.95 B5. C=DC(0.)
X-36.674 Y-37.962 Z-4.982 B5. C=DC(0.)
X-36.674 Y-37.5 Z-4.992 B5. C=DC(0.),7
X-36.674 Y37.5 Z-4.992 B5. C=DC(0.),7
X-35.674 Y37.5 Z-4.992 B5. C=DC(0.),7
X-35.674 Y-37.5 Z-4.992 B5. C=DC(0.),7
X-34.674 Y-37.5 Z-4.992 B5. C=DC(0.),7
X-34.674 Y37.5 Z-4.992 B5. C=DC(0.),7
X-33.674 Y37.5 Z-4.992 B5. C=DC(0.),7
X-33.674 Y-37.5 Z-4.992 B5. C=DC(0.),7
X-32.674 Y-37.5 Z-4.992 B5. C=DC(0.),7
X-32.674 Y37.5 Z-4.992 B5. C=DC(0.),7
X-31.674 Y37.5 Z-4.992 B5. C=DC(0.),7
X-31.674 Y-37.5 Z-4.992 B5. C=DC(0.),7
X-30.674 Y-37.5 Z-4.992 B5. C=DC(0.),7
X-30.674 Y37.5 Z-4.992 B5. C=DC(0.),7
X-29.674 Y37.5 Z-4.992 B5. C=DC(0.),7
X-29.674 Y7.069 Z-4.992 B5. C=DC(0.),8
X-29.674 Y6.942 Z-4.973 B5. C=DC(0.),3
X-29.674 Y5.978 Z-4.911 B5. C=DC(0.)
X-29.674 Y5.546 Z-4.881 B5. C=DC(0.)
X-29.674 Y4.683 Z-4.83 B5. C=DC(0.)
X-29.674 Y4.251 Z-4.808 B5. C=DC(0.)
X-29.674 Y3.387 Z-4.768 B5. C=DC(0.)
X-29.674 Y2.513 Z-4.74 B5. C=DC(0.)
X-29.674 Y2.075 Z-4.728 B5. C=DC(0.)
X-29.674 Y1.201 Z-4.712 B5. C=DC(0.)
X-29.674 Y-.111 Z-4.704 B5. C=DC(0.)
X-29.674 Y-.986 Z-4.71 B5. C=DC(0.)
X-29.674 Y-1.423 Z-4.716 B5. C=DC(0.)
X-29.674 Y-2.298 Z-4.733 B5. C=DC(0.)
X-29.674 Y-3.873 Z-4.761 B5. C=DC(0.),6
X-29.674 Y-3.606 Z-4.778 B5. C=DC(0.),2
X-29.674 Y-4.471 Z-4.818 B5. C=DC(0.)
X-29.674 Y-5.336 Z-4.869 B5. C=DC(0.)
X-29.674 Y-5.769 Z-4.896 B5. C=DC(0.)
X-29.674 Y-6.634 Z-4.958 B5. C=DC(0.)
X-29.674 Y-7.069 Z-4.992 B5. C=DC(0.),8
X-29.674 Y-37.5 Z-4.992 B5. C=DC(0.),7
X-28.674 Y-37.5 Z-4.992 B5. C=DC(0.),7
X-28.674 Y-10.392 Z-4.992 B5. C=DC(0.),8
X-28.674 Y-10.39 Z-4.992 B5. C=DC(0.),3
X-28.674 Y-9.959 Z-4.942 B5. C=DC(0.)
X-28.674 Y-9.096 Z-4.846 B5. C=DC(0.)
X-28.674 Y-7.802 Z-4.719 B5. C=DC(0.)
X-28.674 Y-6.93 Z-4.649 B5. C=DC(0.)
X-28.674 Y-5.188 Z-4.529 B5. C=DC(0.),6
X-28.674 Y-4.317 Z-4.481 B5. C=DC(0.)
X-28.674 Y-3.446 Z-4.443 B5. C=DC(0.)
X-28.674 Y-3.01 Z-4.427 B5. C=DC(0.)
X-28.674 Y-2.139 Z-4.4 B5. C=DC(0.)
X-28.674 Y-1.268 Z-4.384 B5. C=DC(0.)
X-28.674 Y-.832 Z-4.379 B5. C=DC(0.)
X-28.674 Y.039 Z-4.374 B5. C=DC(0.)
X-28.674 Y.91 Z-4.379 B5. C=DC(0.)
X-28.674 Y1.346 Z-4.385 B5. C=DC(0.)
X-28.674 Y2.617 Z-4.602 B5. C=DC(0.),1
X-28.674 Y3.088 Z-4.429 B5. C=DC(0.)
X-28.674 Y3.524 Z-4.446 B5. C=DC(0.)
X-28.674 Y4.395 Z-4.485 B5. C=DC(0.)
X-28.674 Y5.266 Z-4.534 B5. C=DC(0.)
X-28.674 Y5.702 Z-4.561 B5. C=DC(0.)
X-28.674 Y6.573 Z-4.621 B5. C=DC(0.)
X-28.674 Y7.444 Z-4.69 B5. C=DC(0.)
X-28.674 Y7.88 Z-4.727 B5. C=DC(0.)
X-28.674 Y8.745 Z-4.81 B5. C=DC(0.)
X-28.674 Y9.174 Z-4.855 B5. C=DC(0.)
X-28.674 Y10.032 Z-4.95 B5. C=DC(0.)
X-28.674 Y10.391 Z-4.992 B5. C=DC(0.),8
X-28.674 Y37.5 Z-4.992 B5. C=DC(0.),7
X-27.674 Y37.5 Z-4.992 B5. C=DC(0.),7
X-27.674 Y12.8 Z-4.992 B5. C=DC(0.),8
X-27.674 Y12.799 Z-4.992 B5. C=DC(0.),3
X-27.674 Y12.329 Z-4.923 B5. C=DC(0.)
X-27.674 Y11.902 Z-4.864 B5. C=DC(0.)
X-27.674 Y11.042 Z-4.748 B5. C=DC(0.)
X-27.674 Y10.174 Z-4.646 B5. C=DC(0.)
X-27.674 Y9.741 Z-4.596 B5. C=DC(0.)
X-27.674 Y8.873 Z-4.505 B5. C=DC(0.)
X-27.674 Y8.439 Z-4.462 B5. C=DC(0.)
X-27.674 Y7.572 Z-4.382 B5. C=DC(0.)
X-27.674 Y6.704 Z-4.311 B5. C=DC(0.)
X-27.674 Y6.271 Z-4.277 B5. C=DC(0.)
X-27.674 Y5.403 Z-4.22 B5. C=DC(0.)
X-27.674 Y4.969 Z-4.196 B5. C=DC(0.)
X-27.674 Y4.102 Z-4.152 B5. C=DC(0.)
X-27.674 Y3.234 Z-4.416 B5. C=DC(0.),1
X-27.674 Y1.933 Z-4.079 B5. C=DC(0.)
X-27.674 Y1.066 Z-4.064 B5. C=DC(0.)
X-27.674 Y.198 Z-4.058 B5. C=DC(0.)
X-27.674 Y-.236 Z-4.059 B5. C=DC(0.)
X-27.674 Y-1.103 Z-4.064 B5. C=DC(0.)
X-27.674 Y-1.97 Z-4.08 B5. C=DC(0.)
X-27.674 Y-3.272 Z-4.118 B5. C=DC(0.)
X-27.674 Y-4.139 Z-4.153 B5. C=DC(0.)
X-27.674 Y-5.007 Z-4.198 B5. C=DC(0.)
X-27.674 Y-5.44 Z-4.222 B5. C=DC(0.)
X-27.674 Y-6.308 Z-4.28 B5. C=DC(0.)
X-27.674 Y-7.609 Z-4.385 B5. C=DC(0.)
X-27.674 Y-8.477 Z-4.466 B5. C=DC(0.)
X-27.674 Y-8.91 Z-4.509 B5. C=DC(0.)
X-27.674 Y-9.778 Z-4.6 B5. C=DC(0.)
X-27.674 Y-10.645 Z-4.701 B5. C=DC(0.)
X-27.674 Y-11.079 Z-4.753 B5. C=DC(0.)
X-27.674 Y-11.939 Z-4.869 B5. C=DC(0.)
X-27.674 Y-12.369 Z-4.929 B5. C=DC(0.)
X-27.674 Y-12.8 Z-4.992 B5. C=DC(0.),8
X-27.674 Y-37.5 Z-4.992 B5. C=DC(0.),7
X-26.674 Y-37.5 Z-4.992 B5. C=DC(0.),7
X-26.674 Y-14.761 Z-4.992 B5. C=DC(0.),8
X-26.674 Y-14.331 Z-4.919 B5. C=DC(0.)
X-26.674 Y-13.47 Z-4.781 B5. C=DC(0.)
X-26.674 Y-13.039 Z-4.715 B5. C=DC(0.)
X-26.674 Y-11.743 Z-4.534 B5. C=DC(0.)
X-26.674 Y-10.879 Z-4.423 B5. C=DC(0.)
X-26.674 Y-10.447 Z-4.369 B5. C=DC(0.)
X-26.674 Y-9.583 Z-4.268 B5. C=DC(0.)
X-26.674 Y-9.151 Z-4.224 B5. C=DC(0.)
X-26.674 Y-8.287 Z-4.139 B5. C=DC(0.)
X-26.674 Y-7.423 Z-4.064 B5. C=DC(0.)
X-26.674 Y-6.991 Z-4.029 B5. C=DC(0.)
X-26.674 Y-6.119 Z-3.964 B5. C=DC(0.)
X-26.674 Y-5.246 Z-3.908 B5. C=DC(0.)
X-26.674 Y-3.938 Z-3.839 B5. C=DC(0.)
X-26.674 Y-3.065 Z-3.803 B5. C=DC(0.)
X-26.674 Y-2.193 Z-3.778 B5. C=DC(0.)
X-26.674 Y-.885 Z-3.756 B5. C=DC(0.)
X-26.674 Y-.012 Z-3.751 B5. C=DC(0.)
X-26.674 Y.86 Z-3.755 B5. C=DC(0.)
X-26.674 Y2.169 Z-3.777 B5. C=DC(0.)
X-26.674 Y3.041 Z-3.992 B5. C=DC(0.),1
X-26.674 Y3.914 Z-3.838 B5. C=DC(0.)
X-26.674 Y5.222 Z-3.906 B5. C=DC(0.)
X-26.674 Y6.094 Z-3.962 B5. C=DC(0.)
X-26.674 Y7.403 Z-4.062 B5. C=DC(0.)
X-26.674 Y8.263 Z-4.137 B5. C=DC(0.)
X-26.674 Y9.553 Z-4.265 B5. C=DC(0.)
X-26.674 Y10.413 Z-4.365 B5. C=DC(0.)
X-26.674 Y10.843 Z-4.418 B5. C=DC(0.)
X-26.674 Y11.703 Z-4.529 B5. C=DC(0.)
X-26.674 Y12.133 Z-4.588 B5. C=DC(0.)
X-26.674 Y12.992 Z-4.708 B5. C=DC(0.)
X-26.674 Y13.422 Z-4.774 B5. C=DC(0.)
X-26.674 Y14.282 Z-4.911 B5. C=DC(0.)
X-26.674 Y14.759 Z-4.992 B5. C=DC(0.),8
X-26.674 Y14.761 Z-4.992 B5. C=DC(0.),3
X-26.674 Y37.5 Z-4.992 B5. C=DC(0.),7
X-25.674 Y37.5 Z-4.992 B5. C=DC(0.),7
X-25.674 Y16.436 Z-4.992 B5. C=DC(0.),8
X-25.674 Y16.435 Z-4.992 B5. C=DC(0.),3
X-25.674 Y15.175 Z-4.762 B5. C=DC(0.)
X-25.674 Y14.746 Z-4.69 B5. C=DC(0.)
X-25.674 Y13.887 Z-4.551 B5. C=DC(0.)
X-25.674 Y13.458 Z-4.485 B5. C=DC(0.)
X-25.674 Y12.599 Z-4.355 B5. C=DC(0.)
X-25.674 Y12.17 Z-4.294 B5. C=DC(0.)
X-25.674 Y11.311 Z-4.18 B5. C=DC(0.)
X-25.674 Y10.453 Z-4.076 B5. C=DC(0.)
X-25.674 Y10.023 Z-4.027 B5. C=DC(0.)
X-25.674 Y9.165 Z-3.933 B5. C=DC(0.)
X-25.674 Y8.306 Z-3.848 B5. C=DC(0.)
X-25.674 Y7.87 Z-3.807 B5. C=DC(0.)
X-25.674 Y6.999 Z-3.735 B5. C=DC(0.)
X-25.674 Y6.127 Z-3.673 B5. C=DC(0.)
X-25.674 Y4.82 Z-3.593 B5. C=DC(0.)
X-25.674 Y3.949 Z-3.55 B5. C=DC(0.)
X-25.674 Y3.077 Z-3.917 B5. C=DC(0.),1
X-25.674 Y1.77 Z-3.481 B5. C=DC(0.)
X-25.674 Y.899 Z-3.468 B5. C=DC(0.)
X-25.674 Y.027 Z-3.463 B5. C=DC(0.)
X-25.674 Y-.844 Z-3.467 B5. C=DC(0.)
X-25.674 Y-2.152 Z-3.49 B5. C=DC(0.)
X-25.674 Y-3.023 Z-3.515 B5. C=DC(0.)
X-25.674 Y-3.894 Z-3.548 B5. C=DC(0.)
X-25.674 Y-4.766 Z-3.591 B5. C=DC(0.)
X-25.674 Y-6.073 Z-3.669 B5. C=DC(0.)
X-25.674 Y-6.945 Z-3.73 B5. C=DC(0.)
X-25.674 Y-7.816 Z-3.802 B5. C=DC(0.)
X-25.674 Y-8.248 Z-3.842 B5. C=DC(0.)
X-25.674 Y-9.111 Z-3.927 B5. C=DC(0.)
X-25.674 Y-9.974 Z-4.021 B5. C=DC(0.)
X-25.674 Y-10.406 Z-4.071 B5. C=DC(0.)
X-25.674 Y-11.269 Z-4.175 B5. C=DC(0.)
X-25.674 Y-12.132 Z-4.289 B5. C=DC(0.)
X-25.674 Y-12.563 Z-4.349 B5. C=DC(0.)
X-25.674 Y-13.427 Z-4.48 B5. C=DC(0.)
X-25.674 Y-13.858 Z-4.546 B5. C=DC(0.)
X-25.674 Y-14.721 Z-4.686 B5. C=DC(0.)
X-25.674 Y-15.149 Z-4.757 B5. C=DC(0.)
X-25.674 Y-16.435 Z-4.992 B5. C=DC(0.),8
X-25.674 Y-37.5 Z-4.992 B5. C=DC(0.),7
X-24.674 Y-37.5 Z-4.992 B5. C=DC(0.),7
X-24.674 Y-17.885 Z-4.992 B5. C=DC(0.),8
X-24.674 Y-17.883 Z-4.992 B5. C=DC(0.),3
X-24.674 Y-17.031 Z-4.819 B5. C=DC(0.)
X-24.674 Y-16.602 Z-4.736 B5. C=DC(0.)
X-24.674 Y-15.743 Z-4.579 B5. C=DC(0.)
X-24.674 Y-14.455 Z-4.356 B5. C=DC(0.)
X-24.674 Y-13.596 Z-4.219 B5. C=DC(0.)
X-24.674 Y-13.167 Z-4.154 B5. C=DC(0.)
X-24.674 Y-12.3 Z-4.032 B5. C=DC(0.)
X-24.674 Y-11.867 Z-3.972 B5. C=DC(0.)
X-24.674 Y-11.001 Z-3.859 B5. C=DC(0.)
X-24.674 Y-10.135 Z-3.756 B5. C=DC(0.)
X-24.674 Y-9.702 Z-3.708 B5. C=DC(0.)
X-24.674 Y-8.836 Z-3.62 B5. C=DC(0.)
X-24.674 Y-7.537 Z-3.502 B5. C=DC(0.)
X-24.674 Y-6.671 Z-3.432 B5. C=DC(0.)
X-24.674 Y-5.805 Z-3.371 B5. C=DC(0.)
X-24.674 Y-3.64 Z-3.259 B5. C=DC(0.),6
X-24.674 Y-3.206 Z-3.243 B5. C=DC(0.)
X-24.674 Y-2.773 Z-3.228 B5. C=DC(0.)
X-24.674 Y-1.907 Z-3.206 B5. C=DC(0.)
X-24.674 Y-1.041 Z-3.192 B5. C=DC(0.)
X-24.674 Y-.175 Z-3.187 B5. C=DC(0.)
X-24.674 Y1.124 Z-3.194 B5. C=DC(0.)
X-24.674 Y1.99 Z-3.208 B5. C=DC(0.)
X-24.674 Y2.856 Z-3.231 B5. C=DC(0.)
X-24.674 Y3.722 Z-3.262 B5. C=DC(0.)
X-24.674 Y4.588 Z-3.301 B5. C=DC(0.)
X-24.674 Y5.454 Z-3.348 B5. C=DC(0.)
X-24.674 Y5.888 Z-3.376 B5. C=DC(0.)
X-24.674 Y6.754 Z-3.438 B5. C=DC(0.)
X-24.674 Y7.62 Z-3.508 B5. C=DC(0.)
X-24.674 Y8.919 Z-3.629 B5. C=DC(0.)
X-24.674 Y9.785 Z-3.717 B5. C=DC(0.)
X-24.674 Y10.651 Z-3.816 B5. C=DC(0.)
X-24.674 Y11.084 Z-3.87 B5. C=DC(0.)
X-24.674 Y11.95 Z-3.983 B5. C=DC(0.)
X-24.674 Y12.383 Z-4.044 B5. C=DC(0.)
X-24.674 Y13.249 Z-4.166 B5. C=DC(0.)
X-24.674 Y13.675 Z-4.231 B5. C=DC(0.)
X-24.674 Y14.526 Z-4.368 B5. C=DC(0.)
X-24.674 Y15.802 Z-4.589 B5. C=DC(0.)
X-24.674 Y16.653 Z-4.746 B5. C=DC(0.)
X-24.674 Y17.078 Z-4.828 B5. C=DC(0.)
X-24.674 Y17.883 Z-4.992 B5. C=DC(0.),8
X-24.674 Y17.884 Z-4.992 B5. C=DC(0.),3
X-24.674 Y37.5 Z-4.992 B5. C=DC(0.),7
X-23.674 Y37.5 Z-4.992 B5. C=DC(0.),7
X-23.674 Y19.187 Z-4.992 B5. C=DC(0.),8
X-23.674 Y19.185 Z-4.992 B5. C=DC(0.),3
X-23.674 Y18.339 Z-4.81 B5. C=DC(0.)
X-23.674 Y17.913 Z-4.72 B5. C=DC(0.)
X-23.674 Y17.487 Z-4.636 B5. C=DC(0.)
X-23.674 Y16.636 Z-4.471 B5. C=DC(0.)
X-23.674 Y16.21 Z-4.39 B5. C=DC(0.)
X-23.674 Y15.358 Z-4.235 B5. C=DC(0.)
X-23.674 Y14.932 Z-4.164 B5. C=DC(0.)
X-23.674 Y14.081 Z-4.026 B5. C=DC(0.)
X-23.674 Y13.655 Z-3.959 B5. C=DC(0.)
X-23.674 Y12.803 Z-3.83 B5. C=DC(0.)
X-23.674 Y12.37 Z-3.768 B5. C=DC(0.)
X-23.674 Y11.937 Z-3.711 B5. C=DC(0.)
X-23.674 Y11.503 Z-3.654 B5. C=DC(0.)
X-23.674 Y10.637 Z-3.548 B5. C=DC(0.)
X-23.674 Y10.204 Z-3.498 B5. C=DC(0.)
X-23.674 Y9.337 Z-3.402 B5. C=DC(0.)
X-23.674 Y8.471 Z-3.315 B5. C=DC(0.)
X-23.674 Y7.171 Z-3.206 B5. C=DC(0.)
X-23.674 Y6.304 Z-3.441 B5. C=DC(0.),1
X-23.674 Y5.871 Z-3.113 B5. C=DC(0.)
X-23.674 Y5.438 Z-3.085 B5. C=DC(0.)
X-23.674 Y4.571 Z-3.036 B5. C=DC(0.)
X-23.674 Y3.704 Z-2.996 B5. C=DC(0.)
X-23.674 Y3.271 Z-2.98 B5. C=DC(0.)
X-23.674 Y2.838 Z-2.965 B5. C=DC(0.)
X-23.674 Y1.971 Z-2.941 B5. C=DC(0.)
X-23.674 Y1.105 Z-2.926 B5. C=DC(0.)
X-23.674 Y.672 Z-2.922 B5. C=DC(0.)
X-23.674 Y-.195 Z-2.919 B5. C=DC(0.)
X-23.674 Y-1.062 Z-2.925 B5. C=DC(0.)
X-23.674 Y-1.928 Z-2.94 B5. C=DC(0.)
X-23.674 Y-2.361 Z-2.951 B5. C=DC(0.)
X-23.674 Y-2.795 Z-2.963 B5. C=DC(0.)
X-23.674 Y-3.661 Z-2.994 B5. C=DC(0.)
X-23.674 Y-6.261 Z-3.138 B5. C=DC(0.),6
X-23.674 Y-7.127 Z-3.202 B5. C=DC(0.)
X-23.674 Y-7.561 Z-3.237 B5. C=DC(0.)
X-23.674 Y-8.427 Z-3.311 B5. C=DC(0.)
X-23.674 Y-9.294 Z-3.397 B5. C=DC(0.)
X-23.674 Y-10.594 Z-3.543 B5. C=DC(0.)
X-23.674 Y-11.46 Z-3.649 B5. C=DC(0.)
X-23.674 Y-11.893 Z-3.705 B5. C=DC(0.)
X-23.674 Y-12.756 Z-3.823 B5. C=DC(0.)
X-23.674 Y-13.615 Z-3.953 B5. C=DC(0.)
X-23.674 Y-14.045 Z-4.02 B5. C=DC(0.)
X-23.674 Y-14.904 Z-4.159 B5. C=DC(0.)
X-23.674 Y-15.333 Z-4.231 B5. C=DC(0.)
X-23.674 Y-16.193 Z-4.387 B5. C=DC(0.)
X-23.674 Y-16.622 Z-4.468 B5. C=DC(0.)
X-23.674 Y-17.481 Z-4.635 B5. C=DC(0.)
X-23.674 Y-17.907 Z-4.719 B5. C=DC(0.)
X-23.674 Y-18.334 Z-4.809 B5. C=DC(0.)
X-23.674 Y-19.186 Z-4.992 B5. C=DC(0.),8
X-23.674 Y-19.188 Z-4.992 B5. C=DC(0.),3
X-23.674 Y-37.5 Z-4.992 B5. C=DC(0.),7
X-22.674 Y-37.5 Z-4.992 B5. C=DC(0.),7
X-22.674 Y-20.344 Z-4.992 B5. C=DC(0.),8
X-22.674 Y-19.492 Z-4.796 B5. C=DC(0.)
X-22.674 Y-19.067 Z-4.702 B5. C=DC(0.)
X-22.674 Y-18.216 Z-4.522 B5. C=DC(0.)
X-22.674 Y-17.359 Z-4.348 B5. C=DC(0.)
X-22.674 Y-16.93 Z-4.261 B5. C=DC(0.)
X-22.674 Y-15.645 Z-4.028 B5. C=DC(0.)
X-22.674 Y-14.787 Z-3.881 B5. C=DC(0.)
X-22.674 Y-14.359 Z-3.808 B5. C=DC(0.)
X-22.674 Y-13.498 Z-3.676 B5. C=DC(0.)
X-22.674 Y-13.066 Z-3.613 B5. C=DC(0.)
X-22.674 Y-12.201 Z-3.49 B5. C=DC(0.)
X-22.674 Y-11.337 Z-3.376 B5. C=DC(0.)
X-22.674 Y-10.905 Z-3.321 B5. C=DC(0.)
X-22.674 Y-10.041 Z-3.223 B5. C=DC(0.)
X-22.674 Y-9.176 Z-3.133 B5. C=DC(0.)
X-22.674 Y-7.88 Z-3.01 B5. C=DC(0.)
X-22.674 Y-7.015 Z-2.937 B5. C=DC(0.)
X-22.674 Y-6.583 Z-2.905 B5. C=DC(0.)
X-22.674 Y-6.147 Z-2.875 B5. C=DC(0.)
X-22.674 Y-3.528 Z-2.739 B5. C=DC(0.),6
X-22.674 Y-2.655 Z-2.709 B5. C=DC(0.)
X-22.674 Y-1.782 Z-2.688 B5. C=DC(0.)
X-22.674 Y-1.345 Z-2.681 B5. C=DC(0.)
X-22.674 Y-.909 Z-2.675 B5. C=DC(0.)
X-22.674 Y-.036 Z-2.67 B5. C=DC(0.)
X-22.674 Y.837 Z-2.674 B5. C=DC(0.)
X-22.674 Y1.273 Z-2.68 B5. C=DC(0.)
X-22.674 Y1.71 Z-2.686 B5. C=DC(0.)
X-22.674 Y2.583 Z-2.707 B5. C=DC(0.)
X-22.674 Y3.456 Z-2.736 B5. C=DC(0.)
X-22.674 Y4.329 Z-2.773 B5. C=DC(0.)
X-22.674 Y5.202 Z-2.817 B5. C=DC(0.)
X-22.674 Y6.074 Z-2.87 B5. C=DC(0.)
X-22.674 Y6.511 Z-3.1 B5. C=DC(0.),1
X-22.674 Y6.947 Z-2.932 B5. C=DC(0.)
X-22.674 Y7.808 Z-3.004 B5. C=DC(0.)
X-22.674 Y9.099 Z-3.125 B5. C=DC(0.)
X-22.674 Y9.96 Z-3.215 B5. C=DC(0.)
X-22.674 Y10.82 Z-3.312 B5. C=DC(0.)
X-22.674 Y11.251 Z-3.364 B5. C=DC(0.)
X-22.674 Y12.111 Z-3.478 B5. C=DC(0.)
X-22.674 Y12.972 Z-3.6 B5. C=DC(0.)
X-22.674 Y13.402 Z-3.662 B5. C=DC(0.)
X-22.674 Y14.263 Z-3.792 B5. C=DC(0.)
X-22.674 Y14.693 Z-3.864 B5. C=DC(0.)
X-22.674 Y15.554 Z-4.012 B5. C=DC(0.)
X-22.674 Y15.984 Z-4.089 B5. C=DC(0.)
X-22.674 Y16.845 Z-4.245 B5. C=DC(0.)
X-22.674 Y17.275 Z-4.331 B5. C=DC(0.)
X-22.674 Y18.118 Z-4.502 B5. C=DC(0.)
X-22.674 Y18.539 Z-4.59 B5. C=DC(0.)
X-22.674 Y19.382 Z-4.771 B5. C=DC(0.)
X-22.674 Y19.803 Z-4.866 B5. C=DC(0.)
X-22.674 Y20.343 Z-4.992 B5. C=DC(0.),8
X-22.674 Y20.345 Z-4.992 B5. C=DC(0.),3
X-22.674 Y37.5 Z-4.992 B5. C=DC(0.),7
X-21.674 Y37.5 Z-4.992 B5. C=DC(0.),7
X-21.674 Y21.398 Z-4.992 B5. C=DC(0.),8
X-21.674 Y21.396 Z-4.992 B5. C=DC(0.),3
X-21.674 Y20.425 Z-4.755 B5. C=DC(0.)
X-21.674 Y19.144 Z-4.469 B5. C=DC(0.)
X-21.674 Y18.291 Z-4.285 B5. C=DC(0.)
X-21.674 Y17.437 Z-4.114 B5. C=DC(0.)
X-21.674 Y16.583 Z-3.951 B5. C=DC(0.)
X-21.674 Y16.156 Z-3.87 B5. C=DC(0.)
X-21.674 Y15.729 Z-3.793 B5. C=DC(0.)
X-21.674 Y14.876 Z-3.649 B5. C=DC(0.)
X-21.674 Y14.022 Z-3.512 B5. C=DC(0.)
X-21.674 Y12.741 Z-3.318 B5. C=DC(0.)
X-21.674 Y11.888 Z-3.205 B5. C=DC(0.)
X-21.674 Y11.454 Z-3.149 B5. C=DC(0.)
X-21.674 Y10.585 Z-3.043 B5. C=DC(0.)
X-21.674 Y9.717 Z-2.944 B5. C=DC(0.)
X-21.674 Y9.283 Z-2.899 B5. C=DC(0.)
X-21.674 Y7.981 Z-2.779 B5. C=DC(0.)
X-21.674 Y7.547 Z-2.742 B5. C=DC(0.)
X-21.674 Y6.678 Z-2.974 B5. C=DC(0.),1
X-21.674 Y5.81 Z-2.614 B5. C=DC(0.)
X-21.674 Y4.942 Z-2.562 B5. C=DC(0.)
X-21.674 Y4.074 Z-2.518 B5. C=DC(0.)
X-21.674 Y3.205 Z-2.485 B5. C=DC(0.)
X-21.674 Y2.337 Z-2.46 B5. C=DC(0.)
X-21.674 Y1.469 Z-2.442 B5. C=DC(0.)
X-21.674 Y.167 Z-2.431 B5. C=DC(0.)
X-21.674 Y-.702 Z-2.433 B5. C=DC(0.)
X-21.674 Y-1.136 Z-2.438 B5. C=DC(0.)
X-21.674 Y-1.57 Z-2.444 B5. C=DC(0.)
X-21.674 Y-2.438 Z-2.462 B5. C=DC(0.)
X-21.674 Y-3.306 Z-2.488 B5. C=DC(0.)
X-21.674 Y-4.174 Z-2.522 B5. C=DC(0.)
X-21.674 Y-5.043 Z-2.567 B5. C=DC(0.)
X-21.674 Y-5.911 Z-2.62 B5. C=DC(0.)
X-21.674 Y-6.345 Z-2.651 B5. C=DC(0.)
X-21.674 Y-6.779 Z-2.681 B5. C=DC(0.)
X-21.674 Y-7.647 Z-2.75 B5. C=DC(0.)
X-21.674 Y-8.515 Z-2.826 B5. C=DC(0.)
X-21.674 Y-9.384 Z-2.908 B5. C=DC(0.)
X-21.674 Y-10.686 Z-3.055 B5. C=DC(0.)
X-21.674 Y-11.554 Z-3.162 B5. C=DC(0.)
X-21.674 Y-12.415 Z-3.275 B5. C=DC(0.)
X-21.674 Y-12.845 Z-3.333 B5. C=DC(0.)
X-21.674 Y-13.706 Z-3.462 B5. C=DC(0.)
X-21.674 Y-14.136 Z-3.53 B5. C=DC(0.)
X-21.674 Y-14.997 Z-3.668 B5. C=DC(0.)
X-21.674 Y-15.857 Z-3.816 B5. C=DC(0.)
X-21.674 Y-16.284 Z-3.894 B5. C=DC(0.)
X-21.674 Y-17.565 Z-4.138 B5. C=DC(0.)
X-21.674 Y-18.418 Z-4.313 B5. C=DC(0.)
X-21.674 Y-19.272 Z-4.498 B5. C=DC(0.)
X-21.674 Y-20.126 Z-4.688 B5. C=DC(0.)
X-21.674 Y-20.55 Z-4.785 B5. C=DC(0.)
X-21.674 Y-21.397 Z-4.992 B5. C=DC(0.),8
X-21.674 Y-37.5 Z-4.992 B5. C=DC(0.),7
X-20.674 Y-37.5 Z-4.992 B5. C=DC(0.),7
X-20.674 Y-22.359 Z-4.992 B5. C=DC(0.),8
X-20.674 Y-22.358 Z-4.992 B5. C=DC(0.),3
X-20.674 Y-21.515 Z-4.778 B5. C=DC(0.)
X-20.674 Y-21.093 Z-4.675 B5. C=DC(0.)
X-20.674 Y-19.819 Z-4.379 B5. C=DC(0.)
X-20.674 Y-19.395 Z-4.282 B5. C=DC(0.)
X-20.674 Y-18.97 Z-4.192 B5. C=DC(0.)
X-20.674 Y-18.114 Z-4.013 B5. C=DC(0.)
X-20.674 Y-17.259 Z-3.842 B5. C=DC(0.)
X-20.674 Y-16.831 Z-3.758 B5. C=DC(0.)
X-20.674 Y-15.548 Z-3.529 B5. C=DC(0.)
X-20.674 Y-14.689 Z-3.383 B5. C=DC(0.)
X-20.674 Y-14.257 Z-3.312 B5. C=DC(0.)
X-20.674 Y-13.395 Z-3.184 B5. C=DC(0.)
X-20.674 Y-12.963 Z-3.121 B5. C=DC(0.)
X-20.674 Y-12.101 Z-3. B5. C=DC(0.)
X-20.674 Y-11.238 Z-2.889 B5. C=DC(0.)
X-20.674 Y-9.944 Z-2.741 B5. C=DC(0.)
X-20.674 Y-9.081 Z-2.651 B5. C=DC(0.)
X-20.674 Y-8.211 Z-2.567 B5. C=DC(0.)
X-20.674 Y-7.34 Z-2.493 B5. C=DC(0.)
X-20.674 Y-6.469 Z-2.43 B5. C=DC(0.)
X-20.674 Y-5.599 Z-2.373 B5. C=DC(0.)
X-20.674 Y-4.728 Z-2.325 B5. C=DC(0.)
X-20.674 Y-3.857 Z-2.284 B5. C=DC(0.)
X-20.674 Y-2.987 Z-2.252 B5. C=DC(0.)
X-20.674 Y-2.551 Z-2.239 B5. C=DC(0.)
X-20.674 Y-1.681 Z-2.218 B5. C=DC(0.)
X-20.674 Y-1.245 Z-2.211 B5. C=DC(0.)
X-20.674 Y-.81 Z-2.206 B5. C=DC(0.)
X-20.674 Y.061 Z-2.202 B5. C=DC(0.)
X-20.674 Y.931 Z-2.207 B5. C=DC(0.)
X-20.674 Y1.367 Z-2.213 B5. C=DC(0.)
X-20.674 Y2.237 Z-2.23 B5. C=DC(0.)
X-20.674 Y3.108 Z-2.256 B5. C=DC(0.)
X-20.674 Y3.979 Z-2.289 B5. C=DC(0.)
X-20.674 Y4.414 Z-2.31 B5. C=DC(0.)
X-20.674 Y4.849 Z-2.331 B5. C=DC(0.)
X-20.674 Y5.72 Z-2.381 B5. C=DC(0.)
X-20.674 Y6.591 Z-2.638 B5. C=DC(0.),1
X-20.674 Y7.461 Z-2.503 B5. C=DC(0.)
X-20.674 Y8.332 Z-2.579 B5. C=DC(0.)
X-20.674 Y9.203 Z-2.663 B5. C=DC(0.)
X-20.674 Y10.06 Z-2.753 B5. C=DC(0.)
X-20.674 Y10.918 Z-2.851 B5. C=DC(0.)
X-20.674 Y11.347 Z-2.902 B5. C=DC(0.)
X-20.674 Y12.204 Z-3.014 B5. C=DC(0.)
X-20.674 Y13.062 Z-3.135 B5. C=DC(0.)
X-20.674 Y13.49 Z-3.198 B5. C=DC(0.)
X-20.674 Y14.348 Z-3.326 B5. C=DC(0.)
X-20.674 Y15.634 Z-3.544 B5. C=DC(0.)
X-20.674 Y16.491 Z-3.697 B5. C=DC(0.)
X-20.674 Y16.92 Z-3.775 B5. C=DC(0.)
X-20.674 Y17.778 Z-3.946 B5. C=DC(0.)
X-20.674 Y18.206 Z-4.032 B5. C=DC(0.)
X-20.674 Y19.045 Z-4.207 B5. C=DC(0.)
X-20.674 Y19.465 Z-4.298 B5. C=DC(0.)
X-20.674 Y21.142 Z-4.687 B5. C=DC(0.)
X-20.674 Y21.562 Z-4.79 B5. C=DC(0.)
X-20.674 Y22.358 Z-4.992 B5. C=DC(0.),8
X-20.674 Y22.36 Z-4.992 B5. C=DC(0.),3
X-20.674 Y37.5 Z-4.992 B5. C=DC(0.),7
X-19.674 Y37.5 Z-4.992 B5. C=DC(0.),7
X-19.674 Y23.239 Z-4.992 B5. C=DC(0.),8
X-19.674 Y23.238 Z-4.992 B5. C=DC(0.),3
X-19.674 Y22.394 Z-4.77 B5. C=DC(0.)
X-19.674 Y21.974 Z-4.664 B5. C=DC(0.)
X-19.674 Y21.554 Z-4.561 B5. C=DC(0.)
X-19.674 Y20.295 Z-4.257 B5. C=DC(0.)
X-19.674 Y19.876 Z-4.164 B5. C=DC(0.)
X-19.674 Y18.617 Z-3.891 B5. C=DC(0.)
X-19.674 Y18.197 Z-3.803 B5. C=DC(0.)
X-19.674 Y17.768 Z-3.718 B5. C=DC(0.)
X-19.674 Y17.339 Z-3.634 B5. C=DC(0.)
X-19.674 Y16.911 Z-3.553 B5. C=DC(0.)
X-19.674 Y16.053 Z-3.393 B5. C=DC(0.)
X-19.674 Y15.624 Z-3.317 B5. C=DC(0.)
X-19.674 Y14.766 Z-3.175 B5. C=DC(0.)
X-19.674 Y13.908 Z-3.04 B5. C=DC(0.)
X-19.674 Y13.479 Z-2.974 B5. C=DC(0.)
X-19.674 Y13.05 Z-2.91 B5. C=DC(0.)
X-19.674 Y12.621 Z-2.85 B5. C=DC(0.)
X-19.674 Y11.763 Z-2.736 B5. C=DC(0.)
X-19.674 Y10.905 Z-2.63 B5. C=DC(0.)
X-19.674 Y10.047 Z-2.531 B5. C=DC(0.)
X-19.674 Y9.618 Z-2.484 B5. C=DC(0.)
X-19.674 Y8.754 Z-2.398 B5. C=DC(0.)
X-19.674 Y7.883 Z-2.32 B5. C=DC(0.)
X-19.674 Y7.447 Z-2.285 B5. C=DC(0.)
X-19.674 Y7.012 Z-2.252 B5. C=DC(0.)
X-19.674 Y6.141 Z-2.189 B5. C=DC(0.)
X-19.674 Y5.705 Z-2.161 B5. C=DC(0.)
X-19.674 Y5.27 Z-2.135 B5. C=DC(0.)
X-19.674 Y4.398 Z-2.092 B5. C=DC(0.)
X-19.674 Y3.092 Z-2.04 B5. C=DC(0.)
X-19.674 Y2.221 Z-2.015 B5. C=DC(0.)
X-19.674 Y1.35 Z-1.999 B5. C=DC(0.)
X-19.674 Y.043 Z-1.989 B5. C=DC(0.)
X-19.674 Y-.828 Z-1.993 B5. C=DC(0.)
X-19.674 Y-1.264 Z-1.998 B5. C=DC(0.)
X-19.674 Y-2.135 Z-2.014 B5. C=DC(0.)
X-19.674 Y-3.006 Z-2.037 B5. C=DC(0.)
X-19.674 Y-4.312 Z-2.088 B5. C=DC(0.)
X-19.674 Y-5.184 Z-2.131 B5. C=DC(0.)
X-19.674 Y-5.619 Z-2.156 B5. C=DC(0.)
X-19.674 Y-6.055 Z-2.184 B5. C=DC(0.)
X-19.674 Y-6.926 Z-2.246 B5. C=DC(0.)
X-19.674 Y-7.797 Z-2.316 B5. C=DC(0.)
X-19.674 Y-8.668 Z-2.394 B5. C=DC(0.)
X-19.674 Y-9.539 Z-2.478 B5. C=DC(0.)
X-19.674 Y-9.971 Z-2.523 B5. C=DC(0.)
X-19.674 Y-10.834 Z-2.623 B5. C=DC(0.)
X-19.674 Y-11.697 Z-2.73 B5. C=DC(0.)
X-19.674 Y-12.56 Z-2.843 B5. C=DC(0.)
X-19.674 Y-12.991 Z-2.902 B5. C=DC(0.)
X-19.674 Y-13.423 Z-2.965 B5. C=DC(0.)
X-19.674 Y-13.855 Z-3.032 B5. C=DC(0.)
X-19.674 Y-14.718 Z-3.168 B5. C=DC(0.)
X-19.674 Y-15.581 Z-3.31 B5. C=DC(0.)
X-19.674 Y-16.009 Z-3.385 B5. C=DC(0.)
X-19.674 Y-17.293 Z-3.625 B5. C=DC(0.)
X-19.674 Y-17.721 Z-3.709 B5. C=DC(0.)
X-19.674 Y-18.149 Z-3.793 B5. C=DC(0.)
X-19.674 Y-18.577 Z-3.882 B5. C=DC(0.)
X-19.674 Y-19.852 Z-4.159 B5. C=DC(0.)
X-19.674 Y-20.277 Z-4.253 B5. C=DC(0.)
X-19.674 Y-21.551 Z-4.56 B5. C=DC(0.)
X-19.674 Y-21.973 Z-4.664 B5. C=DC(0.)
X-19.674 Y-22.395 Z-4.77 B5. C=DC(0.)
X-19.674 Y-23.238 Z-4.992 B5. C=DC(0.),8
X-19.674 Y-23.24 Z-4.992 B5. C=DC(0.),3
X-19.674 Y-37.5 Z-4.992 B5. C=DC(0.),7
X-18.674 Y-37.5 Z-4.992 B5. C=DC(0.),7
X-18.674 Y-24.046 Z-4.992 B5. C=DC(0.),8
X-18.674 Y-24.044 Z-4.992 B5. C=DC(0.),3
X-18.674 Y-23.204 Z-4.764 B5. C=DC(0.)
X-18.674 Y-22.782 Z-4.655 B5. C=DC(0.)
X-18.674 Y-21.939 Z-4.44 B5. C=DC(0.)
X-18.674 Y-21.09 Z-4.23 B5. C=DC(0.)
X-18.674 Y-20.241 Z-4.034 B5. C=DC(0.)
X-18.674 Y-19.392 Z-3.842 B5. C=DC(0.)
X-18.674 Y-18.967 Z-3.75 B5. C=DC(0.)
X-18.674 Y-17.684 Z-3.489 B5. C=DC(0.)
X-18.674 Y-16.828 Z-3.323 B5. C=DC(0.)
X-18.674 Y-16.4 Z-3.246 B5. C=DC(0.)
X-18.674 Y-15.117 Z-3.023 B5. C=DC(0.)
X-18.674 Y-14.686 Z-2.952 B5. C=DC(0.)
X-18.674 Y-13.823 Z-2.818 B5. C=DC(0.)
X-18.674 Y-12.961 Z-2.692 B5. C=DC(0.)
X-18.674 Y-12.098 Z-2.573 B5. C=DC(0.)
X-18.674 Y-11.667 Z-2.516 B5. C=DC(0.)
X-18.674 Y-10.804 Z-2.413 B5. C=DC(0.)
X-18.674 Y-9.942 Z-2.317 B5. C=DC(0.)
X-18.674 Y-9.079 Z-2.227 B5. C=DC(0.)
X-18.674 Y-8.208 Z-2.143 B5. C=DC(0.)
X-18.674 Y-7.773 Z-2.808 B5. C=DC(0.),1
X-18.674 Y-6.902 Z-2.041 B5. C=DC(0.)
X-18.674 Y-6.032 Z-1.981 B5. C=DC(0.)
X-18.674 Y-5.161 Z-1.928 B5. C=DC(0.)
X-18.674 Y-4.291 Z-1.883 B5. C=DC(0.)
X-18.674 Y-2.985 Z-1.83 B5. C=DC(0.)
X-18.674 Y-2.114 Z-1.806 B5. C=DC(0.)
X-18.674 Y-1.679 Z-1.798 B5. C=DC(0.)
X-18.674 Y-.808 Z-1.787 B5. C=DC(0.)
X-18.674 Y.063 Z-1.783 B5. C=DC(0.)
X-18.674 Y1.369 Z-1.793 B5. C=DC(0.)
X-18.674 Y2.239 Z-1.809 B5. C=DC(0.)
X-18.674 Y2.675 Z-1.821 B5. C=DC(0.)
X-18.674 Y3.545 Z-1.85 B5. C=DC(0.)
X-18.674 Y3.981 Z-1.869 B5. C=DC(0.)
X-18.674 Y4.851 Z-1.909 B5. C=DC(0.)
X-18.674 Y5.286 Z-1.932 B5. C=DC(0.)
X-18.674 Y5.722 Z-1.973 B5. C=DC(0.)
X-18.674 Y6.151 Z-2.031 B5. C=DC(0.)
X-18.674 Y6.581 Z-2.102 B5. C=DC(0.)
X-18.674 Y7.44 Z-2.256 B5. C=DC(0.)
X-18.674 Y7.869 Z-2.33 B5. C=DC(0.)
X-18.674 Y8.298 Z-2.396 B5. C=DC(0.)
X-18.674 Y8.728 Z-2.45 B5. C=DC(0.)
X-18.674 Y9.157 Z-2.492 B5. C=DC(0.)
X-18.674 Y9.587 Z-2.522 B5. C=DC(0.)
X-18.674 Y10.023 Z-2.54 B5. C=DC(0.)
X-18.674 Y10.459 Z-2.552 B5. C=DC(0.)
X-18.674 Y11.331 Z-2.565 B5. C=DC(0.)
X-18.674 Y11.767 Z-2.578 B5. C=DC(0.)
X-18.674 Y12.204 Z-2.602 B5. C=DC(0.)
X-18.674 Y12.64 Z-2.644 B5. C=DC(0.)
X-18.674 Y13.497 Z-2.768 B5. C=DC(0.)
X-18.674 Y14.354 Z-2.898 B5. C=DC(0.)
X-18.674 Y15.211 Z-3.039 B5. C=DC(0.)
X-18.674 Y16.069 Z-3.188 B5. C=DC(0.)
X-18.674 Y16.926 Z-3.341 B5. C=DC(0.)
X-18.674 Y17.783 Z-3.51 B5. C=DC(0.)
X-18.674 Y19.069 Z-3.771 B5. C=DC(0.)
X-18.674 Y19.488 Z-3.864 B5. C=DC(0.)
X-18.674 Y20.326 Z-4.053 B5. C=DC(0.)
X-18.674 Y21.164 Z-4.247 B5. C=DC(0.)
X-18.674 Y22.001 Z-4.455 B5. C=DC(0.)
X-18.674 Y22.839 Z-4.669 B5. C=DC(0.)
X-18.674 Y23.258 Z-4.778 B5. C=DC(0.)
X-18.674 Y24.043 Z-4.992 B5. C=DC(0.),8
X-18.674 Y24.045 Z-4.992 B5. C=DC(0.),3
X-18.674 Y37.5 Z-4.992 B5. C=DC(0.),7
X-17.674 Y37.5 Z-4.992 B5. C=DC(0.),7
X-17.674 Y24.78 Z-4.992 B5. C=DC(0.),8
X-17.674 Y23.889 Z-4.742 B5. C=DC(0.)
X-17.674 Y22.652 Z-4.415 B5. C=DC(0.)
X-17.674 Y22.239 Z-4.308 B5. C=DC(0.)
X-17.674 Y21.815 Z-4.203 B5. C=DC(0.)
X-17.674 Y20.967 Z-3.999 B5. C=DC(0.)
X-17.674 Y20.12 Z-3.801 B5. C=DC(0.)
X-17.674 Y19.696 Z-3.708 B5. C=DC(0.)
X-17.674 Y19.272 Z-3.616 B5. C=DC(0.)
X-17.674 Y18. Z-3.349 B5. C=DC(0.)
X-17.674 Y17.576 Z-3.268 B5. C=DC(0.)
X-17.674 Y16.728 Z-3.108 B5. C=DC(0.)
X-17.674 Y15.88 Z-2.954 B5. C=DC(0.)
X-17.674 Y15.457 Z-2.88 B5. C=DC(0.)
X-17.674 Y14.609 Z-2.742 B5. C=DC(0.)
X-17.674 Y14.177 Z-2.672 B5. C=DC(0.)
X-17.674 Y13.745 Z-2.621 B5. C=DC(0.)
X-17.674 Y13.313 Z-2.61 B5. C=DC(0.)
X-17.674 Y12.881 Z-2.632 B5. C=DC(0.)
X-17.674 Y12.449 Z-2.68 B5. C=DC(0.)
X-17.674 Y12.025 Z-2.747 B5. C=DC(0.)
X-17.674 Y11.6 Z-2.828 B5. C=DC(0.)
X-17.674 Y10.751 Z-3.01 B5. C=DC(0.)
X-17.674 Y10.326 Z-3.093 B5. C=DC(0.)
X-17.674 Y9.895 Z-3.162 B5. C=DC(0.)
X-17.674 Y9.464 Z-3.199 B5. C=DC(0.)
X-17.674 Y9.032 Z-3.198 B5. C=DC(0.)
X-17.674 Y8.601 Z-3.149 B5. C=DC(0.)
X-17.674 Y8.182 Z-3.053 B5. C=DC(0.)
X-17.674 Y7.769 Z-2.924 B5. C=DC(0.)
X-17.674 Y7.367 Z-2.769 B5. C=DC(0.)
X-17.674 Y6.966 Z-2.602 B5. C=DC(0.)
X-17.674 Y6.167 Z-2.263 B5. C=DC(0.)
X-17.674 Y5.76 Z-2.103 B5. C=DC(0.)
X-17.674 Y5.348 Z-1.959 B5. C=DC(0.)
X-17.674 Y4.925 Z-1.836 B5. C=DC(0.)
X-17.674 Y4.497 Z-1.741 B5. C=DC(0.)
X-17.674 Y4.062 Z-1.682 B5. C=DC(0.)
X-17.674 Y3.628 Z-1.661 B5. C=DC(0.)
X-17.674 Y2.76 Z-1.634 B5. C=DC(0.)
X-17.674 Y1.891 Z-1.613 B5. C=DC(0.)
X-17.674 Y1.023 Z-1.599 B5. C=DC(0.)
X-17.674 Y.154 Z-1.594 B5. C=DC(0.)
X-17.674 Y-.715 Z-1.596 B5. C=DC(0.)
X-17.674 Y-1.583 Z-1.607 B5. C=DC(0.)
X-17.674 Y-2.452 Z-1.626 B5. C=DC(0.)
X-17.674 Y-3.32 Z-1.653 B5. C=DC(0.)
X-17.674 Y-4.623 Z-1.708 B5. C=DC(0.)
X-17.674 Y-5.491 Z-1.753 B5. C=DC(0.)
X-17.674 Y-6.36 Z-1.806 B5. C=DC(0.)
X-17.674 Y-7.228 Z-1.871 B5. C=DC(0.)
X-17.674 Y-8.531 Z-2.383 B5. C=DC(0.),1
X-17.674 Y-9.4 Z-2.065 B5. C=DC(0.)
X-17.674 Y-10.268 Z-2.154 B5. C=DC(0.)
X-17.674 Y-11.137 Z-2.258 B5. C=DC(0.)
X-17.674 Y-11.567 Z-2.312 B5. C=DC(0.)
X-17.674 Y-12.858 Z-2.48 B5. C=DC(0.)
X-17.674 Y-13.289 Z-2.54 B5. C=DC(0.)
X-17.674 Y-14.15 Z-2.672 B5. C=DC(0.)
X-17.674 Y-14.58 Z-2.74 B5. C=DC(0.)
X-17.674 Y-15.441 Z-2.878 B5. C=DC(0.)
X-17.674 Y-15.871 Z-2.953 B5. C=DC(0.)
X-17.674 Y-16.729 Z-3.108 B5. C=DC(0.)
X-17.674 Y-17.583 Z-3.269 B5. C=DC(0.)
X-17.674 Y-18.01 Z-3.351 B5. C=DC(0.)
X-17.674 Y-19.291 Z-3.62 B5. C=DC(0.)
X-17.674 Y-20.141 Z-3.806 B5. C=DC(0.)
X-17.674 Y-20.989 Z-4.004 B5. C=DC(0.)
X-17.674 Y-21.837 Z-4.208 B5. C=DC(0.)
X-17.674 Y-22.258 Z-4.313 B5. C=DC(0.)
X-17.674 Y-22.678 Z-4.421 B5. C=DC(0.)
X-17.674 Y-23.941 Z-4.756 B5. C=DC(0.)
X-17.674 Y-24.78 Z-4.992 B5. C=DC(0.),8
X-17.674 Y-24.781 Z-4.992 B5. C=DC(0.),3
X-17.674 Y-37.5 Z-4.992 B5. C=DC(0.),7
X-16.674 Y-37.5 Z-4.992 B5. C=DC(0.),7
X-16.674 Y-25.456 Z-4.992 B5. C=DC(0.),8
X-16.674 Y-24.615 Z-4.749 B5. C=DC(0.)
X-16.674 Y-23.356 Z-4.406 B5. C=DC(0.)
X-16.674 Y-22.936 Z-4.293 B5. C=DC(0.)
X-16.674 Y-22.513 Z-4.186 B5. C=DC(0.)
X-16.674 Y-21.668 Z-3.976 B5. C=DC(0.)
X-16.674 Y-21.246 Z-3.872 B5. C=DC(0.)
X-16.674 Y-20.823 Z-3.772 B5. C=DC(0.)
X-16.674 Y-19.971 Z-3.58 B5. C=DC(0.)
X-16.674 Y-19.12 Z-3.393 B5. C=DC(0.)
X-16.674 Y-18.694 Z-3.303 B5. C=DC(0.)
X-16.674 Y-18.269 Z-3.218 B5. C=DC(0.)
X-16.674 Y-16.982 Z-2.966 B5. C=DC(0.)
X-16.674 Y-16.124 Z-2.812 B5. C=DC(0.)
X-16.674 Y-15.695 Z-2.738 B5. C=DC(0.)
X-16.674 Y-14.837 Z-2.594 B5. C=DC(0.)
X-16.674 Y-14.408 Z-2.523 B5. C=DC(0.)
X-16.674 Y-13.546 Z-2.396 B5. C=DC(0.)
X-16.674 Y-12.681 Z-2.273 B5. C=DC(0.)
X-16.674 Y-11.816 Z-2.156 B5. C=DC(0.)
X-16.674 Y-11.383 Z-2.103 B5. C=DC(0.)
X-16.674 Y-10.518 Z-2.003 B5. C=DC(0.)
X-16.674 Y-9.653 Z-1.909 B5. C=DC(0.)
X-16.674 Y-8.788 Z-1.821 B5. C=DC(0.)
X-16.674 Y-8.355 Z-1.983 B5. C=DC(0.),1
X-16.674 Y-7.49 Z-1.711 B5. C=DC(0.)
X-16.674 Y-6.625 Z-1.646 B5. C=DC(0.)
X-16.674 Y-5.759 Z-1.589 B5. C=DC(0.)
X-16.674 Y-4.894 Z-1.539 B5. C=DC(0.)
X-16.674 Y-4.462 Z-1.516 B5. C=DC(0.)
X-16.674 Y-3.587 Z-1.479 B5. C=DC(0.)
X-16.674 Y-2.713 Z-1.451 B5. C=DC(0.)
X-16.674 Y-1.839 Z-1.431 B5. C=DC(0.)
X-16.674 Y-.965 Z-1.418 B5. C=DC(0.)
X-16.674 Y-.091 Z-1.413 B5. C=DC(0.)
X-16.674 Y1.221 Z-1.421 B5. C=DC(0.)
X-16.674 Y2.095 Z-1.435 B5. C=DC(0.)
X-16.674 Y2.969 Z-1.456 B5. C=DC(0.),8
X-16.674 Y3.406 Z-1.499 B5. C=DC(0.)
X-16.674 Y3.838 Z-1.599 B5. C=DC(0.)
X-16.674 Y4.253 Z-1.749 B5. C=DC(0.)
X-16.674 Y4.654 Z-1.945 B5. C=DC(0.)
X-16.674 Y4.845 Z-2.057 B5. C=DC(0.)
X-16.674 Y5.036 Z-2.182 B5. C=DC(0.)
X-16.674 Y5.214 Z-2.313 B5. C=DC(0.)
X-16.674 Y5.393 Z-2.455 B5. C=DC(0.)
X-16.674 Y5.558 Z-2.604 B5. C=DC(0.)
X-16.674 Y5.724 Z-2.77 B5. C=DC(0.)
X-16.674 Y5.871 Z-2.938 B5. C=DC(0.)
X-16.674 Y6.018 Z-3.135 B5. C=DC(0.)
X-16.674 Y6.138 Z-3.333 B5. C=DC(0.)
X-16.674 Y6.258 Z-3.55 B5. C=DC(0.)
X-16.674 Y6.469 Z-3.861 B5. C=DC(0.)
X-16.674 Y6.734 Z-4.184 B5. C=DC(0.)
X-16.674 Y7.055 Z-4.476 B5. C=DC(0.)
X-16.674 Y7.375 Z-4.688 B5. C=DC(0.)
X-16.674 Y7.743 Z-4.881 B5. C=DC(0.)
X-16.674 Y8.145 Z-5.022 B5. C=DC(0.)
X-16.674 Y8.558 Z-5.115 B5. C=DC(0.)
X-16.674 Y8.984 Z-5.146 B5. C=DC(0.)
X-16.674 Y9.416 Z-5.115 B5. C=DC(0.)
X-16.674 Y9.848 Z-5.024 B5. C=DC(0.)
X-16.674 Y10.267 Z-4.88 B5. C=DC(0.)
X-16.674 Y10.47 Z-4.778 B5. C=DC(0.)
X-16.674 Y10.673 Z-4.662 B5. C=DC(0.)
X-16.674 Y10.862 Z-4.532 B5. C=DC(0.)
X-16.674 Y11.051 Z-4.384 B5. C=DC(0.)
X-16.674 Y11.219 Z-4.225 B5. C=DC(0.)
X-16.674 Y11.386 Z-4.056 B5. C=DC(0.)
X-16.674 Y11.676 Z-3.717 B5. C=DC(0.)
X-16.674 Y11.98 Z-3.448 B5. C=DC(0.)
X-16.674 Y12.325 Z-3.213 B5. C=DC(0.)
X-16.674 Y12.695 Z-3.012 B5. C=DC(0.)
X-16.674 Y13.089 Z-2.844 B5. C=DC(0.)
X-16.674 Y13.496 Z-2.714 B5. C=DC(0.)
X-16.674 Y13.917 Z-2.625 B5. C=DC(0.)
X-16.674 Y14.346 Z-2.581 B5. C=DC(0.)
X-16.674 Y14.783 Z-2.591 B5. C=DC(0.)
X-16.674 Y15.211 Z-2.654 B5. C=DC(0.)
X-16.674 Y15.64 Z-2.727 B5. C=DC(0.),8
X-16.674 Y16.497 Z-2.877 B5. C=DC(0.)
X-16.674 Y16.926 Z-2.955 B5. C=DC(0.)
X-16.674 Y18.212 Z-3.206 B5. C=DC(0.)
X-16.674 Y19.069 Z-3.382 B5. C=DC(0.)
X-16.674 Y19.907 Z-3.566 B5. C=DC(0.)
X-16.674 Y20.744 Z-3.754 B5. C=DC(0.)
X-16.674 Y21.582 Z-3.955 B5. C=DC(0.)
X-16.674 Y22.839 Z-4.267 B5. C=DC(0.)
X-16.674 Y23.258 Z-4.379 B5. C=DC(0.)
X-16.674 Y24.514 Z-4.721 B5. C=DC(0.)
X-16.674 Y25.455 Z-4.992 B5. C=DC(0.),8
X-16.674 Y25.457 Z-4.992 B5. C=DC(0.),3
X-16.674 Y37.5 Z-4.992 B5. C=DC(0.),7
X-15.674 Y37.5 Z-4.992 B5. C=DC(0.),7
X-15.674 Y26.077 Z-4.992 B5. C=DC(0.),8
X-15.674 Y25.513 Z-4.824 B5. C=DC(0.)
X-15.674 Y25.1 Z-4.705 B5. C=DC(0.)
X-15.674 Y23.86 Z-4.358 B5. C=DC(0.)
X-15.674 Y23.446 Z-4.245 B5. C=DC(0.)
X-15.674 Y21.793 Z-3.824 B5. C=DC(0.)
X-15.674 Y21.369 Z-3.722 B5. C=DC(0.)
X-15.674 Y20.095 Z-3.428 B5. C=DC(0.)
X-15.674 Y19.671 Z-3.333 B5. C=DC(0.)
X-15.674 Y18.822 Z-3.155 B5. C=DC(0.)
X-15.674 Y18.397 Z-3.068 B5. C=DC(0.)
X-15.674 Y17.548 Z-2.897 B5. C=DC(0.)
X-15.674 Y17.123 Z-2.818 B5. C=DC(0.)
X-15.674 Y15.85 Z-2.588 B5. C=DC(0.),8
X-15.674 Y15.417 Z-2.523 B5. C=DC(0.)
X-15.674 Y14.984 Z-2.526 B5. C=DC(0.)
X-15.674 Y14.559 Z-2.595 B5. C=DC(0.)
X-15.674 Y14.157 Z-2.724 B5. C=DC(0.)
X-15.674 Y13.78 Z-2.905 B5. C=DC(0.)
X-15.674 Y13.436 Z-3.136 B5. C=DC(0.)
X-15.674 Y13.139 Z-3.404 B5. C=DC(0.)
X-15.674 Y12.898 Z-3.707 B5. C=DC(0.)
X-15.674 Y12.659 Z-4.129 B5. C=DC(0.)
X-15.674 Y12.524 Z-4.334 B5. C=DC(0.)
X-15.674 Y12.389 Z-4.529 B5. C=DC(0.)
X-15.674 Y12.234 Z-4.725 B5. C=DC(0.)
X-15.674 Y12.079 Z-4.899 B5. C=DC(0.)
X-15.674 Y11.912 Z-5.063 B5. C=DC(0.)
X-15.674 Y11.745 Z-5.22 B5. C=DC(0.)
X-15.674 Y11.401 Z-5.484 B5. C=DC(0.)
X-15.674 Y11.028 Z-5.709 B5. C=DC(0.)
X-15.674 Y10.825 Z-5.815 B5. C=DC(0.)
X-15.674 Y10.621 Z-5.905 B5. C=DC(0.)
X-15.674 Y10.208 Z-6.053 B5. C=DC(0.)
X-15.674 Y9.781 Z-6.155 B5. C=DC(0.)
X-15.674 Y9.348 Z-6.211 B5. C=DC(0.)
X-15.674 Y8.915 Z-6.226 B5. C=DC(0.)
X-15.674 Y8.482 Z-6.194 B5. C=DC(0.)
X-15.674 Y8.061 Z-6.123 B5. C=DC(0.)
X-15.674 Y7.653 Z-6.006 B5. C=DC(0.)
X-15.674 Y7.249 Z-5.849 B5. C=DC(0.)
X-15.674 Y6.866 Z-5.65 B5. C=DC(0.)
X-15.674 Y6.514 Z-5.422 B5. C=DC(0.)
X-15.674 Y6.198 Z-5.17 B5. C=DC(0.)
X-15.674 Y5.894 Z-4.87 B5. C=DC(0.)
X-15.674 Y5.617 Z-4.54 B5. C=DC(0.)
X-15.674 Y5.382 Z-4.189 B5. C=DC(0.)
X-15.674 Y5.182 Z-3.818 B5. C=DC(0.)
X-15.674 Y5.018 Z-3.434 B5. C=DC(0.)
X-15.674 Y4.944 Z-3.228 B5. C=DC(0.)
X-15.674 Y4.871 Z-2.999 B5. C=DC(0.)
X-15.674 Y4.748 Z-2.722 B5. C=DC(0.)
X-15.674 Y4.624 Z-2.521 B5. C=DC(0.)
X-15.674 Y4.47 Z-2.314 B5. C=DC(0.)
X-15.674 Y4.317 Z-2.144 B5. C=DC(0.)
X-15.674 Y4.142 Z-1.98 B5. C=DC(0.)
X-15.674 Y3.968 Z-1.839 B5. C=DC(0.)
X-15.674 Y3.775 Z-1.708 B5. C=DC(0.)
X-15.674 Y3.582 Z-1.596 B5. C=DC(0.)
X-15.674 Y3.173 Z-1.418 B5. C=DC(0.)
X-15.674 Y2.744 Z-1.307 B5. C=DC(0.)
X-15.674 Y2.31 Z-1.269 B5. C=DC(0.),8
X-15.674 Y1.007 Z-1.248 B5. C=DC(0.)
X-15.674 Y.138 Z-1.242 B5. C=DC(0.)
X-15.674 Y-.731 Z-1.245 B5. C=DC(0.)
X-15.674 Y-1.6 Z-1.256 B5. C=DC(0.)
X-15.674 Y-2.469 Z-1.275 B5. C=DC(0.)
X-15.674 Y-3.338 Z-1.303 B5. C=DC(0.)
X-15.674 Y-4.207 Z-1.338 B5. C=DC(0.)
X-15.674 Y-5.076 Z-1.381 B5. C=DC(0.)
X-15.674 Y-5.945 Z-1.431 B5. C=DC(0.)
X-15.674 Y-6.813 Z-1.487 B5. C=DC(0.)
X-15.674 Y-7.682 Z-1.555 B5. C=DC(0.)
X-15.674 Y-8.551 Z-1.632 B5. C=DC(0.)
X-15.674 Y-9.42 Z-1.715 B5. C=DC(0.)
X-15.674 Y-10.289 Z-1.803 B5. C=DC(0.)
X-15.674 Y-10.723 Z-1.853 B5. C=DC(0.)
X-15.674 Y-11.585 Z-1.958 B5. C=DC(0.)
X-15.674 Y-12.876 Z-2.125 B5. C=DC(0.)
X-15.674 Y-13.307 Z-2.186 B5. C=DC(0.)
X-15.674 Y-13.737 Z-2.25 B5. C=DC(0.)
X-15.674 Y-14.599 Z-2.383 B5. C=DC(0.)
X-15.674 Y-15.46 Z-2.521 B5. C=DC(0.)
X-15.674 Y-16.321 Z-2.673 B5. C=DC(0.)
X-15.674 Y-17.182 Z-2.829 B5. C=DC(0.)
X-15.674 Y-17.609 Z-2.909 B5. C=DC(0.)
X-15.674 Y-18.464 Z-3.081 B5. C=DC(0.)
X-15.674 Y-19.742 Z-3.348 B5. C=DC(0.)
X-15.674 Y-20.166 Z-3.444 B5. C=DC(0.)
X-15.674 Y-21.438 Z-3.738 B5. C=DC(0.)
X-15.674 Y-21.862 Z-3.841 B5. C=DC(0.)
X-15.674 Y-23.134 Z-4.165 B5. C=DC(0.)
X-15.674 Y-23.555 Z-4.274 B5. C=DC(0.)
X-15.674 Y-25.239 Z-4.744 B5. C=DC(0.)
X-15.674 Y-26.076 Z-4.992 B5. C=DC(0.),8
X-15.674 Y-26.078 Z-4.992 B5. C=DC(0.),3
X-15.674 Y-37.5 Z-4.992 B5. C=DC(0.),7
X-14.674 Y-37.5 Z-4.992 B5. C=DC(0.),7
X-14.674 Y-26.647 Z-4.992 B5. C=DC(0.),8
X-14.674 Y-26.645 Z-4.992 B5. C=DC(0.),3
X-14.674 Y-25.812 Z-4.739 B5. C=DC(0.)
X-14.674 Y-24.135 Z-4.26 B5. C=DC(0.)
X-14.674 Y-23.715 Z-4.15 B5. C=DC(0.)
X-14.674 Y-22.449 Z-3.819 B5. C=DC(0.)
X-14.674 Y-22.027 Z-3.714 B5. C=DC(0.)
X-14.674 Y-20.751 Z-3.41 B5. C=DC(0.)
X-14.674 Y-20.326 Z-3.311 B5. C=DC(0.)
X-14.674 Y-19.05 Z-3.037 B5. C=DC(0.)
X-14.674 Y-18.625 Z-2.947 B5. C=DC(0.)
X-14.674 Y-18.2 Z-2.862 B5. C=DC(0.)
X-14.674 Y-17.343 Z-2.697 B5. C=DC(0.)
X-14.674 Y-16.486 Z-2.536 B5. C=DC(0.)
X-14.674 Y-16.058 Z-2.461 B5. C=DC(0.)
X-14.674 Y-15.201 Z-2.318 B5. C=DC(0.)
X-14.674 Y-14.772 Z-2.248 B5. C=DC(0.)
X-14.674 Y-13.908 Z-2.113 B5. C=DC(0.)
X-14.674 Y-13.044 Z-1.99 B5. C=DC(0.)
X-14.674 Y-12.612 Z-1.93 B5. C=DC(0.)
X-14.674 Y-11.748 Z-1.814 B5. C=DC(0.)
X-14.674 Y-10.884 Z-1.713 B5. C=DC(0.)
X-14.674 Y-10.452 Z-1.665 B5. C=DC(0.)
X-14.674 Y-9.588 Z-1.571 B5. C=DC(0.)
X-14.674 Y-8.724 Z-1.485 B5. C=DC(0.)
X-14.674 Y-7.86 Z-1.412 B5. C=DC(0.)
X-14.674 Y-6.992 Z-1.344 B5. C=DC(0.)
X-14.674 Y-6.12 Z-1.283 B5. C=DC(0.)
X-14.674 Y-5.247 Z-1.228 B5. C=DC(0.)
X-14.674 Y-4.375 Z-1.185 B5. C=DC(0.)
X-14.674 Y-3.502 Z-1.15 B5. C=DC(0.)
X-14.674 Y-2.63 Z-1.123 B5. C=DC(0.)
X-14.674 Y-1.758 Z-1.103 B5. C=DC(0.)
X-14.674 Y-.885 Z-1.091 B5. C=DC(0.)
X-14.674 Y-.013 Z-1.087 B5. C=DC(0.)
X-14.674 Y.86 Z-1.091 B5. C=DC(0.)
X-14.674 Y1.732 Z-1.101 B5. C=DC(0.),8
X-14.674 Y2.168 Z-1.118 B5. C=DC(0.)
X-14.674 Y2.599 Z-1.211 B5. C=DC(0.)
X-14.674 Y2.807 Z-1.288 B5. C=DC(0.)
X-14.674 Y3.014 Z-1.389 B5. C=DC(0.)
X-14.674 Y3.206 Z-1.506 B5. C=DC(0.)
X-14.674 Y3.398 Z-1.647 B5. C=DC(0.)
X-14.674 Y3.566 Z-1.8 B5. C=DC(0.)
X-14.674 Y3.735 Z-1.987 B5. C=DC(0.)
X-14.674 Y3.873 Z-2.171 B5. C=DC(0.)
X-14.674 Y4.01 Z-2.405 B5. C=DC(0.)
X-14.674 Y4.108 Z-2.632 B5. C=DC(0.)
X-14.674 Y4.206 Z-2.971 B5. C=DC(0.)
X-14.674 Y4.308 Z-3.384 B5. C=DC(0.)
X-14.674 Y4.444 Z-3.776 B5. C=DC(0.)
X-14.674 Y4.618 Z-4.164 B5. C=DC(0.)
X-14.674 Y4.823 Z-4.537 B5. C=DC(0.)
X-14.674 Y5.058 Z-4.892 B5. C=DC(0.)
X-14.674 Y5.322 Z-5.218 B5. C=DC(0.)
X-14.674 Y5.62 Z-5.532 B5. C=DC(0.)
X-14.674 Y5.939 Z-5.81 B5. C=DC(0.)
X-14.674 Y6.286 Z-6.065 B5. C=DC(0.)
X-14.674 Y6.64 Z-6.279 B5. C=DC(0.)
X-14.674 Y7.021 Z-6.466 B5. C=DC(0.)
X-14.674 Y7.417 Z-6.622 B5. C=DC(0.)
X-14.674 Y7.829 Z-6.744 B5. C=DC(0.)
X-14.674 Y8.247 Z-6.827 B5. C=DC(0.)
X-14.674 Y8.677 Z-6.874 B5. C=DC(0.)
X-14.674 Y9.108 Z-6.884 B5. C=DC(0.)
X-14.674 Y9.544 Z-6.855 B5. C=DC(0.)
X-14.674 Y9.974 Z-6.79 B5. C=DC(0.)
X-14.674 Y10.398 Z-6.681 B5. C=DC(0.)
X-14.674 Y10.815 Z-6.537 B5. C=DC(0.)
X-14.674 Y11.213 Z-6.358 B5. C=DC(0.)
X-14.674 Y11.409 Z-6.249 B5. C=DC(0.)
X-14.674 Y11.606 Z-6.134 B5. C=DC(0.)
X-14.674 Y11.793 Z-6.008 B5. C=DC(0.)
X-14.674 Y11.981 Z-5.871 B5. C=DC(0.)
X-14.674 Y12.156 Z-5.731 B5. C=DC(0.)
X-14.674 Y12.33 Z-5.574 B5. C=DC(0.)
X-14.674 Y12.492 Z-5.418 B5. C=DC(0.)
X-14.674 Y12.653 Z-5.247 B5. C=DC(0.)
X-14.674 Y12.799 Z-5.071 B5. C=DC(0.)
X-14.674 Y12.945 Z-4.883 B5. C=DC(0.)
X-14.674 Y13.079 Z-4.689 B5. C=DC(0.)
X-14.674 Y13.212 Z-4.486 B5. C=DC(0.)
X-14.674 Y13.331 Z-4.264 B5. C=DC(0.)
X-14.674 Y13.45 Z-4.027 B5. C=DC(0.)
X-14.674 Y13.63 Z-3.64 B5. C=DC(0.)
X-14.674 Y13.837 Z-3.329 B5. C=DC(0.)
X-14.674 Y14.109 Z-3.043 B5. C=DC(0.)
X-14.674 Y14.434 Z-2.801 B5. C=DC(0.)
X-14.674 Y14.806 Z-2.61 B5. C=DC(0.)
X-14.674 Y15.204 Z-2.487 B5. C=DC(0.)
X-14.674 Y15.625 Z-2.433 B5. C=DC(0.)
X-14.674 Y16.054 Z-2.459 B5. C=DC(0.)
X-14.674 Y16.483 Z-2.536 B5. C=DC(0.),8
X-14.674 Y17.341 Z-2.696 B5. C=DC(0.)
X-14.674 Y18.199 Z-2.862 B5. C=DC(0.)
X-14.674 Y18.628 Z-2.947 B5. C=DC(0.)
X-14.674 Y19.047 Z-3.036 B5. C=DC(0.)
X-14.674 Y20.305 Z-3.307 B5. C=DC(0.)
X-14.674 Y20.725 Z-3.404 B5. C=DC(0.)
X-14.674 Y21.983 Z-3.703 B5. C=DC(0.)
X-14.674 Y22.402 Z-3.806 B5. C=DC(0.)
X-14.674 Y24.08 Z-4.245 B5. C=DC(0.)
X-14.674 Y25.757 Z-4.724 B5. C=DC(0.)
X-14.674 Y26.177 Z-4.849 B5. C=DC(0.)
X-14.674 Y26.644 Z-4.992 B5. C=DC(0.),8
X-14.674 Y26.646 Z-4.992 B5. C=DC(0.),3
X-14.674 Y37.5 Z-4.992 B5. C=DC(0.),7
X-13.674 Y37.5 Z-4.992 B5. C=DC(0.),7
X-13.674 Y27.167 Z-4.992 B5. C=DC(0.),8
X-13.674 Y26.488 Z-4.781 B5. C=DC(0.)
X-13.674 Y26.08 Z-4.661 B5. C=DC(0.)
X-13.674 Y24.856 Z-4.304 B5. C=DC(0.)
X-13.674 Y24.435 Z-4.186 B5. C=DC(0.)
X-13.674 Y23.171 Z-3.848 B5. C=DC(0.)
X-13.674 Y22.749 Z-3.738 B5. C=DC(0.)
X-13.674 Y22.328 Z-3.633 B5. C=DC(0.)
X-13.674 Y21.485 Z-3.428 B5. C=DC(0.)
X-13.674 Y21.063 Z-3.326 B5. C=DC(0.)
X-13.674 Y20.642 Z-3.23 B5. C=DC(0.)
X-13.674 Y19.378 Z-2.95 B5. C=DC(0.)
X-13.674 Y18.956 Z-2.862 B5. C=DC(0.)
X-13.674 Y17.692 Z-2.61 B5. C=DC(0.)
X-13.674 Y17.27 Z-2.527 B5. C=DC(0.)
X-13.674 Y16.41 Z-2.37 B5. C=DC(0.),8
X-13.674 Y15.979 Z-2.331 B5. C=DC(0.)
X-13.674 Y15.557 Z-2.381 B5. C=DC(0.)
X-13.674 Y15.158 Z-2.511 B5. C=DC(0.)
X-13.674 Y14.798 Z-2.71 B5. C=DC(0.)
X-13.674 Y14.491 Z-2.965 B5. C=DC(0.)
X-13.674 Y14.241 Z-3.262 B5. C=DC(0.)
X-13.674 Y14.058 Z-3.581 B5. C=DC(0.)
X-13.674 Y13.898 Z-3.978 B5. C=DC(0.)
X-13.674 Y13.802 Z-4.201 B5. C=DC(0.)
X-13.674 Y13.706 Z-4.397 B5. C=DC(0.)
X-13.674 Y13.596 Z-4.599 B5. C=DC(0.)
X-13.674 Y13.486 Z-4.786 B5. C=DC(0.)
X-13.674 Y13.35 Z-4.99 B5. C=DC(0.)
X-13.674 Y13.213 Z-5.184 B5. C=DC(0.)
X-13.674 Y13.063 Z-5.369 B5. C=DC(0.)
X-13.674 Y12.913 Z-5.545 B5. C=DC(0.)
X-13.674 Y12.752 Z-5.716 B5. C=DC(0.)
X-13.674 Y12.59 Z-5.871 B5. C=DC(0.)
X-13.674 Y12.417 Z-6.025 B5. C=DC(0.)
X-13.674 Y12.244 Z-6.164 B5. C=DC(0.)
X-13.674 Y12.061 Z-6.304 B5. C=DC(0.)
X-13.674 Y11.684 Z-6.548 B5. C=DC(0.)
X-13.674 Y11.49 Z-6.655 B5. C=DC(0.)
X-13.674 Y11.09 Z-6.847 B5. C=DC(0.)
X-13.674 Y10.677 Z-7.006 B5. C=DC(0.)
X-13.674 Y10.251 Z-7.131 B5. C=DC(0.)
X-13.674 Y9.825 Z-7.214 B5. C=DC(0.)
X-13.674 Y9.393 Z-7.266 B5. C=DC(0.)
X-13.674 Y8.96 Z-7.279 B5. C=DC(0.)
X-13.674 Y8.528 Z-7.26 B5. C=DC(0.)
X-13.674 Y8.102 Z-7.202 B5. C=DC(0.)
X-13.674 Y7.682 Z-7.114 B5. C=DC(0.)
X-13.674 Y7.268 Z-6.988 B5. C=DC(0.)
X-13.674 Y6.87 Z-6.83 B5. C=DC(0.)
X-13.674 Y6.487 Z-6.642 B5. C=DC(0.)
X-13.674 Y6.122 Z-6.426 B5. C=DC(0.)
X-13.674 Y5.774 Z-6.178 B5. C=DC(0.)
X-13.674 Y5.45 Z-5.907 B5. C=DC(0.)
X-13.674 Y5.148 Z-5.608 B5. C=DC(0.)
X-13.674 Y4.871 Z-5.291 B5. C=DC(0.)
X-13.674 Y4.624 Z-4.954 B5. C=DC(0.)
X-13.674 Y4.405 Z-4.598 B5. C=DC(0.)
X-13.674 Y4.215 Z-4.229 B5. C=DC(0.)
X-13.674 Y4.055 Z-3.848 B5. C=DC(0.)
X-13.674 Y3.926 Z-3.461 B5. C=DC(0.)
X-13.674 Y3.829 Z-3.075 B5. C=DC(0.)
X-13.674 Y3.713 Z-2.517 B5. C=DC(0.)
X-13.674 Y3.599 Z-2.207 B5. C=DC(0.)
X-13.674 Y3.486 Z-1.994 B5. C=DC(0.)
X-13.674 Y3.335 Z-1.777 B5. C=DC(0.)
X-13.674 Y3.185 Z-1.606 B5. C=DC(0.)
X-13.674 Y3.004 Z-1.438 B5. C=DC(0.)
X-13.674 Y2.824 Z-1.305 B5. C=DC(0.)
X-13.674 Y2.622 Z-1.186 B5. C=DC(0.)
X-13.674 Y2.42 Z-1.095 B5. C=DC(0.)
X-13.674 Y1.993 Z-.978 B5. C=DC(0.)
X-13.674 Y1.559 Z-.949 B5. C=DC(0.),8
X-13.674 Y.693 Z-.94 B5. C=DC(0.)
X-13.674 Y-.173 Z-.938 B5. C=DC(0.)
X-13.674 Y-1.039 Z-.943 B5. C=DC(0.)
X-13.674 Y-1.905 Z-.956 B5. C=DC(0.)
X-13.674 Y-2.771 Z-.977 B5. C=DC(0.)
X-13.674 Y-3.637 Z-1.008 B5. C=DC(0.)
X-13.674 Y-4.503 Z-1.046 B5. C=DC(0.)
X-13.674 Y-5.369 Z-1.091 B5. C=DC(0.)
X-13.674 Y-6.235 Z-1.143 B5. C=DC(0.)
X-13.674 Y-7.101 Z-1.202 B5. C=DC(0.)
X-13.674 Y-7.967 Z-1.272 B5. C=DC(0.)
X-13.674 Y-8.833 Z-1.35 B5. C=DC(0.)
X-13.674 Y-10.132 Z-1.478 B5. C=DC(0.)
X-13.674 Y-10.565 Z-1.526 B5. C=DC(0.)
X-13.674 Y-10.998 Z-1.577 B5. C=DC(0.)
X-13.674 Y-11.864 Z-1.683 B5. C=DC(0.)
X-13.674 Y-12.73 Z-1.794 B5. C=DC(0.)
X-13.674 Y-13.159 Z-1.854 B5. C=DC(0.)
X-13.674 Y-14.018 Z-1.981 B5. C=DC(0.)
X-13.674 Y-14.877 Z-2.112 B5. C=DC(0.)
X-13.674 Y-15.306 Z-2.182 B5. C=DC(0.)
X-13.674 Y-16.165 Z-2.33 B5. C=DC(0.)
X-13.674 Y-17.023 Z-2.483 B5. C=DC(0.)
X-13.674 Y-17.453 Z-2.562 B5. C=DC(0.)
X-13.674 Y-18.731 Z-2.817 B5. C=DC(0.)
X-13.674 Y-19.157 Z-2.903 B5. C=DC(0.)
X-13.674 Y-19.583 Z-2.996 B5. C=DC(0.)
X-13.674 Y-20.435 Z-3.184 B5. C=DC(0.)
X-13.674 Y-20.861 Z-3.28 B5. C=DC(0.)
X-13.674 Y-21.283 Z-3.379 B5. C=DC(0.)
X-13.674 Y-22.129 Z-3.585 B5. C=DC(0.)
X-13.674 Y-22.552 Z-3.689 B5. C=DC(0.)
X-13.674 Y-22.972 Z-3.794 B5. C=DC(0.)
X-13.674 Y-24.232 Z-4.131 B5. C=DC(0.)
X-13.674 Y-24.652 Z-4.245 B5. C=DC(0.)
X-13.674 Y-26.332 Z-4.734 B5. C=DC(0.)
X-13.674 Y-27.166 Z-4.992 B5. C=DC(0.),8
X-13.674 Y-27.168 Z-4.992 B5. C=DC(0.),3
X-13.674 Y-37.5 Z-4.992 B5. C=DC(0.),7
X-12.674 Y-37.5 Z-4.992 B5. C=DC(0.),7
X-12.674 Y-27.643 Z-4.992 B5. C=DC(0.),8
X-12.674 Y-27.641 Z-4.992 B5. C=DC(0.),3
X-12.674 Y-26.811 Z-4.732 B5. C=DC(0.)
X-12.674 Y-25.559 Z-4.359 B5. C=DC(0.)
X-12.674 Y-25.141 Z-4.236 B5. C=DC(0.)
X-12.674 Y-24.721 Z-4.12 B5. C=DC(0.)
X-12.674 Y-23.459 Z-3.776 B5. C=DC(0.)
X-12.674 Y-23.036 Z-3.668 B5. C=DC(0.)
X-12.674 Y-22.613 Z-3.56 B5. C=DC(0.)
X-12.674 Y-21.766 Z-3.349 B5. C=DC(0.)
X-12.674 Y-20.919 Z-3.152 B5. C=DC(0.)
X-12.674 Y-20.07 Z-2.958 B5. C=DC(0.)
X-12.674 Y-19.643 Z-2.865 B5. C=DC(0.)
X-12.674 Y-18.79 Z-2.688 B5. C=DC(0.)
X-12.674 Y-17.937 Z-2.514 B5. C=DC(0.)
X-12.674 Y-17.508 Z-2.433 B5. C=DC(0.)
X-12.674 Y-16.218 Z-2.197 B5. C=DC(0.)
X-12.674 Y-15.359 Z-2.053 B5. C=DC(0.)
X-12.674 Y-14.929 Z-1.983 B5. C=DC(0.)
X-12.674 Y-14.07 Z-1.847 B5. C=DC(0.)
X-12.674 Y-13.21 Z-1.723 B5. C=DC(0.)
X-12.674 Y-11.914 Z-1.549 B5. C=DC(0.)
X-12.674 Y-11.48 Z-1.494 B5. C=DC(0.)
X-12.674 Y-10.613 Z-1.393 B5. C=DC(0.)
X-12.674 Y-10.18 Z-1.346 B5. C=DC(0.)
X-12.674 Y-9.18 Z-1.346 B5. C=DC(0.)
X-12.674 Y-9.313 Z-1.257 B5. C=DC(0.),2
X-12.674 Y-8.879 Z-1.214 B5. C=DC(0.)
X-12.674 Y-8.012 Z-1.14 B5. C=DC(0.)
X-12.674 Y-7.146 Z-1.071 B5. C=DC(0.)
X-12.674 Y-6.279 Z-1.009 B5. C=DC(0.)
X-12.674 Y-5.412 Z-.954 B5. C=DC(0.)
X-12.674 Y-4.545 Z-.911 B5. C=DC(0.)
X-12.674 Y-3.678 Z-.875 B5. C=DC(0.)
X-12.674 Y-2.811 Z-.845 B5. C=DC(0.)
X-12.674 Y-1.944 Z-.823 B5. C=DC(0.)
X-12.674 Y-1.077 Z-.81 B5. C=DC(0.)
X-12.674 Y-.21 Z-.804 B5. C=DC(0.)
X-12.674 Y.657 Z-.806 B5. C=DC(0.)
X-12.674 Y1.523 Z-.813 B5. C=DC(0.),8
X-12.674 Y1.957 Z-.855 B5. C=DC(0.)
X-12.674 Y2.171 Z-.913 B5. C=DC(0.)
X-12.674 Y2.385 Z-.997 B5. C=DC(0.)
X-12.674 Y2.582 Z-1.102 B5. C=DC(0.)
X-12.674 Y2.78 Z-1.237 B5. C=DC(0.)
X-12.674 Y2.952 Z-1.386 B5. C=DC(0.)
X-12.674 Y3.123 Z-1.575 B5. C=DC(0.)
X-12.674 Y3.26 Z-1.767 B5. C=DC(0.)
X-12.674 Y3.396 Z-2.024 B5. C=DC(0.)
X-12.674 Y3.485 Z-2.263 B5. C=DC(0.)
X-12.674 Y3.574 Z-2.696 B5. C=DC(0.)
X-12.674 Y3.645 Z-3.098 B5. C=DC(0.)
X-12.674 Y3.737 Z-3.479 B5. C=DC(0.)
X-12.674 Y3.861 Z-3.863 B5. C=DC(0.)
X-12.674 Y4.015 Z-4.242 B5. C=DC(0.)
X-12.674 Y4.198 Z-4.611 B5. C=DC(0.)
X-12.674 Y4.41 Z-4.968 B5. C=DC(0.)
X-12.674 Y4.65 Z-5.31 B5. C=DC(0.)
X-12.674 Y4.917 Z-5.633 B5. C=DC(0.)
X-12.674 Y5.208 Z-5.934 B5. C=DC(0.)
X-12.674 Y5.521 Z-6.214 B5. C=DC(0.)
X-12.674 Y5.858 Z-6.47 B5. C=DC(0.)
X-12.674 Y6.213 Z-6.701 B5. C=DC(0.)
X-12.674 Y6.586 Z-6.903 B5. C=DC(0.)
X-12.674 Y6.972 Z-7.075 B5. C=DC(0.)
X-12.674 Y7.374 Z-7.217 B5. C=DC(0.)
X-12.674 Y7.786 Z-7.329 B5. C=DC(0.)
X-12.674 Y8.211 Z-7.408 B5. C=DC(0.)
X-12.674 Y8.642 Z-7.453 B5. C=DC(0.)
X-12.674 Y9.072 Z-7.465 B5. C=DC(0.)
X-12.674 Y9.51 Z-7.442 B5. C=DC(0.)
X-12.674 Y9.94 Z-7.383 B5. C=DC(0.)
X-12.674 Y10.371 Z-7.29 B5. C=DC(0.)
X-12.674 Y10.795 Z-7.162 B5. C=DC(0.)
X-12.674 Y11.206 Z-7.001 B5. C=DC(0.)
X-12.674 Y11.604 Z-6.806 B5. C=DC(0.)
X-12.674 Y11.991 Z-6.577 B5. C=DC(0.)
X-12.674 Y12.36 Z-6.314 B5. C=DC(0.)
X-12.674 Y12.696 Z-6.028 B5. C=DC(0.)
X-12.674 Y13.01 Z-5.714 B5. C=DC(0.)
X-12.674 Y13.155 Z-5.55 B5. C=DC(0.)
X-12.674 Y13.301 Z-5.37 B5. C=DC(0.)
X-12.674 Y13.434 Z-5.198 B5. C=DC(0.)
X-12.674 Y13.687 Z-4.815 B5. C=DC(0.)
X-12.674 Y13.806 Z-4.601 B5. C=DC(0.)
X-12.674 Y13.912 Z-4.397 B5. C=DC(0.)
X-12.674 Y14.018 Z-4.17 B5. C=DC(0.)
X-12.674 Y14.11 Z-3.94 B5. C=DC(0.)
X-12.674 Y14.201 Z-3.697 B5. C=DC(0.)
X-12.674 Y14.356 Z-3.319 B5. C=DC(0.)
X-12.674 Y14.557 Z-3.007 B5. C=DC(0.)
X-12.674 Y14.824 Z-2.724 B5. C=DC(0.)
X-12.674 Y15.148 Z-2.49 B5. C=DC(0.)
X-12.674 Y15.52 Z-2.321 B5. C=DC(0.)
X-12.674 Y15.927 Z-2.23 B5. C=DC(0.)
X-12.674 Y16.359 Z-2.226 B5. C=DC(0.)
X-12.674 Y16.79 Z-2.299 B5. C=DC(0.),8
X-12.674 Y17.635 Z-2.457 B5. C=DC(0.)
X-12.674 Y18.058 Z-2.538 B5. C=DC(0.)
X-12.674 Y18.903 Z-2.711 B5. C=DC(0.)
X-12.674 Y19.749 Z-2.887 B5. C=DC(0.)
X-12.674 Y20.594 Z-3.077 B5. C=DC(0.)
X-12.674 Y21.439 Z-3.272 B5. C=DC(0.)
X-12.674 Y21.862 Z-3.373 B5. C=DC(0.)
X-12.674 Y22.285 Z-3.478 B5. C=DC(0.)
X-12.674 Y23.553 Z-3.801 B5. C=DC(0.)
X-12.674 Y24.783 Z-4.137 B5. C=DC(0.)
X-12.674 Y25.193 Z-4.251 B5. C=DC(0.)
X-12.674 Y26.834 Z-4.738 B5. C=DC(0.)
X-12.674 Y27.642 Z-4.992 B5. C=DC(0.),8
X-12.674 Y37.5 Z-4.992 B5. C=DC(0.),7
X-11.674 Y37.5 Z-4.992 B5. C=DC(0.),7
X-11.674 Y28.075 Z-4.992 B5. C=DC(0.),8
X-11.674 Y28.073 Z-4.992 B5. C=DC(0.),3
X-11.674 Y27.16 Z-4.703 B5. C=DC(0.)
X-11.674 Y25.92 Z-4.327 B5. C=DC(0.)
X-11.674 Y25.506 Z-4.206 B5. C=DC(0.)
X-11.674 Y25.092 Z-4.089 B5. C=DC(0.)
X-11.674 Y24.265 Z-3.859 B5. C=DC(0.)
X-11.674 Y23.852 Z-3.746 B5. C=DC(0.)
X-11.674 Y23.025 Z-3.531 B5. C=DC(0.)
X-11.674 Y22.611 Z-3.425 B5. C=DC(0.)
X-11.674 Y22.186 Z-3.318 B5. C=DC(0.)
X-11.674 Y20.909 Z-3.016 B5. C=DC(0.)
X-11.674 Y20.484 Z-2.917 B5. C=DC(0.)
X-11.674 Y19.208 Z-2.643 B5. C=DC(0.)
X-11.674 Y18.782 Z-2.553 B5. C=DC(0.)
X-11.674 Y18.357 Z-2.468 B5. C=DC(0.)
X-11.674 Y17.506 Z-2.304 B5. C=DC(0.)
X-11.674 Y16.655 Z-2.144 B5. C=DC(0.),8
X-11.674 Y16.221 Z-2.088 B5. C=DC(0.)
X-11.674 Y15.796 Z-2.122 B5. C=DC(0.)
X-11.674 Y15.394 Z-2.243 B5. C=DC(0.)
X-11.674 Y15.037 Z-2.438 B5. C=DC(0.)
X-11.674 Y14.738 Z-2.693 B5. C=DC(0.)
X-11.674 Y14.5 Z-2.993 B5. C=DC(0.)
X-11.674 Y14.333 Z-3.312 B5. C=DC(0.)
X-11.674 Y14.255 Z-3.527 B5. C=DC(0.)
X-11.674 Y14.178 Z-3.758 B5. C=DC(0.)
X-11.674 Y14.086 Z-4.001 B5. C=DC(0.)
X-11.674 Y13.994 Z-4.22 B5. C=DC(0.)
X-11.674 Y13.889 Z-4.448 B5. C=DC(0.)
X-11.674 Y13.783 Z-4.643 B5. C=DC(0.)
X-11.674 Y13.663 Z-4.854 B5. C=DC(0.)
X-11.674 Y13.543 Z-5.036 B5. C=DC(0.)
X-11.674 Y13.41 Z-5.229 B5. C=DC(0.)
X-11.674 Y13.277 Z-5.402 B5. C=DC(0.)
X-11.674 Y12.989 Z-5.737 B5. C=DC(0.)
X-11.674 Y12.674 Z-6.048 B5. C=DC(0.)
X-11.674 Y12.339 Z-6.331 B5. C=DC(0.)
X-11.674 Y12.154 Z-6.463 B5. C=DC(0.)
X-11.674 Y11.969 Z-6.591 B5. C=DC(0.)
X-11.674 Y11.775 Z-6.707 B5. C=DC(0.)
X-11.674 Y11.582 Z-6.817 B5. C=DC(0.)
X-11.674 Y11.183 Z-7.011 B5. C=DC(0.)
X-11.674 Y10.772 Z-7.169 B5. C=DC(0.)
X-11.674 Y10.348 Z-7.296 B5. C=DC(0.)
X-11.674 Y9.917 Z-7.387 B5. C=DC(0.)
X-11.674 Y9.486 Z-7.444 B5. C=DC(0.)
X-11.674 Y9.055 Z-7.465 B5. C=DC(0.)
X-11.674 Y8.624 Z-7.452 B5. C=DC(0.)
X-11.674 Y8.193 Z-7.405 B5. C=DC(0.)
X-11.674 Y7.768 Z-7.324 B5. C=DC(0.)
X-11.674 Y7.355 Z-7.211 B5. C=DC(0.)
X-11.674 Y6.953 Z-7.067 B5. C=DC(0.)
X-11.674 Y6.567 Z-6.893 B5. C=DC(0.)
X-11.674 Y6.194 Z-6.689 B5. C=DC(0.)
X-11.674 Y5.838 Z-6.456 B5. C=DC(0.)
X-11.674 Y5.501 Z-6.197 B5. C=DC(0.)
X-11.674 Y5.188 Z-5.915 B5. C=DC(0.)
X-11.674 Y4.897 Z-5.61 B5. C=DC(0.)
X-11.674 Y4.629 Z-5.284 B5. C=DC(0.)
X-11.674 Y4.389 Z-4.937 B5. C=DC(0.)
X-11.674 Y4.177 Z-4.574 B5. C=DC(0.)
X-11.674 Y3.994 Z-4.197 B5. C=DC(0.)
X-11.674 Y3.84 Z-3.808 B5. C=DC(0.)
X-11.674 Y3.717 Z-3.408 B5. C=DC(0.)
X-11.674 Y3.624 Z-3.002 B5. C=DC(0.)
X-11.674 Y3.519 Z-2.298 B5. C=DC(0.)
X-11.674 Y3.387 Z-1.877 B5. C=DC(0.)
X-11.674 Y3.251 Z-1.619 B5. C=DC(0.)
X-11.674 Y3.114 Z-1.427 B5. C=DC(0.)
X-11.674 Y2.941 Z-1.238 B5. C=DC(0.)
X-11.674 Y2.767 Z-1.09 B5. C=DC(0.)
X-11.674 Y2.567 Z-.957 B5. C=DC(0.)
X-11.674 Y2.368 Z-.856 B5. C=DC(0.)
X-11.674 Y2.154 Z-.776 B5. C=DC(0.)
X-11.674 Y1.939 Z-.723 B5. C=DC(0.)
X-11.674 Y1.506 Z-.688 B5. C=DC(0.),8
X-11.674 Y.638 Z-.68 B5. C=DC(0.)
X-11.674 Y.205 Z-.679 B5. C=DC(0.)
X-11.674 Y-.663 Z-.681 B5. C=DC(0.)
X-11.674 Y-1.53 Z-.69 B5. C=DC(0.)
X-11.674 Y-2.397 Z-.707 B5. C=DC(0.)
X-11.674 Y-3.265 Z-.731 B5. C=DC(0.)
X-11.674 Y-4.132 Z-.766 B5. C=DC(0.)
X-11.674 Y-4.999 Z-.809 B5. C=DC(0.)
X-11.674 Y-6.3 Z-.886 B5. C=DC(0.)
X-11.674 Y-7.168 Z-.944 B5. C=DC(0.)
X-11.674 Y-8.035 Z-1.014 B5. C=DC(0.)
X-11.674 Y-8.469 Z-1.055 B5. C=DC(0.)
X-11.674 Y-8.898 Z-1.118 B5. C=DC(0.)
X-11.674 Y-9.757 Z-1.273 B5. C=DC(0.)
X-11.674 Y-10.187 Z-1.346 B5. C=DC(0.)
X-11.674 Y-10.62 Z-1.407 B5. C=DC(0.)
X-11.674 Y-11.054 Z-1.452 B5. C=DC(0.)
X-11.674 Y-11.488 Z-1.482 B5. C=DC(0.)
X-11.674 Y-12.355 Z-1.521 B5. C=DC(0.)
X-11.674 Y-12.788 Z-1.548 B5. C=DC(0.)
X-11.674 Y-13.222 Z-1.594 B5. C=DC(0.)
X-11.674 Y-14.511 Z-1.786 B5. C=DC(0.)
X-11.674 Y-14.941 Z-1.854 B5. C=DC(0.)
X-11.674 Y-16.231 Z-2.071 B5. C=DC(0.)
X-11.674 Y-16.66 Z-2.145 B5. C=DC(0.)
X-11.674 Y-17.52 Z-2.306 B5. C=DC(0.)
X-11.674 Y-18.373 Z-2.471 B5. C=DC(0.)
X-11.674 Y-18.8 Z-2.556 B5. C=DC(0.)
X-11.674 Y-19.226 Z-2.647 B5. C=DC(0.)
X-11.674 Y-20.502 Z-2.921 B5. C=DC(0.)
X-11.674 Y-20.926 Z-3.02 B5. C=DC(0.)
X-11.674 Y-22.196 Z-3.321 B5. C=DC(0.)
X-11.674 Y-22.619 Z-3.427 B5. C=DC(0.)
X-11.674 Y-23.043 Z-3.536 B5. C=DC(0.)
X-11.674 Y-23.889 Z-3.756 B5. C=DC(0.)
X-11.674 Y-24.31 Z-3.871 B5. C=DC(0.)
X-11.674 Y-25.151 Z-4.105 B5. C=DC(0.)
X-11.674 Y-25.571 Z-4.224 B5. C=DC(0.)
X-11.674 Y-25.989 Z-4.348 B5. C=DC(0.)
X-11.674 Y-27.242 Z-4.728 B5. C=DC(0.)
X-11.674 Y-28.074 Z-4.992 B5. C=DC(0.),8
X-11.674 Y-37.5 Z-4.992 B5. C=DC(0.),7
X-10.674 Y-37.5 Z-4.992 B5. C=DC(0.),7
X-10.674 Y-28.464 Z-4.992 B5. C=DC(0.),8
X-10.674 Y-28.462 Z-4.992 B5. C=DC(0.),3
X-10.674 Y-27.633 Z-4.725 B5. C=DC(0.)
X-10.674 Y-26.38 Z-4.34 B5. C=DC(0.)
X-10.674 Y-25.962 Z-4.214 B5. C=DC(0.)
X-10.674 Y-25.542 Z-4.093 B5. C=DC(0.)
X-10.674 Y-24.702 Z-3.855 B5. C=DC(0.)
X-10.674 Y-24.281 Z-3.739 B5. C=DC(0.)
X-10.674 Y-23.021 Z-3.406 B5. C=DC(0.)
X-10.674 Y-22.6 Z-3.299 B5. C=DC(0.)
X-10.674 Y-21.331 Z-2.993 B5. C=DC(0.)
X-10.674 Y-20.907 Z-2.892 B5. C=DC(0.)
X-10.674 Y-19.202 Z-2.519 B5. C=DC(0.)
X-10.674 Y-18.776 Z-2.433 B5. C=DC(0.)
X-10.674 Y-17.497 Z-2.181 B5. C=DC(0.)
X-10.674 Y-17.07 Z-2.103 B5. C=DC(0.)
X-10.674 Y-16.211 Z-1.951 B5. C=DC(0.)
X-10.674 Y-15.781 Z-1.875 B5. C=DC(0.)
X-10.674 Y-15.352 Z-1.802 B5. C=DC(0.)
X-10.674 Y-14.492 Z-1.665 B5. C=DC(0.)
X-10.674 Y-14.062 Z-1.611 B5. C=DC(0.)
X-10.674 Y-13.629 Z-1.606 B5. C=DC(0.)
X-10.674 Y-13.192 Z-1.646 B5. C=DC(0.)
X-10.674 Y-12.759 Z-1.718 B5. C=DC(0.)
X-10.674 Y-12.333 Z-1.811 B5. C=DC(0.)
X-10.674 Y-11.911 Z-1.908 B5. C=DC(0.)
X-10.674 Y-11.485 Z-1.992 B5. C=DC(0.)
X-10.674 Y-11.055 Z-2.039 B5. C=DC(0.)
X-10.674 Y-10.622 Z-2.024 B5. C=DC(0.)
X-10.674 Y-10.192 Z-1.931 B5. C=DC(0.)
X-10.674 Y-9.773 Z-1.779 B5. C=DC(0.)
X-10.674 Y-9.369 Z-1.594 B5. C=DC(0.)
X-10.674 Y-8.979 Z-1.407 B5. C=DC(0.)
X-10.674 Y-8.588 Z-1.227 B5. C=DC(0.)
X-10.674 Y-8.188 Z-1.067 B5. C=DC(0.)
X-10.674 Y-7.776 Z-.938 B5. C=DC(0.)
X-10.674 Y-7.353 Z-.851 B5. C=DC(0.)
X-10.674 Y-6.922 Z-.812 B5. C=DC(0.)
X-10.674 Y-6.05 Z-.752 B5. C=DC(0.)
X-10.674 Y-5.615 Z-.725 B5. C=DC(0.)
X-10.674 Y-4.744 Z-.681 B5. C=DC(0.)
X-10.674 Y-3.873 Z-.643 B5. C=DC(0.)
X-10.674 Y-2.566 Z-.598 B5. C=DC(0.)
X-10.674 Y-1.695 Z-.578 B5. C=DC(0.)
X-10.674 Y-.824 Z-.566 B5. C=DC(0.)
X-10.674 Y.047 Z-.562 B5. C=DC(0.)
X-10.674 Y.918 Z-.567 B5. C=DC(0.)
X-10.674 Y1.789 Z-.578 B5. C=DC(0.),8
X-10.674 Y2.224 Z-.638 B5. C=DC(0.)
X-10.674 Y2.434 Z-.703 B5. C=DC(0.)
X-10.674 Y2.644 Z-.793 B5. C=DC(0.)
X-10.674 Y2.838 Z-.903 B5. C=DC(0.)
X-10.674 Y3.031 Z-1.046 B5. C=DC(0.)
X-10.674 Y3.199 Z-1.202 B5. C=DC(0.)
X-10.674 Y3.366 Z-1.404 B5. C=DC(0.)
X-10.674 Y3.493 Z-1.606 B5. C=DC(0.)
X-10.674 Y3.621 Z-1.891 B5. C=DC(0.)
X-10.674 Y3.693 Z-2.156 B5. C=DC(0.)
X-10.674 Y3.766 Z-2.708 B5. C=DC(0.)
X-10.674 Y3.83 Z-3.076 B5. C=DC(0.)
X-10.674 Y3.926 Z-3.462 B5. C=DC(0.)
X-10.674 Y4.055 Z-3.849 B5. C=DC(0.)
X-10.674 Y4.215 Z-4.229 B5. C=DC(0.)
X-10.674 Y4.405 Z-4.599 B5. C=DC(0.)
X-10.674 Y4.624 Z-4.955 B5. C=DC(0.)
X-10.674 Y4.871 Z-5.291 B5. C=DC(0.)
X-10.674 Y5.148 Z-5.608 B5. C=DC(0.)
X-10.674 Y5.45 Z-5.907 B5. C=DC(0.)
X-10.674 Y5.774 Z-6.178 B5. C=DC(0.)
X-10.674 Y6.123 Z-6.426 B5. C=DC(0.)
X-10.674 Y6.487 Z-6.642 B5. C=DC(0.)
X-10.674 Y6.87 Z-6.83 B5. C=DC(0.)
X-10.674 Y7.268 Z-6.989 B5. C=DC(0.)
X-10.674 Y7.682 Z-7.114 B5. C=DC(0.)
X-10.674 Y8.102 Z-7.202 B5. C=DC(0.)
X-10.674 Y8.528 Z-7.26 B5. C=DC(0.)
X-10.674 Y8.961 Z-7.279 B5. C=DC(0.)
X-10.674 Y9.393 Z-7.266 B5. C=DC(0.)
X-10.674 Y9.826 Z-7.214 B5. C=DC(0.)
X-10.674 Y10.251 Z-7.131 B5. C=DC(0.)
X-10.674 Y10.677 Z-7.006 B5. C=DC(0.)
X-10.674 Y11.09 Z-6.847 B5. C=DC(0.)
X-10.674 Y11.49 Z-6.655 B5. C=DC(0.)
X-10.674 Y11.684 Z-6.548 B5. C=DC(0.)
X-10.674 Y12.061 Z-6.304 B5. C=DC(0.)
X-10.674 Y12.244 Z-6.164 B5. C=DC(0.)
X-10.674 Y12.417 Z-6.024 B5. C=DC(0.)
X-10.674 Y12.59 Z-5.871 B5. C=DC(0.)
X-10.674 Y12.752 Z-5.716 B5. C=DC(0.)
X-10.674 Y12.914 Z-5.545 B5. C=DC(0.)
X-10.674 Y13.063 Z-5.369 B5. C=DC(0.)
X-10.674 Y13.213 Z-5.184 B5. C=DC(0.)
X-10.674 Y13.35 Z-4.99 B5. C=DC(0.)
X-10.674 Y13.486 Z-4.786 B5. C=DC(0.)
X-10.674 Y13.596 Z-4.598 B5. C=DC(0.)
X-10.674 Y13.707 Z-4.397 B5. C=DC(0.)
X-10.674 Y13.803 Z-4.201 B5. C=DC(0.)
X-10.674 Y13.898 Z-3.974 B5. C=DC(0.)
X-10.674 Y13.978 Z-3.771 B5. C=DC(0.)
X-10.674 Y14.186 Z-3.144 B5. C=DC(0.)
X-10.674 Y14.353 Z-2.828 B5. C=DC(0.)
X-10.674 Y14.592 Z-2.533 B5. C=DC(0.)
X-10.674 Y14.897 Z-2.281 B5. C=DC(0.)
X-10.674 Y15.256 Z-2.092 B5. C=DC(0.)
X-10.674 Y15.661 Z-1.976 B5. C=DC(0.)
X-10.674 Y16.089 Z-1.946 B5. C=DC(0.)
X-10.674 Y16.526 Z-2.003 B5. C=DC(0.),8
X-10.674 Y17.382 Z-2.158 B5. C=DC(0.)
X-10.674 Y19.094 Z-2.497 B5. C=DC(0.)
X-10.674 Y19.522 Z-2.588 B5. C=DC(0.)
X-10.674 Y20.776 Z-2.863 B5. C=DC(0.)
X-10.674 Y21.195 Z-2.96 B5. C=DC(0.)
X-10.674 Y22.449 Z-3.263 B5. C=DC(0.)
X-10.674 Y22.867 Z-3.366 B5. C=DC(0.)
X-10.674 Y24.121 Z-3.697 B5. C=DC(0.)
X-10.674 Y24.539 Z-3.809 B5. C=DC(0.)
X-10.674 Y25.375 Z-4.046 B5. C=DC(0.)
X-10.674 Y25.794 Z-4.165 B5. C=DC(0.)
X-10.674 Y26.212 Z-4.288 B5. C=DC(0.)
X-10.674 Y27.466 Z-4.673 B5. C=DC(0.)
X-10.674 Y27.884 Z-4.805 B5. C=DC(0.)
X-10.674 Y28.461 Z-4.992 B5. C=DC(0.),8
X-10.674 Y28.463 Z-4.992 B5. C=DC(0.),3
X-10.674 Y37.5 Z-4.992 B5. C=DC(0.),7
X-9.674 Y37.5 Z-4.992 B5. C=DC(0.),7
X-9.674 Y28.811 Z-4.992 B5. C=DC(0.),8
X-9.674 Y28.809 Z-4.992 B5. C=DC(0.),3
X-9.674 Y28.107 Z-4.761 B5. C=DC(0.)
X-9.674 Y26.474 Z-4.252 B5. C=DC(0.)
X-9.674 Y25.657 Z-4.014 B5. C=DC(0.)
X-9.674 Y24.826 Z-3.776 B5. C=DC(0.)
X-9.674 Y23.558 Z-3.435 B5. C=DC(0.)
X-9.674 Y23.136 Z-3.323 B5. C=DC(0.)
X-9.674 Y21.446 Z-2.908 B5. C=DC(0.)
X-9.674 Y20.601 Z-2.717 B5. C=DC(0.)
X-9.674 Y19.756 Z-2.528 B5. C=DC(0.)
X-9.674 Y18.911 Z-2.353 B5. C=DC(0.)
X-9.674 Y18.066 Z-2.183 B5. C=DC(0.)
X-9.674 Y17.644 Z-2.102 B5. C=DC(0.)
X-9.674 Y17.221 Z-2.024 B5. C=DC(0.)
X-9.674 Y16.376 Z-1.87 B5. C=DC(0.),8
X-9.674 Y15.945 Z-1.799 B5. C=DC(0.)
X-9.674 Y15.514 Z-1.797 B5. C=DC(0.)
X-9.674 Y15.099 Z-1.875 B5. C=DC(0.)
X-9.674 Y14.713 Z-2.028 B5. C=DC(0.)
X-9.674 Y14.373 Z-2.249 B5. C=DC(0.)
X-9.674 Y14.098 Z-2.521 B5. C=DC(0.)
X-9.674 Y13.894 Z-2.826 B5. C=DC(0.)
X-9.674 Y13.765 Z-3.136 B5. C=DC(0.)
X-9.674 Y13.696 Z-3.36 B5. C=DC(0.)
X-9.674 Y13.627 Z-3.567 B5. C=DC(0.)
X-9.674 Y13.542 Z-3.804 B5. C=DC(0.)
X-9.674 Y13.457 Z-4.004 B5. C=DC(0.)
X-9.674 Y13.352 Z-4.224 B5. C=DC(0.)
X-9.674 Y13.248 Z-4.422 B5. C=DC(0.)
X-9.674 Y13.114 Z-4.635 B5. C=DC(0.)
X-9.674 Y12.981 Z-4.837 B5. C=DC(0.)
X-9.674 Y12.689 Z-5.207 B5. C=DC(0.)
X-9.674 Y12.528 Z-5.38 B5. C=DC(0.)
X-9.674 Y12.367 Z-5.541 B5. C=DC(0.)
X-9.674 Y12.193 Z-5.698 B5. C=DC(0.)
X-9.674 Y12.018 Z-5.844 B5. C=DC(0.)
X-9.674 Y11.833 Z-5.979 B5. C=DC(0.)
X-9.674 Y11.649 Z-6.109 B5. C=DC(0.)
X-9.674 Y11.269 Z-6.332 B5. C=DC(0.)
X-9.674 Y10.871 Z-6.513 B5. C=DC(0.)
X-9.674 Y10.455 Z-6.663 B5. C=DC(0.)
X-9.674 Y10.032 Z-6.778 B5. C=DC(0.)
X-9.674 Y9.603 Z-6.847 B5. C=DC(0.)
X-9.674 Y9.167 Z-6.882 B5. C=DC(0.)
X-9.674 Y8.732 Z-6.877 B5. C=DC(0.)
X-9.674 Y8.302 Z-6.835 B5. C=DC(0.)
X-9.674 Y7.879 Z-6.757 B5. C=DC(0.)
X-9.674 Y7.468 Z-6.64 B5. C=DC(0.)
X-9.674 Y7.072 Z-6.488 B5. C=DC(0.)
X-9.674 Y6.692 Z-6.308 B5. C=DC(0.)
X-9.674 Y6.321 Z-6.088 B5. C=DC(0.)
X-9.674 Y5.974 Z-5.837 B5. C=DC(0.)
X-9.674 Y5.656 Z-5.565 B5. C=DC(0.)
X-9.674 Y5.358 Z-5.257 B5. C=DC(0.)
X-9.674 Y5.086 Z-4.929 B5. C=DC(0.)
X-9.674 Y4.851 Z-4.58 B5. C=DC(0.)
X-9.674 Y4.646 Z-4.216 B5. C=DC(0.)
X-9.674 Y4.472 Z-3.84 B5. C=DC(0.)
X-9.674 Y4.336 Z-3.47 B5. C=DC(0.)
X-9.674 Y4.234 Z-3.089 B5. C=DC(0.)
X-9.674 Y4.167 Z-2.729 B5. C=DC(0.)
X-9.674 Y4.124 Z-2.415 B5. C=DC(0.)
X-9.674 Y4.082 Z-2.062 B5. C=DC(0.)
X-9.674 Y3.97 Z-1.701 B5. C=DC(0.)
X-9.674 Y3.858 Z-1.482 B5. C=DC(0.)
X-9.674 Y3.702 Z-1.26 B5. C=DC(0.)
X-9.674 Y3.546 Z-1.09 B5. C=DC(0.)
X-9.674 Y3.36 Z-.929 B5. C=DC(0.)
X-9.674 Y3.173 Z-.801 B5. C=DC(0.)
X-9.674 Y2.969 Z-.691 B5. C=DC(0.)
X-9.674 Y2.764 Z-.607 B5. C=DC(0.)
X-9.674 Y2.335 Z-.502 B5. C=DC(0.),8
X-9.674 Y1.901 Z-.477 B5. C=DC(0.)
X-9.674 Y1.033 Z-.466 B5. C=DC(0.)
X-9.674 Y.165 Z-.461 B5. C=DC(0.)
X-9.674 Y-1.138 Z-.468 B5. C=DC(0.)
X-9.674 Y-2.44 Z-.491 B5. C=DC(0.)
X-9.674 Y-3.742 Z-.53 B5. C=DC(0.)
X-9.674 Y-4.611 Z-.569 B5. C=DC(0.)
X-9.674 Y-5.479 Z-.616 B5. C=DC(0.)
X-9.674 Y-6.347 Z-.668 B5. C=DC(0.)
X-9.674 Y-6.777 Z-.71 B5. C=DC(0.),8
X-9.674 Y-7.187 Z-.82 B5. C=DC(0.)
X-9.674 Y-7.569 Z-.989 B5. C=DC(0.)
X-9.674 Y-7.921 Z-1.21 B5. C=DC(0.)
X-9.674 Y-8.236 Z-1.475 B5. C=DC(0.)
X-9.674 Y-8.509 Z-1.772 B5. C=DC(0.)
X-9.674 Y-8.73 Z-2.089 B5. C=DC(0.)
X-9.674 Y-8.889 Z-2.411 B5. C=DC(0.)
X-9.674 Y-8.978 Z-2.722 B5. C=DC(0.)
X-9.674 Y-9.071 Z-3.13 B5. C=DC(0.)
X-9.674 Y-9.164 Z-3.341 B5. C=DC(0.)
X-9.674 Y-9.311 Z-3.571 B5. C=DC(0.)
X-9.674 Y-9.459 Z-3.737 B5. C=DC(0.)
X-9.674 Y-9.655 Z-3.89 B5. C=DC(0.)
X-9.674 Y-9.85 Z-4.005 B5. C=DC(0.)
X-9.674 Y-10.064 Z-4.094 B5. C=DC(0.)
X-9.674 Y-10.277 Z-4.145 B5. C=DC(0.)
X-9.674 Y-10.707 Z-4.166 B5. C=DC(0.)
X-9.674 Y-11.119 Z-4.077 B5. C=DC(0.)
X-9.674 Y-11.48 Z-3.898 B5. C=DC(0.)
X-9.674 Y-11.756 Z-3.661 B5. C=DC(0.)
X-9.674 Y-11.949 Z-3.399 B5. C=DC(0.)
X-9.674 Y-12.048 Z-3.197 B5. C=DC(0.)
X-9.674 Y-12.147 Z-2.982 B5. C=DC(0.)
X-9.674 Y-12.293 Z-2.744 B5. C=DC(0.)
X-9.674 Y-12.44 Z-2.561 B5. C=DC(0.)
X-9.674 Y-12.609 Z-2.388 B5. C=DC(0.)
X-9.674 Y-12.778 Z-2.244 B5. C=DC(0.)
X-9.674 Y-12.965 Z-2.106 B5. C=DC(0.)
X-9.674 Y-13.153 Z-1.989 B5. C=DC(0.)
X-9.674 Y-13.356 Z-1.881 B5. C=DC(0.)
X-9.674 Y-13.558 Z-1.793 B5. C=DC(0.)
X-9.674 Y-13.984 Z-1.662 B5. C=DC(0.)
X-9.674 Y-14.42 Z-1.602 B5. C=DC(0.)
X-9.674 Y-14.853 Z-1.616 B5. C=DC(0.),8
X-9.674 Y-15.282 Z-1.685 B5. C=DC(0.)
X-9.674 Y-16.14 Z-1.828 B5. C=DC(0.)
X-9.674 Y-16.998 Z-1.984 B5. C=DC(0.)
X-9.674 Y-17.427 Z-2.062 B5. C=DC(0.)
X-9.674 Y-17.856 Z-2.141 B5. C=DC(0.)
X-9.674 Y-18.708 Z-2.312 B5. C=DC(0.)
X-9.674 Y-19.56 Z-2.487 B5. C=DC(0.)
X-9.674 Y-19.986 Z-2.579 B5. C=DC(0.)
X-9.674 Y-20.837 Z-2.77 B5. C=DC(0.)
X-9.674 Y-21.263 Z-2.866 B5. C=DC(0.)
X-9.674 Y-21.686 Z-2.966 B5. C=DC(0.)
X-9.674 Y-22.954 Z-3.278 B5. C=DC(0.)
X-9.674 Y-23.374 Z-3.386 B5. C=DC(0.)
X-9.674 Y-24.633 Z-3.724 B5. C=DC(0.)
X-9.674 Y-25.053 Z-3.84 B5. C=DC(0.)
X-9.674 Y-25.893 Z-4.082 B5. C=DC(0.)
X-9.674 Y-26.313 Z-4.205 B5. C=DC(0.)
X-9.674 Y-26.73 Z-4.331 B5. C=DC(0.)
X-9.674 Y-27.981 Z-4.721 B5. C=DC(0.)
X-9.674 Y-28.81 Z-4.992 B5. C=DC(0.),8
X-9.674 Y-28.811 Z-4.992 B5. C=DC(0.),3
X-9.674 Y-37.5 Z-4.992 B5. C=DC(0.),7
X-8.674 Y-37.5 Z-4.992 B5. C=DC(0.),7
X-8.674 Y-29.12 Z-4.992 B5. C=DC(0.),8
X-8.674 Y-28.29 Z-4.718 B5. C=DC(0.)
X-8.674 Y-27.041 Z-4.324 B5. C=DC(0.)
X-8.674 Y-26.625 Z-4.196 B5. C=DC(0.)
X-8.674 Y-26.206 Z-4.073 B5. C=DC(0.)
X-8.674 Y-25.368 Z-3.828 B5. C=DC(0.)
X-8.674 Y-24.948 Z-3.711 B5. C=DC(0.)
X-8.674 Y-23.683 Z-3.366 B5. C=DC(0.)
X-8.674 Y-23.261 Z-3.257 B5. C=DC(0.)
X-8.674 Y-21.995 Z-2.941 B5. C=DC(0.)
X-8.674 Y-21.573 Z-2.842 B5. C=DC(0.)
X-8.674 Y-20.723 Z-2.645 B5. C=DC(0.)
X-8.674 Y-20.298 Z-2.548 B5. C=DC(0.)
X-8.674 Y-19.873 Z-2.457 B5. C=DC(0.)
X-8.674 Y-18.588 Z-2.188 B5. C=DC(0.)
X-8.674 Y-18.16 Z-2.105 B5. C=DC(0.)
X-8.674 Y-16.876 Z-1.863 B5. C=DC(0.)
X-8.674 Y-16.448 Z-1.786 B5. C=DC(0.)
X-8.674 Y-15.591 Z-1.64 B5. C=DC(0.)
X-8.674 Y-15.163 Z-1.57 B5. C=DC(0.),8
X-8.674 Y-14.732 Z-1.562 B5. C=DC(0.)
X-8.674 Y-14.296 Z-1.646 B5. C=DC(0.)
X-8.674 Y-14.087 Z-1.722 B5. C=DC(0.)
X-8.674 Y-13.879 Z-1.823 B5. C=DC(0.)
X-8.674 Y-13.687 Z-1.942 B5. C=DC(0.)
X-8.674 Y-13.495 Z-2.093 B5. C=DC(0.)
X-8.674 Y-13.332 Z-2.254 B5. C=DC(0.)
X-8.674 Y-13.168 Z-2.452 B5. C=DC(0.)
X-8.674 Y-13.04 Z-2.652 B5. C=DC(0.)
X-8.674 Y-12.911 Z-2.93 B5. C=DC(0.)
X-8.674 Y-12.759 Z-3.413 B5. C=DC(0.)
X-8.674 Y-12.629 Z-3.702 B5. C=DC(0.)
X-8.674 Y-12.438 Z-4. B5. C=DC(0.)
X-8.674 Y-12.312 Z-4.141 B5. C=DC(0.)
X-8.674 Y-12.187 Z-4.273 B5. C=DC(0.)
X-8.674 Y-11.844 Z-4.523 B5. C=DC(0.)
X-8.674 Y-11.464 Z-4.705 B5. C=DC(0.)
X-8.674 Y-11.053 Z-4.817 B5. C=DC(0.)
X-8.674 Y-10.623 Z-4.855 B5. C=DC(0.)
X-8.674 Y-10.19 Z-4.832 B5. C=DC(0.)
X-8.674 Y-9.756 Z-4.733 B5. C=DC(0.)
X-8.674 Y-9.551 Z-4.661 B5. C=DC(0.)
X-8.674 Y-9.345 Z-4.558 B5. C=DC(0.)
X-8.674 Y-9.156 Z-4.45 B5. C=DC(0.)
X-8.674 Y-8.967 Z-4.299 B5. C=DC(0.)
X-8.674 Y-8.798 Z-4.138 B5. C=DC(0.)
X-8.674 Y-8.628 Z-3.944 B5. C=DC(0.)
X-8.674 Y-8.488 Z-3.719 B5. C=DC(0.)
X-8.674 Y-8.347 Z-3.405 B5. C=DC(0.)
X-8.674 Y-8.264 Z-3.121 B5. C=DC(0.)
X-8.674 Y-8.181 Z-2.331 B5. C=DC(0.)
X-8.674 Y-8.108 Z-2.038 B5. C=DC(0.)
X-8.674 Y-7.968 Z-1.717 B5. C=DC(0.)
X-8.674 Y-7.766 Z-1.402 B5. C=DC(0.)
X-8.674 Y-7.499 Z-1.115 B5. C=DC(0.)
X-8.674 Y-7.175 Z-.872 B5. C=DC(0.)
X-8.674 Y-6.803 Z-.692 B5. C=DC(0.)
X-8.674 Y-6.392 Z-.584 B5. C=DC(0.),8
X-8.674 Y-5.962 Z-.548 B5. C=DC(0.)
X-8.674 Y-4.658 Z-.48 B5. C=DC(0.)
X-8.674 Y-3.354 Z-.425 B5. C=DC(0.)
X-8.674 Y-2.05 Z-.387 B5. C=DC(0.)
X-8.674 Y-1.181 Z-.371 B5. C=DC(0.)
X-8.674 Y.123 Z-.365 B5. C=DC(0.)
X-8.674 Y.992 Z-.369 B5. C=DC(0.)
X-8.674 Y1.427 Z-.375 B5. C=DC(0.)
X-8.674 Y2.296 Z-.392 B5. C=DC(0.)
X-8.674 Y2.73 Z-.41 B5. C=DC(0.),8
X-8.674 Y3.165 Z-.493 B5. C=DC(0.)
X-8.674 Y3.374 Z-.562 B5. C=DC(0.)
X-8.674 Y3.584 Z-.651 B5. C=DC(0.)
X-8.674 Y3.781 Z-.757 B5. C=DC(0.)
X-8.674 Y3.978 Z-.889 B5. C=DC(0.)
X-8.674 Y4.153 Z-1.03 B5. C=DC(0.)
X-8.674 Y4.327 Z-1.207 B5. C=DC(0.)
X-8.674 Y4.47 Z-1.393 B5. C=DC(0.)
X-8.674 Y4.613 Z-1.641 B5. C=DC(0.)
X-8.674 Y4.707 Z-1.887 B5. C=DC(0.)
X-8.674 Y4.754 Z-2.104 B5. C=DC(0.)
X-8.674 Y4.801 Z-2.546 B5. C=DC(0.)
X-8.674 Y4.879 Z-2.969 B5. C=DC(0.)
X-8.674 Y4.996 Z-3.379 B5. C=DC(0.)
X-8.674 Y5.151 Z-3.758 B5. C=DC(0.)
X-8.674 Y5.35 Z-4.139 B5. C=DC(0.)
X-8.674 Y5.585 Z-4.502 B5. C=DC(0.)
X-8.674 Y5.862 Z-4.838 B5. C=DC(0.)
X-8.674 Y6.167 Z-5.14 B5. C=DC(0.)
X-8.674 Y6.483 Z-5.399 B5. C=DC(0.)
X-8.674 Y6.836 Z-5.632 B5. C=DC(0.)
X-8.674 Y7.205 Z-5.831 B5. C=DC(0.)
X-8.674 Y7.598 Z-5.988 B5. C=DC(0.)
X-8.674 Y8.008 Z-6.11 B5. C=DC(0.)
X-8.674 Y8.429 Z-6.188 B5. C=DC(0.)
X-8.674 Y8.863 Z-6.224 B5. C=DC(0.)
X-8.674 Y9.297 Z-6.215 B5. C=DC(0.)
X-8.674 Y9.731 Z-6.164 B5. C=DC(0.)
X-8.674 Y10.158 Z-6.068 B5. C=DC(0.)
X-8.674 Y10.573 Z-5.923 B5. C=DC(0.)
X-8.674 Y10.777 Z-5.837 B5. C=DC(0.)
X-8.674 Y10.981 Z-5.737 B5. C=DC(0.)
X-8.674 Y11.354 Z-5.516 B5. C=DC(0.)
X-8.674 Y11.717 Z-5.242 B5. C=DC(0.)
X-8.674 Y11.889 Z-5.086 B5. C=DC(0.)
X-8.674 Y12.061 Z-4.917 B5. C=DC(0.)
X-8.674 Y12.216 Z-4.748 B5. C=DC(0.)
X-8.674 Y12.371 Z-4.552 B5. C=DC(0.)
X-8.674 Y12.506 Z-4.361 B5. C=DC(0.)
X-8.674 Y12.641 Z-4.156 B5. C=DC(0.)
X-8.674 Y12.761 Z-3.935 B5. C=DC(0.)
X-8.674 Y12.88 Z-3.684 B5. C=DC(0.)
X-8.674 Y12.96 Z-3.48 B5. C=DC(0.)
X-8.674 Y13.039 Z-3.262 B5. C=DC(0.)
X-8.674 Y13.168 Z-2.85 B5. C=DC(0.)
X-8.674 Y13.325 Z-2.545 B5. C=DC(0.)
X-8.674 Y13.564 Z-2.256 B5. C=DC(0.)
X-8.674 Y13.875 Z-2.005 B5. C=DC(0.)
X-8.674 Y14.239 Z-1.812 B5. C=DC(0.)
X-8.674 Y14.64 Z-1.681 B5. C=DC(0.)
X-8.674 Y15.063 Z-1.619 B5. C=DC(0.),8
X-8.674 Y15.495 Z-1.628 B5. C=DC(0.)
X-8.674 Y15.926 Z-1.696 B5. C=DC(0.)
X-8.674 Y16.772 Z-1.843 B5. C=DC(0.)
X-8.674 Y18.041 Z-2.082 B5. C=DC(0.)
X-8.674 Y18.464 Z-2.163 B5. C=DC(0.)
X-8.674 Y20.156 Z-2.516 B5. C=DC(0.)
X-8.674 Y20.579 Z-2.612 B5. C=DC(0.)
X-8.674 Y21.848 Z-2.905 B5. C=DC(0.)
X-8.674 Y22.271 Z-3.01 B5. C=DC(0.)
X-8.674 Y23.117 Z-3.221 B5. C=DC(0.)
X-8.674 Y23.54 Z-3.328 B5. C=DC(0.)
X-8.674 Y25.194 Z-3.778 B5. C=DC(0.)
X-8.674 Y26.014 Z-4.017 B5. C=DC(0.)
X-8.674 Y26.835 Z-4.259 B5. C=DC(0.)
X-8.674 Y28.065 Z-4.647 B5. C=DC(0.)
X-8.674 Y28.476 Z-4.778 B5. C=DC(0.)
X-8.674 Y29.118 Z-4.992 B5. C=DC(0.),8
X-8.674 Y29.12 Z-4.992 B5. C=DC(0.),3
X-8.674 Y37.5 Z-4.992 B5. C=DC(0.),7
X-7.674 Y37.5 Z-4.992 B5. C=DC(0.),7
X-7.674 Y29.392 Z-4.992 B5. C=DC(0.),8
X-7.674 Y29.39 Z-4.992 B5. C=DC(0.),3
X-7.674 Y28.899 Z-4.827 B5. C=DC(0.)
X-7.674 Y28.489 Z-4.692 B5. C=DC(0.)
X-7.674 Y27.261 Z-4.3 B5. C=DC(0.)
X-7.674 Y26.851 Z-4.175 B5. C=DC(0.)
X-7.674 Y26.442 Z-4.053 B5. C=DC(0.)
X-7.674 Y25.623 Z-3.81 B5. C=DC(0.)
X-7.674 Y25.213 Z-3.696 B5. C=DC(0.)
X-7.674 Y23.984 Z-3.357 B5. C=DC(0.)
X-7.674 Y23.139 Z-3.139 B5. C=DC(0.)
X-7.674 Y22.295 Z-2.925 B5. C=DC(0.)
X-7.674 Y20.605 Z-2.529 B5. C=DC(0.)
X-7.674 Y20.183 Z-2.438 B5. C=DC(0.)
X-7.674 Y18.916 Z-2.168 B5. C=DC(0.)
X-7.674 Y18.493 Z-2.085 B5. C=DC(0.)
X-7.674 Y18.071 Z-2.003 B5. C=DC(0.)
X-7.674 Y17.226 Z-1.841 B5. C=DC(0.)
X-7.674 Y16.373 Z-1.69 B5. C=DC(0.)
X-7.674 Y15.51 Z-1.542 B5. C=DC(0.)
X-7.674 Y15.079 Z-1.47 B5. C=DC(0.)
X-7.674 Y14.648 Z-1.422 B5. C=DC(0.),8
X-7.674 Y14.217 Z-1.431 B5. C=DC(0.)
X-7.674 Y13.794 Z-1.493 B5. C=DC(0.)
X-7.674 Y13.385 Z-1.607 B5. C=DC(0.)
X-7.674 Y12.996 Z-1.775 B5. C=DC(0.)
X-7.674 Y12.651 Z-1.99 B5. C=DC(0.)
X-7.674 Y12.362 Z-2.249 B5. C=DC(0.)
X-7.674 Y12.156 Z-2.546 B5. C=DC(0.)
X-7.674 Y11.93 Z-3.143 B5. C=DC(0.)
X-7.674 Y11.823 Z-3.388 B5. C=DC(0.)
X-7.674 Y11.696 Z-3.613 B5. C=DC(0.)
X-7.674 Y11.569 Z-3.817 B5. C=DC(0.)
X-7.674 Y11.415 Z-4.012 B5. C=DC(0.)
X-7.674 Y11.261 Z-4.184 B5. C=DC(0.)
X-7.674 Y11.083 Z-4.357 B5. C=DC(0.)
X-7.674 Y10.906 Z-4.502 B5. C=DC(0.)
X-7.674 Y10.716 Z-4.634 B5. C=DC(0.)
X-7.674 Y10.526 Z-4.746 B5. C=DC(0.)
X-7.674 Y10.322 Z-4.858 B5. C=DC(0.)
X-7.674 Y10.117 Z-4.935 B5. C=DC(0.)
X-7.674 Y9.696 Z-5.063 B5. C=DC(0.)
X-7.674 Y9.268 Z-5.136 B5. C=DC(0.)
X-7.674 Y8.834 Z-5.141 B5. C=DC(0.)
X-7.674 Y8.406 Z-5.084 B5. C=DC(0.)
X-7.674 Y7.99 Z-4.974 B5. C=DC(0.)
X-7.674 Y7.602 Z-4.819 B5. C=DC(0.)
X-7.674 Y7.233 Z-4.597 B5. C=DC(0.)
X-7.674 Y6.911 Z-4.345 B5. C=DC(0.)
X-7.674 Y6.645 Z-4.09 B5. C=DC(0.)
X-7.674 Y6.379 Z-3.744 B5. C=DC(0.)
X-7.674 Y6.174 Z-3.389 B5. C=DC(0.)
X-7.674 Y6.016 Z-2.997 B5. C=DC(0.)
X-7.674 Y5.909 Z-2.597 B5. C=DC(0.)
X-7.674 Y5.818 Z-2.018 B5. C=DC(0.)
X-7.674 Y5.726 Z-1.756 B5. C=DC(0.)
X-7.674 Y5.585 Z-1.511 B5. C=DC(0.)
X-7.674 Y5.443 Z-1.334 B5. C=DC(0.)
X-7.674 Y5.269 Z-1.154 B5. C=DC(0.)
X-7.674 Y5.094 Z-1.009 B5. C=DC(0.)
X-7.674 Y4.906 Z-.874 B5. C=DC(0.)
X-7.674 Y4.718 Z-.76 B5. C=DC(0.)
X-7.674 Y4.515 Z-.655 B5. C=DC(0.)
X-7.674 Y4.313 Z-.568 B5. C=DC(0.)
X-7.674 Y3.893 Z-.433 B5. C=DC(0.)
X-7.674 Y3.462 Z-.354 B5. C=DC(0.),8
X-7.674 Y3.025 Z-.33 B5. C=DC(0.)
X-7.674 Y2.153 Z-.309 B5. C=DC(0.)
X-7.674 Y1.716 Z-.3 B5. C=DC(0.)
X-7.674 Y.844 Z-.289 B5. C=DC(0.)
X-7.674 Y-.029 Z-.285 B5. C=DC(0.)
X-7.674 Y-.902 Z-.289 B5. C=DC(0.)
X-7.674 Y-1.338 Z-.294 B5. C=DC(0.)
X-7.674 Y-2.211 Z-.31 B5. C=DC(0.)
X-7.674 Y-3.084 Z-.334 B5. C=DC(0.)
X-7.674 Y-3.957 Z-.363 B5. C=DC(0.)
X-7.674 Y-4.393 Z-.382 B5. C=DC(0.)
X-7.674 Y-4.829 Z-.404 B5. C=DC(0.)
X-7.674 Y-6.139 Z-.477 B5. C=DC(0.),8
X-7.674 Y-6.558 Z-.552 B5. C=DC(0.)
X-7.674 Y-6.941 Z-.708 B5. C=DC(0.)
X-7.674 Y-7.276 Z-.933 B5. C=DC(0.)
X-7.674 Y-7.55 Z-1.21 B5. C=DC(0.)
X-7.674 Y-7.758 Z-1.521 B5. C=DC(0.)
X-7.674 Y-7.896 Z-1.84 B5. C=DC(0.)
X-7.674 Y-7.971 Z-2.135 B5. C=DC(0.)
X-7.674 Y-7.989 Z-2.268 B5. C=DC(0.)
X-7.674 Y-8.007 Z-2.75 B5. C=DC(0.)
X-7.674 Y-8.044 Z-3.11 B5. C=DC(0.)
X-7.674 Y-8.118 Z-3.4 B5. C=DC(0.)
X-7.674 Y-8.23 Z-3.679 B5. C=DC(0.)
X-7.674 Y-8.343 Z-3.887 B5. C=DC(0.)
X-7.674 Y-8.489 Z-4.101 B5. C=DC(0.)
X-7.674 Y-8.636 Z-4.272 B5. C=DC(0.)
X-7.674 Y-8.811 Z-4.439 B5. C=DC(0.)
X-7.674 Y-8.986 Z-4.574 B5. C=DC(0.)
X-7.674 Y-9.183 Z-4.698 B5. C=DC(0.)
X-7.674 Y-9.38 Z-4.795 B5. C=DC(0.)
X-7.674 Y-9.802 Z-4.933 B5. C=DC(0.)
X-7.674 Y-10.236 Z-4.987 B5. C=DC(0.)
X-7.674 Y-10.67 Z-4.992 B5. C=DC(0.)
X-7.674 Y-11.096 Z-4.964 B5. C=DC(0.)
X-7.674 Y-11.512 Z-4.862 B5. C=DC(0.)
X-7.674 Y-11.898 Z-4.692 B5. C=DC(0.)
X-7.674 Y-12.231 Z-4.461 B5. C=DC(0.)
X-7.674 Y-12.496 Z-4.205 B5. C=DC(0.)
X-7.674 Y-12.711 Z-3.913 B5. C=DC(0.)
X-7.674 Y-12.874 Z-3.605 B5. C=DC(0.)
X-7.674 Y-12.987 Z-3.275 B5. C=DC(0.)
X-7.674 Y-13.072 Z-2.958 B5. C=DC(0.)
X-7.674 Y-13.156 Z-2.713 B5. C=DC(0.)
X-7.674 Y-13.29 Z-2.449 B5. C=DC(0.)
X-7.674 Y-13.424 Z-2.255 B5. C=DC(0.)
X-7.674 Y-13.595 Z-2.062 B5. C=DC(0.)
X-7.674 Y-13.766 Z-1.911 B5. C=DC(0.)
X-7.674 Y-13.963 Z-1.774 B5. C=DC(0.)
X-7.674 Y-14.16 Z-1.669 B5. C=DC(0.)
X-7.674 Y-14.374 Z-1.585 B5. C=DC(0.)
X-7.674 Y-14.587 Z-1.527 B5. C=DC(0.)
X-7.674 Y-15.021 Z-1.484 B5. C=DC(0.),8
X-7.674 Y-15.452 Z-1.532 B5. C=DC(0.)
X-7.674 Y-16.743 Z-1.754 B5. C=DC(0.)
X-7.674 Y-17.17 Z-1.83 B5. C=DC(0.)
X-7.674 Y-18.452 Z-2.076 B5. C=DC(0.)
X-7.674 Y-18.879 Z-2.16 B5. C=DC(0.)
X-7.674 Y-20.584 Z-2.524 B5. C=DC(0.)
X-7.674 Y-22.28 Z-2.921 B5. C=DC(0.)
X-7.674 Y-23.125 Z-3.135 B5. C=DC(0.)
X-7.674 Y-23.967 Z-3.352 B5. C=DC(0.)
X-7.674 Y-25.23 Z-3.7 B5. C=DC(0.)
X-7.674 Y-25.648 Z-3.818 B5. C=DC(0.)
X-7.674 Y-26.485 Z-4.065 B5. C=DC(0.)
X-7.674 Y-26.903 Z-4.19 B5. C=DC(0.)
X-7.674 Y-27.318 Z-4.318 B5. C=DC(0.)
X-7.674 Y-28.565 Z-4.716 B5. C=DC(0.)
X-7.674 Y-29.392 Z-4.992 B5. C=DC(0.),8
X-7.674 Y-37.5 Z-4.992 B5. C=DC(0.),7
X-6.674 Y-37.5 Z-4.992 B5. C=DC(0.),7
X-6.674 Y-29.629 Z-4.992 B5. C=DC(0.),8
X-6.674 Y-28.804 Z-4.714 B5. C=DC(0.)
X-6.674 Y-27.56 Z-4.314 B5. C=DC(0.)
X-6.674 Y-27.146 Z-4.185 B5. C=DC(0.)
X-6.674 Y-26.729 Z-4.06 B5. C=DC(0.)
X-6.674 Y-25.895 Z-3.811 B5. C=DC(0.)
X-6.674 Y-25.478 Z-3.693 B5. C=DC(0.)
X-6.674 Y-24.218 Z-3.342 B5. C=DC(0.)
X-6.674 Y-22.953 Z-3.014 B5. C=DC(0.)
X-6.674 Y-22.53 Z-2.906 B5. C=DC(0.)
X-6.674 Y-21.253 Z-2.603 B5. C=DC(0.)
X-6.674 Y-20.827 Z-2.504 B5. C=DC(0.)
X-6.674 Y-20.401 Z-2.411 B5. C=DC(0.)
X-6.674 Y-19.124 Z-2.136 B5. C=DC(0.)
X-6.674 Y-17.837 Z-1.881 B5. C=DC(0.)
X-6.674 Y-17.408 Z-1.799 B5. C=DC(0.)
X-6.674 Y-16.121 Z-1.571 B5. C=DC(0.)
X-6.674 Y-15.692 Z-1.496 B5. C=DC(0.)
X-6.674 Y-15.263 Z-1.427 B5. C=DC(0.),8
X-6.674 Y-14.831 Z-1.417 B5. C=DC(0.)
X-6.674 Y-14.398 Z-1.502 B5. C=DC(0.)
X-6.674 Y-14.191 Z-1.581 B5. C=DC(0.)
X-6.674 Y-13.983 Z-1.688 B5. C=DC(0.)
X-6.674 Y-13.795 Z-1.814 B5. C=DC(0.)
X-6.674 Y-13.607 Z-1.976 B5. C=DC(0.)
X-6.674 Y-13.451 Z-2.147 B5. C=DC(0.)
X-6.674 Y-13.294 Z-2.368 B5. C=DC(0.)
X-6.674 Y-13.18 Z-2.583 B5. C=DC(0.)
X-6.674 Y-13.066 Z-2.903 B5. C=DC(0.)
X-6.674 Y-12.955 Z-3.375 B5. C=DC(0.)
X-6.674 Y-12.808 Z-3.728 B5. C=DC(0.)
X-6.674 Y-12.61 Z-4.051 B5. C=DC(0.)
X-6.674 Y-12.487 Z-4.202 B5. C=DC(0.)
X-6.674 Y-12.363 Z-4.338 B5. C=DC(0.)
X-6.674 Y-12.029 Z-4.601 B5. C=DC(0.)
X-6.674 Y-11.665 Z-4.801 B5. C=DC(0.)
X-6.674 Y-11.468 Z-4.872 B5. C=DC(0.)
X-6.674 Y-11.271 Z-4.927 B5. C=DC(0.)
X-6.674 Y-10.468 Z-4.872 B5. C=DC(0.),6
X-6.674 Y-10.843 Z-4.983 B5. C=DC(0.),2
X-6.674 Y-10.408 Z-4.992 B5. C=DC(0.)
X-6.674 Y-9.972 Z-4.964 B5. C=DC(0.)
X-6.674 Y-9.541 Z-4.858 B5. C=DC(0.)
X-6.674 Y-9.336 Z-4.775 B5. C=DC(0.)
X-6.674 Y-9.132 Z-4.668 B5. C=DC(0.)
X-6.674 Y-8.945 Z-4.545 B5. C=DC(0.)
X-6.674 Y-8.759 Z-4.393 B5. C=DC(0.)
X-6.674 Y-8.597 Z-4.231 B5. C=DC(0.)
X-6.674 Y-8.435 Z-4.03 B5. C=DC(0.)
X-6.674 Y-8.305 Z-3.829 B5. C=DC(0.)
X-6.674 Y-8.176 Z-3.567 B5. C=DC(0.)
X-6.674 Y-8.102 Z-3.361 B5. C=DC(0.)
X-6.674 Y-8.028 Z-3.018 B5. C=DC(0.)
X-6.674 Y-8.012 Z-2.895 B5. C=DC(0.)
X-6.674 Y-7.996 Z-2.283 B5. C=DC(0.)
X-6.674 Y-7.964 Z-2.027 B5. C=DC(0.)
X-6.674 Y-7.882 Z-1.726 B5. C=DC(0.)
X-6.674 Y-7.735 Z-1.407 B5. C=DC(0.)
X-6.674 Y-7.518 Z-1.1 B5. C=DC(0.)
X-6.674 Y-7.235 Z-.828 B5. C=DC(0.)
X-6.674 Y-6.894 Z-.611 B5. C=DC(0.)
X-6.674 Y-6.504 Z-.464 B5. C=DC(0.)
X-6.674 Y-6.081 Z-.401 B5. C=DC(0.),8
X-6.674 Y-5.645 Z-.374 B5. C=DC(0.)
X-6.674 Y-4.774 Z-.33 B5. C=DC(0.)
X-6.674 Y-3.902 Z-.291 B5. C=DC(0.)
X-6.674 Y-2.595 Z-.245 B5. C=DC(0.)
X-6.674 Y-2.159 Z-.234 B5. C=DC(0.)
X-6.674 Y-1.287 Z-.22 B5. C=DC(0.)
X-6.674 Y.02 Z-.212 B5. C=DC(0.)
X-6.674 Y.892 Z-.216 B5. C=DC(0.)
X-6.674 Y1.763 Z-.227 B5. C=DC(0.)
X-6.674 Y2.635 Z-.246 B5. C=DC(0.)
X-6.674 Y3.507 Z-.274 B5. C=DC(0.)
X-6.674 Y3.942 Z-.29 B5. C=DC(0.)
X-6.674 Y4.378 Z-.314 B5. C=DC(0.)
X-6.674 Y4.808 Z-.373 B5. C=DC(0.)
X-6.674 Y5.239 Z-.469 B5. C=DC(0.)
X-6.674 Y5.658 Z-.595 B5. C=DC(0.)
X-6.674 Y6.071 Z-.749 B5. C=DC(0.)
X-6.674 Y6.474 Z-.925 B5. C=DC(0.),8
X-6.674 Y6.867 Z-1.12 B5. C=DC(0.)
X-6.674 Y7.254 Z-1.331 B5. C=DC(0.)
X-6.674 Y7.633 Z-1.553 B5. C=DC(0.)
X-6.674 Y8.001 Z-1.779 B5. C=DC(0.)
X-6.674 Y8.379 Z-2.001 B5. C=DC(0.)
X-6.674 Y8.758 Z-2.189 B5. C=DC(0.)
X-6.674 Y9.18 Z-2.231 B5. C=DC(0.)
X-6.674 Y9.398 Z-2.183 B5. C=DC(0.)
X-6.674 Y9.616 Z-2.116 B5. C=DC(0.)
X-6.674 Y10.834 Z-1.672 B5. C=DC(0.),8
X-6.674 Y11.245 Z-1.541 B5. C=DC(0.)
X-6.674 Y11.661 Z-1.426 B5. C=DC(0.)
X-6.674 Y12.078 Z-1.329 B5. C=DC(0.)
X-6.674 Y12.502 Z-1.255 B5. C=DC(0.)
X-6.674 Y12.933 Z-1.208 B5. C=DC(0.)
X-6.674 Y13.364 Z-1.191 B5. C=DC(0.)
X-6.674 Y13.795 Z-1.209 B5. C=DC(0.)
X-6.674 Y14.226 Z-1.265 B5. C=DC(0.)
X-6.674 Y15.519 Z-1.469 B5. C=DC(0.)
X-6.674 Y15.95 Z-1.541 B5. C=DC(0.)
X-6.674 Y17.217 Z-1.765 B5. C=DC(0.)
X-6.674 Y17.64 Z-1.843 B5. C=DC(0.)
X-6.674 Y18.908 Z-2.093 B5. C=DC(0.)
X-6.674 Y19.33 Z-2.178 B5. C=DC(0.)
X-6.674 Y20.598 Z-2.453 B5. C=DC(0.)
X-6.674 Y21.02 Z-2.548 B5. C=DC(0.)
X-6.674 Y22.288 Z-2.849 B5. C=DC(0.)
X-6.674 Y22.711 Z-2.951 B5. C=DC(0.)
X-6.674 Y23.978 Z-3.279 B5. C=DC(0.)
X-6.674 Y24.401 Z-3.392 B5. C=DC(0.)
X-6.674 Y25.629 Z-3.735 B5. C=DC(0.)
X-6.674 Y26.038 Z-3.853 B5. C=DC(0.)
X-6.674 Y26.857 Z-4.098 B5. C=DC(0.)
X-6.674 Y27.266 Z-4.222 B5. C=DC(0.)
X-6.674 Y27.676 Z-4.351 B5. C=DC(0.)
X-6.674 Y28.904 Z-4.746 B5. C=DC(0.)
X-6.674 Y29.628 Z-4.992 B5. C=DC(0.),8
X-6.674 Y29.63 Z-4.992 B5. C=DC(0.),3
X-6.674 Y37.5 Z-4.992 B5. C=DC(0.),7
X-5.674 Y37.5 Z-4.992 B5. C=DC(0.),7
X-5.674 Y29.83 Z-4.992 B5. C=DC(0.),8
X-5.674 Y29.829 Z-4.992 B5. C=DC(0.),3
X-5.674 Y29.402 Z-4.846 B5. C=DC(0.)
X-5.674 Y28.997 Z-4.709 B5. C=DC(0.)
X-5.674 Y27.782 Z-4.315 B5. C=DC(0.)
X-5.674 Y27.377 Z-4.188 B5. C=DC(0.)
X-5.674 Y26.162 Z-3.822 B5. C=DC(0.)
X-5.674 Y25.742 Z-3.701 B5. C=DC(0.)
X-5.674 Y24.483 Z-3.347 B5. C=DC(0.)
X-5.674 Y22.803 Z-2.908 B5. C=DC(0.)
X-5.674 Y21.543 Z-2.605 B5. C=DC(0.)
X-5.674 Y21.123 Z-2.506 B5. C=DC(0.)
X-5.674 Y19.864 Z-2.228 B5. C=DC(0.)
X-5.674 Y19.444 Z-2.137 B5. C=DC(0.)
X-5.674 Y18.184 Z-1.885 B5. C=DC(0.)
X-5.674 Y17.755 Z-1.8 B5. C=DC(0.)
X-5.674 Y16.896 Z-1.644 B5. C=DC(0.)
X-5.674 Y16.038 Z-1.491 B5. C=DC(0.)
X-5.674 Y14.321 Z-1.215 B5. C=DC(0.)
X-5.674 Y13.462 Z-1.093 B5. C=DC(0.)
X-5.674 Y12.604 Z-.972 B5. C=DC(0.)
X-5.674 Y12.175 Z-.928 B5. C=DC(0.)
X-5.674 Y11.738 Z-.9 B5. C=DC(0.)
X-5.674 Y11.301 Z-.882 B5. C=DC(0.)
X-5.674 Y10.428 Z-.86 B5. C=DC(0.)
X-5.674 Y9.991 Z-.845 B5. C=DC(0.)
X-5.674 Y9.555 Z-.821 B5. C=DC(0.)
X-5.674 Y9.125 Z-.787 B5. C=DC(0.)
X-5.674 Y8.695 Z-.74 B5. C=DC(0.)
X-5.674 Y8.265 Z-.682 B5. C=DC(0.)
X-5.674 Y7.835 Z-.616 B5. C=DC(0.)
X-5.674 Y6.975 Z-.474 B5. C=DC(0.)
X-5.674 Y6.545 Z-.408 B5. C=DC(0.)
X-5.674 Y6.115 Z-.354 B5. C=DC(0.)
X-5.674 Y5.679 Z-.314 B5. C=DC(0.)
X-5.674 Y4.372 Z-.246 B5. C=DC(0.)
X-5.674 Y3.936 Z-.228 B5. C=DC(0.)
X-5.674 Y3.064 Z-.199 B5. C=DC(0.)
X-5.674 Y2.192 Z-.176 B5. C=DC(0.)
X-5.674 Y1.32 Z-.16 B5. C=DC(0.)
X-5.674 Y.449 Z-.151 B5. C=DC(0.)
X-5.674 Y.013 Z-.15 B5. C=DC(0.)
X-5.674 Y-.423 Z-.151 B5. C=DC(0.)
X-5.674 Y-1.295 Z-.159 B5. C=DC(0.)
X-5.674 Y-2.167 Z-.175 B5. C=DC(0.)
X-5.674 Y-3.038 Z-.199 B5. C=DC(0.)
X-5.674 Y-3.91 Z-.227 B5. C=DC(0.)
X-5.674 Y-4.346 Z-.246 B5. C=DC(0.)
X-5.674 Y-6.09 Z-.339 B5. C=DC(0.),8
X-5.674 Y-6.509 Z-.403 B5. C=DC(0.)
X-5.674 Y-6.898 Z-.55 B5. C=DC(0.)
X-5.674 Y-7.24 Z-.768 B5. C=DC(0.)
X-5.674 Y-7.523 Z-1.042 B5. C=DC(0.)
X-5.674 Y-7.738 Z-1.35 B5. C=DC(0.)
X-5.674 Y-7.884 Z-1.669 B5. C=DC(0.)
X-5.674 Y-7.965 Z-1.969 B5. C=DC(0.)
X-5.674 Y-7.983 Z-2.078 B5. C=DC(0.)
X-5.674 Y-8. Z-2.649 B5. C=DC(0.)
X-5.674 Y-8.037 Z-3.077 B5. C=DC(0.)
X-5.674 Y-8.148 Z-3.488 B5. C=DC(0.)
X-5.674 Y-8.26 Z-3.746 B5. C=DC(0.)
X-5.674 Y-8.372 Z-3.94 B5. C=DC(0.)
X-5.674 Y-8.519 Z-4.143 B5. C=DC(0.)
X-5.674 Y-8.665 Z-4.305 B5. C=DC(0.)
X-5.674 Y-8.839 Z-4.466 B5. C=DC(0.)
X-5.674 Y-9.014 Z-4.596 B5. C=DC(0.)
X-5.674 Y-9.22 Z-4.72 B5. C=DC(0.)
X-5.674 Y-9.426 Z-4.817 B5. C=DC(0.)
X-5.674 Y-9.641 Z-4.893 B5. C=DC(0.)
X-5.674 Y-9.856 Z-4.947 B5. C=DC(0.)
X-5.674 Y-10.291 Z-4.99 B5. C=DC(0.)
X-5.674 Y-10.725 Z-4.99 B5. C=DC(0.)
X-5.674 Y-11.291 Z-4.99 B5. C=DC(0.),6
X-5.674 Y-11.152 Z-4.948 B5. C=DC(0.),2
X-5.674 Y-11.564 Z-4.836 B5. C=DC(0.)
X-5.674 Y-11.928 Z-4.66 B5. C=DC(0.)
X-5.674 Y-12.257 Z-4.419 B5. C=DC(0.)
X-5.674 Y-12.548 Z-4.12 B5. C=DC(0.)
X-5.674 Y-12.747 Z-3.823 B5. C=DC(0.)
X-5.674 Y-12.894 Z-3.508 B5. C=DC(0.)
X-5.674 Y-12.986 Z-3.2 B5. C=DC(0.)
X-5.674 Y-13.07 Z-2.824 B5. C=DC(0.)
X-5.674 Y-13.154 Z-2.579 B5. C=DC(0.)
X-5.674 Y-13.288 Z-2.314 B5. C=DC(0.)
X-5.674 Y-13.422 Z-2.119 B5. C=DC(0.)
X-5.674 Y-13.594 Z-1.926 B5. C=DC(0.)
X-5.674 Y-13.767 Z-1.774 B5. C=DC(0.)
X-5.674 Y-13.964 Z-1.637 B5. C=DC(0.)
X-5.674 Y-14.161 Z-1.532 B5. C=DC(0.)
X-5.674 Y-14.374 Z-1.448 B5. C=DC(0.)
X-5.674 Y-14.588 Z-1.39 B5. C=DC(0.)
X-5.674 Y-15.022 Z-1.348 B5. C=DC(0.)
X-5.674 Y-15.452 Z-1.395 B5. C=DC(0.),8
X-5.674 Y-16.313 Z-1.54 B5. C=DC(0.)
X-5.674 Y-17.605 Z-1.773 B5. C=DC(0.)
X-5.674 Y-18.032 Z-1.854 B5. C=DC(0.)
X-5.674 Y-19.314 Z-2.111 B5. C=DC(0.)
X-5.674 Y-19.741 Z-2.201 B5. C=DC(0.)
X-5.674 Y-21.022 Z-2.484 B5. C=DC(0.)
X-5.674 Y-21.446 Z-2.582 B5. C=DC(0.)
X-5.674 Y-22.719 Z-2.887 B5. C=DC(0.)
X-5.674 Y-23.14 Z-2.995 B5. C=DC(0.)
X-5.674 Y-24.403 Z-3.325 B5. C=DC(0.)
X-5.674 Y-24.824 Z-3.443 B5. C=DC(0.)
X-5.674 Y-25.666 Z-3.68 B5. C=DC(0.)
X-5.674 Y-26.085 Z-3.798 B5. C=DC(0.)
X-5.674 Y-27.34 Z-4.177 B5. C=DC(0.)
X-5.674 Y-27.755 Z-4.306 B5. C=DC(0.)
X-5.674 Y-29.002 Z-4.711 B5. C=DC(0.)
X-5.674 Y-29.83 Z-4.992 B5. C=DC(0.),8
X-5.674 Y-37.5 Z-4.992 B5. C=DC(0.),7
X-4.674 Y-37.5 Z-4.992 B5. C=DC(0.),7
X-4.674 Y-29.999 Z-4.992 B5. C=DC(0.),8
X-4.674 Y-29.997 Z-4.992 B5. C=DC(0.),3
X-4.674 Y-29.174 Z-4.711 B5. C=DC(0.)
X-4.674 Y-27.931 Z-4.305 B5. C=DC(0.)
X-4.674 Y-27.517 Z-4.175 B5. C=DC(0.)
X-4.674 Y-26.267 Z-3.796 B5. C=DC(0.)
X-4.674 Y-25.85 Z-3.677 B5. C=DC(0.)
X-4.674 Y-25.011 Z-3.439 B5. C=DC(0.)
X-4.674 Y-24.592 Z-3.321 B5. C=DC(0.)
X-4.674 Y-23.324 Z-2.987 B5. C=DC(0.)
X-4.674 Y-22.902 Z-2.879 B5. C=DC(0.)
X-4.674 Y-19.936 Z-2.189 B5. C=DC(0.),6
X-4.674 Y-19.511 Z-2.099 B5. C=DC(0.)
X-4.674 Y-18.225 Z-1.837 B5. C=DC(0.)
X-4.674 Y-17.796 Z-1.756 B5. C=DC(0.)
X-4.674 Y-16.51 Z-1.52 B5. C=DC(0.)
X-4.674 Y-15.653 Z-1.375 B5. C=DC(0.)
X-4.674 Y-15.224 Z-1.307 B5. C=DC(0.),8
X-4.674 Y-14.792 Z-1.305 B5. C=DC(0.)
X-4.674 Y-14.36 Z-1.4 B5. C=DC(0.)
X-4.674 Y-14.154 Z-1.482 B5. C=DC(0.)
X-4.674 Y-13.948 Z-1.593 B5. C=DC(0.)
X-4.674 Y-13.763 Z-1.723 B5. C=DC(0.)
X-4.674 Y-13.578 Z-1.888 B5. C=DC(0.)
X-4.674 Y-13.425 Z-2.062 B5. C=DC(0.)
X-4.674 Y-13.272 Z-2.288 B5. C=DC(0.)
X-4.674 Y-13.162 Z-2.506 B5. C=DC(0.)
X-4.674 Y-13.052 Z-2.841 B5. C=DC(0.)
X-4.674 Y-12.953 Z-3.315 B5. C=DC(0.)
X-4.674 Y-12.812 Z-3.68 B5. C=DC(0.)
X-4.674 Y-12.619 Z-4.01 B5. C=DC(0.)
X-4.674 Y-12.372 Z-4.309 B5. C=DC(0.)
X-4.674 Y-12.08 Z-4.555 B5. C=DC(0.)
X-4.674 Y-11.718 Z-4.766 B5. C=DC(0.)
X-4.674 Y-11.328 Z-4.912 B5. C=DC(0.)
X-4.674 Y-10.899 Z-4.978 B5. C=DC(0.)
X-4.674 Y-10.463 Z-4.992 B5. C=DC(0.)
X-4.674 Y-10.027 Z-4.972 B5. C=DC(0.)
X-4.674 Y-9.595 Z-4.877 B5. C=DC(0.)
X-4.674 Y-9.186 Z-4.7 B5. C=DC(0.)
X-4.674 Y-8.999 Z-4.585 B5. C=DC(0.)
X-4.674 Y-8.812 Z-4.441 B5. C=DC(0.)
X-4.674 Y-8.65 Z-4.289 B5. C=DC(0.)
X-4.674 Y-8.488 Z-4.102 B5. C=DC(0.)
X-4.674 Y-8.358 Z-3.917 B5. C=DC(0.)
X-4.674 Y-8.228 Z-3.68 B5. C=DC(0.)
X-4.674 Y-8.135 Z-3.454 B5. C=DC(0.)
X-4.674 Y-8.042 Z-3.109 B5. C=DC(0.)
X-4.674 Y-8.01 Z-2.842 B5. C=DC(0.)
X-4.674 Y-7.994 Z-2.13 B5. C=DC(0.)
X-4.674 Y-7.978 Z-1.99 B5. C=DC(0.)
X-4.674 Y-7.913 Z-1.703 B5. C=DC(0.)
X-4.674 Y-7.785 Z-1.385 B5. C=DC(0.)
X-4.674 Y-7.588 Z-1.071 B5. C=DC(0.)
X-4.674 Y-7.323 Z-.787 B5. C=DC(0.)
X-4.674 Y-6.996 Z-.552 B5. C=DC(0.)
X-4.674 Y-6.619 Z-.384 B5. C=DC(0.)
X-4.674 Y-6.206 Z-.297 B5. C=DC(0.),8
X-4.674 Y-5.341 Z-.243 B5. C=DC(0.)
X-4.674 Y-4.908 Z-.222 B5. C=DC(0.)
X-4.674 Y-3.61 Z-.167 B5. C=DC(0.)
X-4.674 Y-2.744 Z-.136 B5. C=DC(0.)
X-4.674 Y-2.312 Z-.125 B5. C=DC(0.)
X-4.674 Y-1.437 Z-.11 B5. C=DC(0.)
X-4.674 Y-.124 Z-.1 B5. C=DC(0.)
X-4.674 Y.751 Z-.103 B5. C=DC(0.)
X-4.674 Y1.626 Z-.112 B5. C=DC(0.)
X-4.674 Y2.501 Z-.128 B5. C=DC(0.)
X-4.674 Y3.365 Z-.157 B5. C=DC(0.)
X-4.674 Y4.661 Z-.211 B5. C=DC(0.)
X-4.674 Y5.093 Z-.23 B5. C=DC(0.)
X-4.674 Y5.525 Z-.255 B5. C=DC(0.)
X-4.674 Y5.957 Z-.281 B5. C=DC(0.)
X-4.674 Y7.254 Z-.368 B5. C=DC(0.)
X-4.674 Y7.686 Z-.401 B5. C=DC(0.)
X-4.674 Y8.55 Z-.474 B5. C=DC(0.)
X-4.674 Y9.414 Z-.554 B5. C=DC(0.)
X-4.674 Y10.278 Z-.644 B5. C=DC(0.)
X-4.674 Y11.142 Z-.739 B5. C=DC(0.)
X-4.674 Y12.871 Z-.956 B5. C=DC(0.)
X-4.674 Y13.303 Z-1.017 B5. C=DC(0.)
X-4.674 Y14.599 Z-1.205 B5. C=DC(0.)
X-4.674 Y15.031 Z-1.275 B5. C=DC(0.)
X-4.674 Y16.303 Z-1.484 B5. C=DC(0.)
X-4.674 Y16.727 Z-1.56 B5. C=DC(0.)
X-4.674 Y17.999 Z-1.793 B5. C=DC(0.)
X-4.674 Y18.423 Z-1.877 B5. C=DC(0.)
X-4.674 Y19.695 Z-2.136 B5. C=DC(0.)
X-4.674 Y20.119 Z-2.229 B5. C=DC(0.)
X-4.674 Y21.39 Z-2.513 B5. C=DC(0.)
X-4.674 Y21.814 Z-2.614 B5. C=DC(0.)
X-4.674 Y23.086 Z-2.925 B5. C=DC(0.)
X-4.674 Y24.322 Z-3.25 B5. C=DC(0.)
X-4.674 Y24.733 Z-3.36 B5. C=DC(0.)
X-4.674 Y25.969 Z-3.71 B5. C=DC(0.)
X-4.674 Y26.381 Z-3.83 B5. C=DC(0.)
X-4.674 Y27.616 Z-4.206 B5. C=DC(0.)
X-4.674 Y28.028 Z-4.337 B5. C=DC(0.)
X-4.674 Y29.263 Z-4.74 B5. C=DC(0.)
X-4.674 Y29.997 Z-4.992 B5. C=DC(0.),8
X-4.674 Y29.999 Z-4.992 B5. C=DC(0.),3
X-4.674 Y37.5 Z-4.992 B5. C=DC(0.),7
X-3.674 Y37.5 Z-4.992 B5. C=DC(0.),7
X-3.674 Y30.133 Z-4.992 B5. C=DC(0.),8
X-3.674 Y30.131 Z-4.992 B5. C=DC(0.),3
X-3.674 Y29.411 Z-4.743 B5. C=DC(0.)
X-3.674 Y28.197 Z-4.345 B5. C=DC(0.)
X-3.674 Y27.793 Z-4.216 B5. C=DC(0.)
X-3.674 Y26.579 Z-3.845 B5. C=DC(0.)
X-3.674 Y26.159 Z-3.721 B5. C=DC(0.)
X-3.674 Y24.899 Z-3.361 B5. C=DC(0.)
X-3.674 Y24.479 Z-3.248 B5. C=DC(0.)
X-3.674 Y23.219 Z-2.914 B5. C=DC(0.)
X-3.674 Y21.959 Z-2.605 B5. C=DC(0.)
X-3.674 Y21.539 Z-2.504 B5. C=DC(0.)
X-3.674 Y20.279 Z-2.221 B5. C=DC(0.)
X-3.674 Y19.859 Z-2.128 B5. C=DC(0.)
X-3.674 Y18.599 Z-1.869 B5. C=DC(0.)
X-3.674 Y18.169 Z-1.784 B5. C=DC(0.)
X-3.674 Y17.31 Z-1.624 B5. C=DC(0.)
X-3.674 Y16.451 Z-1.468 B5. C=DC(0.)
X-3.674 Y15.162 Z-1.253 B5. C=DC(0.)
X-3.674 Y14.303 Z-1.121 B5. C=DC(0.)
X-3.674 Y13.444 Z-.994 B5. C=DC(0.)
X-3.674 Y13.014 Z-.935 B5. C=DC(0.)
X-3.674 Y11.725 Z-.768 B5. C=DC(0.)
X-3.674 Y11.296 Z-.716 B5. C=DC(0.)
X-3.674 Y10.007 Z-.574 B5. C=DC(0.)
X-3.674 Y9.577 Z-.529 B5. C=DC(0.)
X-3.674 Y7.853 Z-.373 B5. C=DC(0.)
X-3.674 Y6.109 Z-.248 B5. C=DC(0.)
X-3.674 Y5.237 Z-.199 B5. C=DC(0.)
X-3.674 Y4.365 Z-.156 B5. C=DC(0.)
X-3.674 Y3.929 Z-.135 B5. C=DC(0.)
X-3.674 Y3.057 Z-.106 B5. C=DC(0.)
X-3.674 Y1.749 Z-.074 B5. C=DC(0.)
X-3.674 Y.877 Z-.06 B5. C=DC(0.)
X-3.674 Y.005 Z-.056 B5. C=DC(0.)
X-3.674 Y-.867 Z-.06 B5. C=DC(0.)
X-3.674 Y-1.739 Z-.074 B5. C=DC(0.)
X-3.674 Y-2.611 Z-.094 B5. C=DC(0.)
X-3.674 Y-3.483 Z-.119 B5. C=DC(0.)
X-3.674 Y-3.919 Z-.135 B5. C=DC(0.)
X-3.674 Y-4.355 Z-.155 B5. C=DC(0.)
X-3.674 Y-5.663 Z-.222 B5. C=DC(0.)
X-3.674 Y-6.099 Z-.247 B5. C=DC(0.),8
X-3.674 Y-6.518 Z-.314 B5. C=DC(0.)
X-3.674 Y-6.908 Z-.463 B5. C=DC(0.)
X-3.674 Y-7.249 Z-.684 B5. C=DC(0.)
X-3.674 Y-7.531 Z-.959 B5. C=DC(0.)
X-3.674 Y-7.744 Z-1.267 B5. C=DC(0.)
X-3.674 Y-7.888 Z-1.587 B5. C=DC(0.)
X-3.674 Y-7.967 Z-1.885 B5. C=DC(0.)
X-3.674 Y-7.985 Z-1.999 B5. C=DC(0.)
X-3.674 Y-8.002 Z-2.686 B5. C=DC(0.)
X-3.674 Y-8.039 Z-3.089 B5. C=DC(0.)
X-3.674 Y-8.149 Z-3.494 B5. C=DC(0.)
X-3.674 Y-8.262 Z-3.75 B5. C=DC(0.)
X-3.674 Y-8.374 Z-3.943 B5. C=DC(0.)
X-3.674 Y-8.52 Z-4.145 B5. C=DC(0.)
X-3.674 Y-8.666 Z-4.307 B5. C=DC(0.)
X-3.674 Y-8.841 Z-4.467 B5. C=DC(0.)
X-3.674 Y-9.016 Z-4.597 B5. C=DC(0.)
X-3.674 Y-9.222 Z-4.721 B5. C=DC(0.)
X-3.674 Y-9.428 Z-4.818 B5. C=DC(0.)
X-3.674 Y-9.643 Z-4.894 B5. C=DC(0.)
X-3.674 Y-9.858 Z-4.947 B5. C=DC(0.)
X-3.674 Y-10.293 Z-4.99 B5. C=DC(0.)
X-3.674 Y-10.727 Z-4.989 B5. C=DC(0.)
X-3.674 Y-11.154 Z-4.945 B5. C=DC(0.)
X-3.674 Y-11.566 Z-4.83 B5. C=DC(0.)
X-3.674 Y-11.93 Z-4.65 B5. C=DC(0.)
X-3.674 Y-12.257 Z-4.406 B5. C=DC(0.)
X-3.674 Y-12.545 Z-4.105 B5. C=DC(0.)
X-3.674 Y-12.738 Z-3.814 B5. C=DC(0.)
X-3.674 Y-12.879 Z-3.509 B5. C=DC(0.)
X-3.674 Y-12.964 Z-3.233 B5. C=DC(0.)
X-3.674 Y-13.033 Z-2.886 B5. C=DC(0.)
X-3.674 Y-13.103 Z-2.619 B5. C=DC(0.)
X-3.674 Y-13.226 Z-2.328 B5. C=DC(0.)
X-3.674 Y-13.349 Z-2.122 B5. C=DC(0.)
X-3.674 Y-13.513 Z-1.913 B5. C=DC(0.)
X-3.674 Y-13.677 Z-1.751 B5. C=DC(0.)
X-3.674 Y-13.87 Z-1.601 B5. C=DC(0.)
X-3.674 Y-14.062 Z-1.484 B5. C=DC(0.)
X-3.674 Y-14.274 Z-1.387 B5. C=DC(0.)
X-3.674 Y-14.485 Z-1.318 B5. C=DC(0.)
X-3.674 Y-14.922 Z-1.252 B5. C=DC(0.)
X-3.674 Y-15.351 Z-1.282 B5. C=DC(0.),8
X-3.674 Y-16.641 Z-1.5 B5. C=DC(0.)
X-3.674 Y-18.356 Z-1.82 B5. C=DC(0.)
X-3.674 Y-19.635 Z-2.083 B5. C=DC(0.)
X-3.674 Y-20.061 Z-2.172 B5. C=DC(0.)
X-3.674 Y-21.341 Z-2.459 B5. C=DC(0.)
X-3.674 Y-21.764 Z-2.557 B5. C=DC(0.)
X-3.674 Y-23.034 Z-2.869 B5. C=DC(0.)
X-3.674 Y-23.454 Z-2.977 B5. C=DC(0.)
X-3.674 Y-24.715 Z-3.311 B5. C=DC(0.)
X-3.674 Y-25.136 Z-3.429 B5. C=DC(0.)
X-3.674 Y-26.394 Z-3.788 B5. C=DC(0.)
X-3.674 Y-27.647 Z-4.171 B5. C=DC(0.)
X-3.674 Y-28.062 Z-4.301 B5. C=DC(0.)
X-3.674 Y-29.307 Z-4.709 B5. C=DC(0.)
X-3.674 Y-30.131 Z-4.992 B5. C=DC(0.),8
X-3.674 Y-30.133 Z-4.992 B5. C=DC(0.),3
X-3.674 Y-37.5 Z-4.992 B5. C=DC(0.),7
X-2.674 Y-37.5 Z-4.992 B5. C=DC(0.),7
X-2.674 Y-30.234 Z-4.992 B5. C=DC(0.),8
X-2.674 Y-29.406 Z-4.707 B5. C=DC(0.)
X-2.674 Y-28.159 Z-4.298 B5. C=DC(0.)
X-2.674 Y-27.744 Z-4.168 B5. C=DC(0.)
X-2.674 Y-26.489 Z-3.783 B5. C=DC(0.)
X-2.674 Y-25.234 Z-3.423 B5. C=DC(0.)
X-2.674 Y-24.816 Z-3.305 B5. C=DC(0.)
X-2.674 Y-23.553 Z-2.969 B5. C=DC(0.)
X-2.674 Y-23.132 Z-2.861 B5. C=DC(0.)
X-2.674 Y-21.86 Z-2.548 B5. C=DC(0.)
X-2.674 Y-21.436 Z-2.449 B5. C=DC(0.)
X-2.674 Y-20.164 Z-2.161 B5. C=DC(0.)
X-2.674 Y-18.458 Z-1.808 B5. C=DC(0.)
X-2.674 Y-17.177 Z-1.567 B5. C=DC(0.)
X-2.674 Y-16.75 Z-1.488 B5. C=DC(0.)
X-2.674 Y-15.458 Z-1.269 B5. C=DC(0.),8
X-2.674 Y-15.028 Z-1.22 B5. C=DC(0.)
X-2.674 Y-14.593 Z-1.262 B5. C=DC(0.)
X-2.674 Y-14.38 Z-1.318 B5. C=DC(0.)
X-2.674 Y-14.166 Z-1.402 B5. C=DC(0.)
X-2.674 Y-13.968 Z-1.507 B5. C=DC(0.)
X-2.674 Y-13.769 Z-1.644 B5. C=DC(0.)
X-2.674 Y-13.597 Z-1.795 B5. C=DC(0.)
X-2.674 Y-13.425 Z-1.988 B5. C=DC(0.)
X-2.674 Y-13.29 Z-2.183 B5. C=DC(0.)
X-2.674 Y-13.155 Z-2.447 B5. C=DC(0.)
X-2.674 Y-13.071 Z-2.692 B5. C=DC(0.)
X-2.674 Y-12.987 Z-3.103 B5. C=DC(0.)
X-2.674 Y-12.905 Z-3.42 B5. C=DC(0.)
X-2.674 Y-12.768 Z-3.745 B5. C=DC(0.)
X-2.674 Y-12.578 Z-4.056 B5. C=DC(0.)
X-2.674 Y-12.458 Z-4.2 B5. C=DC(0.)
X-2.674 Y-12.338 Z-4.331 B5. C=DC(0.)
X-2.674 Y-12.012 Z-4.592 B5. C=DC(0.)
X-2.674 Y-11.651 Z-4.794 B5. C=DC(0.)
X-2.674 Y-11.456 Z-4.866 B5. C=DC(0.)
X-2.674 Y-11.261 Z-4.923 B5. C=DC(0.)
X-2.674 Y-10.833 Z-4.981 B5. C=DC(0.)
X-2.674 Y-10.398 Z-4.992 B5. C=DC(0.)
X-2.674 Y-9.962 Z-4.962 B5. C=DC(0.)
X-2.674 Y-9.531 Z-4.854 B5. C=DC(0.)
X-2.674 Y-9.326 Z-4.77 B5. C=DC(0.)
X-2.674 Y-9.122 Z-4.662 B5. C=DC(0.)
X-2.674 Y-8.935 Z-4.537 B5. C=DC(0.)
X-2.674 Y-8.749 Z-4.384 B5. C=DC(0.)
X-2.674 Y-8.587 Z-4.22 B5. C=DC(0.)
X-2.674 Y-8.426 Z-4.017 B5. C=DC(0.)
X-2.674 Y-8.296 Z-3.812 B5. C=DC(0.)
X-2.674 Y-8.166 Z-3.54 B5. C=DC(0.)
X-2.674 Y-8.092 Z-3.324 B5. C=DC(0.)
X-2.674 Y-8.019 Z-2.953 B5. C=DC(0.)
X-2.674 Y-8.003 Z-2.699 B5. C=DC(0.)
X-2.674 Y-7.987 Z-1.983 B5. C=DC(0.)
X-2.674 Y-7.955 Z-1.79 B5. C=DC(0.)
X-2.674 Y-7.862 Z-1.484 B5. C=DC(0.)
X-2.674 Y-7.703 Z-1.165 B5. C=DC(0.)
X-2.674 Y-7.475 Z-.862 B5. C=DC(0.)
X-2.674 Y-7.181 Z-.599 B5. C=DC(0.)
X-2.674 Y-6.829 Z-.393 B5. C=DC(0.)
X-2.674 Y-6.433 Z-.261 B5. C=DC(0.)
X-2.674 Y-6.006 Z-.211 B5. C=DC(0.),8
X-2.674 Y-4.701 Z-.139 B5. C=DC(0.)
X-2.674 Y-3.831 Z-.103 B5. C=DC(0.)
X-2.674 Y-2.961 Z-.072 B5. C=DC(0.)
X-2.674 Y-2.526 Z-.058 B5. C=DC(0.)
X-2.674 Y-2.091 Z-.048 B5. C=DC(0.)
X-2.674 Y-1.221 Z-.036 B5. C=DC(0.)
X-2.674 Y.084 Z-.028 B5. C=DC(0.)
X-2.674 Y.955 Z-.033 B5. C=DC(0.)
X-2.674 Y2.26 Z-.051 B5. C=DC(0.)
X-2.674 Y3.55 Z-.033 B5. C=DC(0.)
X-2.674 Y3.13 Z-.078 B5. C=DC(0.),2
X-2.674 Y4.435 Z-.126 B5. C=DC(0.)
X-2.674 Y4.87 Z-.148 B5. C=DC(0.)
X-2.674 Y6.175 Z-.222 B5. C=DC(0.)
X-2.674 Y6.61 Z-.25 B5. C=DC(0.)
X-2.674 Y7.916 Z-.349 B5. C=DC(0.)
X-2.674 Y8.351 Z-.384 B5. C=DC(0.)
X-2.674 Y9.656 Z-.507 B5. C=DC(0.)
X-2.674 Y10.091 Z-.55 B5. C=DC(0.)
X-2.674 Y11.376 Z-.695 B5. C=DC(0.)
X-2.674 Y11.804 Z-.745 B5. C=DC(0.)
X-2.674 Y13.089 Z-.914 B5. C=DC(0.)
X-2.674 Y13.517 Z-.972 B5. C=DC(0.)
X-2.674 Y14.802 Z-1.165 B5. C=DC(0.)
X-2.674 Y15.23 Z-1.23 B5. C=DC(0.)
X-2.674 Y16.515 Z-1.448 B5. C=DC(0.)
X-2.674 Y16.943 Z-1.523 B5. C=DC(0.)
X-2.674 Y18.228 Z-1.764 B5. C=DC(0.)
X-2.674 Y18.656 Z-1.848 B5. C=DC(0.)
X-2.674 Y19.941 Z-2.114 B5. C=DC(0.)
X-2.674 Y20.369 Z-2.207 B5. C=DC(0.)
X-2.674 Y21.623 Z-2.492 B5. C=DC(0.)
X-2.674 Y22.041 Z-2.592 B5. C=DC(0.)
X-2.674 Y23.294 Z-2.901 B5. C=DC(0.)
X-2.674 Y23.712 Z-3.011 B5. C=DC(0.)
X-2.674 Y24.965 Z-3.346 B5. C=DC(0.)
X-2.674 Y26.219 Z-3.705 B5. C=DC(0.)
X-2.674 Y26.637 Z-3.828 B5. C=DC(0.)
X-2.674 Y27.89 Z-4.213 B5. C=DC(0.)
X-2.674 Y28.308 Z-4.347 B5. C=DC(0.)
X-2.674 Y29.507 Z-4.741 B5. C=DC(0.)
X-2.674 Y30.233 Z-4.992 B5. C=DC(0.),8
X-2.674 Y30.234 Z-4.992 B5. C=DC(0.),3
X-2.674 Y37.5 Z-4.992 B5. C=DC(0.),7
X-1.674 Y37.5 Z-4.992 B5. C=DC(0.),7
X-1.674 Y30.301 Z-4.992 B5. C=DC(0.),8
X-1.674 Y30.3 Z-4.992 B5. C=DC(0.),3
X-1.674 Y29.823 Z-4.827 B5. C=DC(0.)
X-1.674 Y29.419 Z-4.69 B5. C=DC(0.)
X-1.674 Y28.207 Z-4.291 B5. C=DC(0.)
X-1.674 Y27.803 Z-4.164 B5. C=DC(0.)
X-1.674 Y26.591 Z-3.791 B5. C=DC(0.)
X-1.674 Y25.332 Z-3.428 B5. C=DC(0.)
X-1.674 Y24.913 Z-3.31 B5. C=DC(0.)
X-1.674 Y23.654 Z-2.973 B5. C=DC(0.)
X-1.674 Y23.234 Z-2.865 B5. C=DC(0.)
X-1.674 Y21.976 Z-2.554 B5. C=DC(0.)
X-1.674 Y21.556 Z-2.456 B5. C=DC(0.)
X-1.674 Y20.297 Z-2.169 B5. C=DC(0.)
X-1.674 Y19.878 Z-2.08 B5. C=DC(0.)
X-1.674 Y18.619 Z-1.818 B5. C=DC(0.)
X-1.674 Y17.332 Z-1.573 B5. C=DC(0.)
X-1.674 Y16.902 Z-1.493 B5. C=DC(0.)
X-1.674 Y15.615 Z-1.274 B5. C=DC(0.)
X-1.674 Y15.186 Z-1.203 B5. C=DC(0.)
X-1.674 Y13.899 Z-1.007 B5. C=DC(0.)
X-1.674 Y13.47 Z-.945 B5. C=DC(0.)
X-1.674 Y12.182 Z-.773 B5. C=DC(0.)
X-1.674 Y11.753 Z-.719 B5. C=DC(0.)
X-1.674 Y10.466 Z-.571 B5. C=DC(0.)
X-1.674 Y10.037 Z-.524 B5. C=DC(0.)
X-1.674 Y8.749 Z-.4 B5. C=DC(0.)
X-1.674 Y8.314 Z-.361 B5. C=DC(0.)
X-1.674 Y7.007 Z-.258 B5. C=DC(0.)
X-1.674 Y6.571 Z-.227 B5. C=DC(0.)
X-1.674 Y5.264 Z-.148 B5. C=DC(0.)
X-1.674 Y4.829 Z-.124 B5. C=DC(0.)
X-1.674 Y3.086 Z-.053 B5. C=DC(0.),6
X-1.674 Y1.779 Z-.024 B5. C=DC(0.)
X-1.674 Y.908 Z-.008 B5. C=DC(0.)
X-1.674 Y.037 Z-.006 B5. C=DC(0.)
X-1.674 Y-.834 Z-.007 B5. C=DC(0.)
X-1.674 Y-1.27 Z-.014 B5. C=DC(0.)
X-1.674 Y-1.705 Z-.022 B5. C=DC(0.)
X-1.674 Y-3.012 Z-.051 B5. C=DC(0.)
X-1.674 Y-3.448 Z-.067 B5. C=DC(0.)
X-1.674 Y-4.755 Z-.121 B5. C=DC(0.)
X-1.674 Y-5.19 Z-.143 B5. C=DC(0.)
X-1.674 Y-6.062 Z-.193 B5. C=DC(0.),8
X-1.674 Y-6.485 Z-.253 B5. C=DC(0.)
X-1.674 Y-6.877 Z-.396 B5. C=DC(0.)
X-1.674 Y-7.221 Z-.609 B5. C=DC(0.)
X-1.674 Y-7.508 Z-.88 B5. C=DC(0.)
X-1.674 Y-7.728 Z-1.186 B5. C=DC(0.)
X-1.674 Y-7.878 Z-1.505 B5. C=DC(0.)
X-1.674 Y-7.962 Z-1.807 B5. C=DC(0.)
X-1.674 Y-7.997 Z-2.09 B5. C=DC(0.)
X-1.674 Y-8.009 Z-2.826 B5. C=DC(0.)
X-1.674 Y-8.021 Z-2.966 B5. C=DC(0.)
X-1.674 Y-8.091 Z-3.316 B5. C=DC(0.)
X-1.674 Y-8.184 Z-3.585 B5. C=DC(0.)
X-1.674 Y-8.314 Z-3.842 B5. C=DC(0.)
X-1.674 Y-8.443 Z-4.041 B5. C=DC(0.)
X-1.674 Y-8.605 Z-4.24 B5. C=DC(0.)
X-1.674 Y-8.767 Z-4.4 B5. C=DC(0.)
X-1.674 Y-8.953 Z-4.551 B5. C=DC(0.)
X-1.674 Y-9.14 Z-4.673 B5. C=DC(0.)
X-1.674 Y-9.345 Z-4.779 B5. C=DC(0.)
X-1.674 Y-9.549 Z-4.861 B5. C=DC(0.)
X-1.674 Y-9.981 Z-4.965 B5. C=DC(0.)
X-1.674 Y-10.416 Z-4.992 B5. C=DC(0.)
X-1.674 Y-10.852 Z-4.98 B5. C=DC(0.)
X-1.674 Y-11.28 Z-4.919 B5. C=DC(0.)
X-1.674 Y-11.475 Z-4.859 B5. C=DC(0.)
X-1.674 Y-11.67 Z-4.784 B5. C=DC(0.)
X-1.674 Y-12.032 Z-4.578 B5. C=DC(0.)
X-1.674 Y-12.358 Z-4.312 B5. C=DC(0.)
X-1.674 Y-12.597 Z-4.024 B5. C=DC(0.)
X-1.674 Y-12.788 Z-3.701 B5. C=DC(0.)
X-1.674 Y-12.925 Z-3.355 B5. C=DC(0.)
X-1.674 Y-13.006 Z-2.98 B5. C=DC(0.)
X-1.674 Y-13.1 Z-2.576 B5. C=DC(0.)
X-1.674 Y-13.194 Z-2.341 B5. C=DC(0.)
X-1.674 Y-13.335 Z-2.091 B5. C=DC(0.)
X-1.674 Y-13.477 Z-1.903 B5. C=DC(0.)
X-1.674 Y-13.654 Z-1.72 B5. C=DC(0.)
X-1.674 Y-13.831 Z-1.577 B5. C=DC(0.)
X-1.674 Y-14.032 Z-1.45 B5. C=DC(0.)
X-1.674 Y-14.232 Z-1.353 B5. C=DC(0.)
X-1.674 Y-14.448 Z-1.277 B5. C=DC(0.)
X-1.674 Y-14.663 Z-1.228 B5. C=DC(0.)
X-1.674 Y-15.098 Z-1.202 B5. C=DC(0.)
X-1.674 Y-15.529 Z-1.261 B5. C=DC(0.),8
X-1.674 Y-16.822 Z-1.48 B5. C=DC(0.)
X-1.674 Y-17.25 Z-1.558 B5. C=DC(0.)
X-1.674 Y-18.533 Z-1.801 B5. C=DC(0.)
X-1.674 Y-18.961 Z-1.889 B5. C=DC(0.)
X-1.674 Y-20.241 Z-2.156 B5. C=DC(0.)
X-1.674 Y-21.515 Z-2.446 B5. C=DC(0.)
X-1.674 Y-21.939 Z-2.545 B5. C=DC(0.)
X-1.674 Y-23.213 Z-2.86 B5. C=DC(0.)
X-1.674 Y-23.635 Z-2.968 B5. C=DC(0.)
X-1.674 Y-24.9 Z-3.306 B5. C=DC(0.)
X-1.674 Y-25.318 Z-3.424 B5. C=DC(0.)
X-1.674 Y-26.575 Z-3.786 B5. C=DC(0.)
X-1.674 Y-27.823 Z-4.17 B5. C=DC(0.)
X-1.674 Y-28.236 Z-4.3 B5. C=DC(0.)
X-1.674 Y-29.477 Z-4.709 B5. C=DC(0.)
X-1.674 Y-30.3 Z-4.992 B5. C=DC(0.),8
X-1.674 Y-37.5 Z-4.992 B5. C=DC(0.),7
X-.674 Y-37.5 Z-4.992 B5. C=DC(0.),7
X-.674 Y-30.332 Z-4.992 B5. C=DC(0.),8
X-.674 Y-30.331 Z-4.992 B5. C=DC(0.),3
X-.674 Y-29.509 Z-4.709 B5. C=DC(0.)
X-.674 Y-28.268 Z-4.299 B5. C=DC(0.)
X-.674 Y-27.854 Z-4.169 B5. C=DC(0.)
X-.674 Y-26.605 Z-3.784 B5. C=DC(0.)
X-.674 Y-25.348 Z-3.421 B5. C=DC(0.)
X-.674 Y-24.929 Z-3.303 B5. C=DC(0.)
X-.674 Y-23.664 Z-2.965 B5. C=DC(0.)
X-.674 Y-23.242 Z-2.856 B5. C=DC(0.)
X-.674 Y-21.977 Z-2.543 B5. C=DC(0.)
X-.674 Y-21.555 Z-2.445 B5. C=DC(0.)
X-.674 Y-20.28 Z-2.154 B5. C=DC(0.)
X-.674 Y-18.999 Z-1.886 B5. C=DC(0.)
X-.674 Y-18.571 Z-1.798 B5. C=DC(0.)
X-.674 Y-17.287 Z-1.555 B5. C=DC(0.)
X-.674 Y-16.859 Z-1.476 B5. C=DC(0.)
X-.674 Y-15.575 Z-1.256 B5. C=DC(0.),8
X-.674 Y-15.147 Z-1.193 B5. C=DC(0.)
X-.674 Y-14.712 Z-1.209 B5. C=DC(0.)
X-.674 Y-14.28 Z-1.322 B5. C=DC(0.)
X-.674 Y-14.077 Z-1.414 B5. C=DC(0.)
X-.674 Y-13.873 Z-1.536 B5. C=DC(0.)
X-.674 Y-13.693 Z-1.674 B5. C=DC(0.)
X-.674 Y-13.513 Z-1.85 B5. C=DC(0.)
X-.674 Y-13.368 Z-2.032 B5. C=DC(0.)
X-.674 Y-13.222 Z-2.272 B5. C=DC(0.)
X-.674 Y-13.122 Z-2.5 B5. C=DC(0.)
X-.674 Y-13.022 Z-2.885 B5. C=DC(0.)
X-.674 Y-12.944 Z-3.291 B5. C=DC(0.)
X-.674 Y-12.809 Z-3.655 B5. C=DC(0.)
X-.674 Y-12.621 Z-3.987 B5. C=DC(0.)
X-.674 Y-12.382 Z-4.284 B5. C=DC(0.)
X-.674 Y-12.097 Z-4.533 B5. C=DC(0.)
X-.674 Y-11.735 Z-4.751 B5. C=DC(0.)
X-.674 Y-11.344 Z-4.903 B5. C=DC(0.)
X-.674 Y-11.137 Z-4.947 B5. C=DC(0.)
X-.674 Y-10.93 Z-4.975 B5. C=DC(0.)
X-.674 Y-10.494 Z-4.992 B5. C=DC(0.)
X-.674 Y-10.058 Z-4.976 B5. C=DC(0.)
X-.674 Y-9.625 Z-4.888 B5. C=DC(0.)
X-.674 Y-9.216 Z-4.718 B5. C=DC(0.)
X-.674 Y-9.029 Z-4.606 B5. C=DC(0.)
X-.674 Y-8.842 Z-4.468 B5. C=DC(0.)
X-.674 Y-8.68 Z-4.321 B5. C=DC(0.)
X-.674 Y-8.518 Z-4.142 B5. C=DC(0.)
X-.674 Y-8.388 Z-3.966 B5. C=DC(0.)
X-.674 Y-8.258 Z-3.742 B5. C=DC(0.)
X-.674 Y-8.164 Z-3.536 B5. C=DC(0.)
X-.674 Y-8.071 Z-3.238 B5. C=DC(0.)
X-.674 Y-8.018 Z-2.948 B5. C=DC(0.)
X-.674 Y-8.005 Z-2.738 B5. C=DC(0.)
X-.674 Y-7.991 Z-1.998 B5. C=DC(0.)
X-.674 Y-7.965 Z-1.81 B5. C=DC(0.)
X-.674 Y-7.883 Z-1.51 B5. C=DC(0.)
X-.674 Y-7.736 Z-1.191 B5. C=DC(0.)
X-.674 Y-7.52 Z-.884 B5. C=DC(0.)
X-.674 Y-7.237 Z-.612 B5. C=DC(0.)
X-.674 Y-6.895 Z-.395 B5. C=DC(0.)
X-.674 Y-6.506 Z-.249 B5. C=DC(0.)
X-.674 Y-6.083 Z-.185 B5. C=DC(0.),8
X-.674 Y-5.211 Z-.133 B5. C=DC(0.)
X-.674 Y-4.775 Z-.113 B5. C=DC(0.)
X-.674 Y-3.468 Z-.056 B5. C=DC(0.)
X-.674 Y-3.032 Z-.043 B5. C=DC(0.)
X-.674 Y-1.724 Z-.009 B5. C=DC(0.)
X-.674 Y-.853 Z-.001 B5. C=DC(0.)
X-.674 Y.019 Z.003 B5. C=DC(0.)
X-.674 Y.891 Z-.001 B5. C=DC(0.)
X-.674 Y1.762 Z-.01 B5. C=DC(0.)
X-.674 Y3.07 Z-.044 B5. C=DC(0.)
X-.674 Y3.506 Z-.057 B5. C=DC(0.)
X-.674 Y4.813 Z-.115 B5. C=DC(0.)
X-.674 Y5.249 Z-.136 B5. C=DC(0.)
X-.674 Y6.556 Z-.217 B5. C=DC(0.)
X-.674 Y6.992 Z-.246 B5. C=DC(0.)
X-.674 Y8.3 Z-.35 B5. C=DC(0.)
X-.674 Y8.735 Z-.388 B5. C=DC(0.)
X-.674 Y10.023 Z-.513 B5. C=DC(0.)
X-.674 Y10.453 Z-.558 B5. C=DC(0.)
X-.674 Y11.741 Z-.707 B5. C=DC(0.)
X-.674 Y12.17 Z-.76 B5. C=DC(0.)
X-.674 Y13.458 Z-.933 B5. C=DC(0.)
X-.674 Y13.887 Z-.995 B5. C=DC(0.)
X-.674 Y15.175 Z-1.191 B5. C=DC(0.)
X-.674 Y15.605 Z-1.261 B5. C=DC(0.)
X-.674 Y16.893 Z-1.482 B5. C=DC(0.)
X-.674 Y17.322 Z-1.561 B5. C=DC(0.)
X-.674 Y18.61 Z-1.806 B5. C=DC(0.)
X-.674 Y19.039 Z-1.895 B5. C=DC(0.)
X-.674 Y21.976 Z-2.543 B5. C=DC(0.),6
X-.674 Y23.235 Z-2.855 B5. C=DC(0.)
X-.674 Y23.654 Z-2.962 B5. C=DC(0.)
X-.674 Y24.913 Z-3.299 B5. C=DC(0.)
X-.674 Y25.333 Z-3.417 B5. C=DC(0.)
X-.674 Y26.591 Z-3.779 B5. C=DC(0.)
