;%_N_1_MPF
;MASTERCAM - 2024
;MCX PATH  - G:\ģͿ\㲩\
;MCAM FILE - ģ.MCAM
;POST      - HEN-Xxzy_LITZ_LU400_SIEMENS.PST
;PROGRAM   - 1.MPF
;DATE      - 2026.03.12
;TIME      - 2:48 PM
;T1   - 4 /Բϳ            - D1   - D4.000mm - R2.000mm
G00 G17 G40 G71 G90
G00 SUPA Z0. D0
G00 SUPA X-255. Y175.
D1
M51 ; C-Axis lock-off
M53 ; C-Axis lock-off
G00 B0. C=DC(0.)
M1

N1
;OPERATION NO - 11
;OPERATION TYPE - CONVERT 5AX
T1 ;4 /Բϳ
M06
D1
G54 G90
G00 X-36.674 Y-47.5
B5. C=DC(0.)
TRAORI
CYCLE832(.025,_ROUGH,1)
X-36.674 Y-47.5 Z50.008 S3000 M03
Z10.369
G94 G01 X-36.674 Y-47.5 Z9.869 B5. C=DC(0.) F360.
X-36.674 Y-47.489 Z9.407 B5. C=DC(0.)
X-36.674 Y-47.457 Z8.946 B5. C=DC(0.)
X-36.674 Y-47.404 Z8.487 B5. C=DC(0.)
X-36.674 Y-47.33 Z8.031 B5. C=DC(0.)
X-36.674 Y-47.234 Z7.579 B5. C=DC(0.)
X-36.674 Y-47.118 Z7.132 B5. C=DC(0.)
X-36.674 Y-46.982 Z6.691 B5. C=DC(0.)
X-36.674 Y-46.825 Z6.256 B5. C=DC(0.)
X-36.674 Y-46.648 Z5.829 B5. C=DC(0.)
X-36.674 Y-46.452 Z5.411 B5. C=DC(0.)
X-36.674 Y-46.236 Z5.002 B5. C=DC(0.)
X-36.674 Y-46.002 Z4.604 B5. C=DC(0.)
X-36.674 Y-45.75 Z4.217 B5. C=DC(0.)
X-36.674 Y-45.48 Z3.842 B5. C=DC(0.)
X-36.674 Y-45.193 Z3.48 B5. C=DC(0.)
X-36.674 Y-44.89 Z3.132 B5. C=DC(0.)
X-36.674 Y-44.571 Z2.797 B5. C=DC(0.)
X-36.674 Y-44.237 Z2.478 B5. C=DC(0.)
X-36.674 Y-43.888 Z2.175 B5. C=DC(0.)
X-36.674 Y-43.526 Z1.888 B5. C=DC(0.)
X-36.674 Y-43.151 Z1.619 B5. C=DC(0.)
X-36.674 Y-42.764 Z1.366 B5. C=DC(0.)
X-36.674 Y-42.366 Z1.132 B5. C=DC(0.)
X-36.674 Y-41.957 Z.917 B5. C=DC(0.)
X-36.674 Y-41.539 Z.721 B5. C=DC(0.)
X-36.674 Y-41.112 Z.544 B5. C=DC(0.)
X-36.674 Y-40.678 Z.387 B5. C=DC(0.)
X-36.674 Y-40.237 Z.25 B5. C=DC(0.)
X-36.674 Y-39.79 Z.134 B5. C=DC(0.)
X-36.674 Y-39.337 Z.039 B5. C=DC(0.)
X-36.674 Y-38.882 Z-.036 B5. C=DC(0.)
X-36.674 Y-38.423 Z-.089 B5. C=DC(0.)
X-36.674 Y-37.962 Z-.121 B5. C=DC(0.)
X-36.674 Y-37.5 Z-.131 B5. C=DC(0.),7
X-36.674 Y-33.576 Z-.131 B5. C=DC(0.)
X-36.674 Y-33.14 Z-.134 B5. C=DC(0.)
X-36.674 Y-32.703 Z-.175 B5. C=DC(0.)
X-36.674 Y-32.27 Z-.253 B5. C=DC(0.)
X-36.674 Y-31.85 Z-.382 B5. C=DC(0.)
X-36.674 Y-31.441 Z-.458 B5. C=DC(0.),1
X-36.674 Y-31.432 Z-.561 B5. C=DC(0.)
X-36.674 Y-31.047 Z-.77 B5. C=DC(0.)
X-36.674 Y-30.859 Z-.894 B5. C=DC(0.)
X-36.674 Y-30.67 Z-1.046 B5. C=DC(0.)
X-36.674 Y-30.333 Z-1.332 B5. C=DC(0.)
X-36.674 Y-21.815 Z-9.849 B5. C=DC(0.),3
X-36.674 Y-21.813 Z-9.85 B5. C=DC(0.),8
X-36.674 Y37.07 Z-.036 B5. C=DC(0.)
X-36.674 Y37.5 Z.008 B5. C=DC(0.),7
X-35.674 Y37.5 Z.008 B5. C=DC(0.),7
X-35.674 Y37.07 Z-.036 B5. C=DC(0.)
X-35.674 Y-21.813 Z-9.85 B5. C=DC(0.),8
X-35.674 Y-21.815 Z-9.849 B5. C=DC(0.),3
X-35.674 Y-30.13 Z-1.534 B5. C=DC(0.)
X-35.674 Y-30.299 Z-1.38 B5. C=DC(0.)
X-35.674 Y-30.643 Z-1.098 B5. C=DC(0.)
X-35.674 Y-30.836 Z-.963 B5. C=DC(0.)
X-35.674 Y-31.226 Z-.749 B5. C=DC(0.)
X-35.674 Y-31.24 Z-.647 B5. C=DC(0.),1
X-35.674 Y-31.842 Z-.499 B5. C=DC(0.)
X-35.674 Y-32.27 Z-.379 B5. C=DC(0.)
X-35.674 Y-32.703 Z-.325 B5. C=DC(0.)
X-35.674 Y-33.14 Z-.298 B5. C=DC(0.)
X-35.674 Y-37.5 Z-.298 B5. C=DC(0.),7
X-34.674 Y-37.5 Z-.465 B5. C=DC(0.),7
X-34.674 Y-33.14 Z-.465 B5. C=DC(0.)
X-34.674 Y-32.703 Z-.475 B5. C=DC(0.)
X-34.674 Y-32.27 Z-.519 B5. C=DC(0.)
X-34.674 Y-31.837 Z-.616 B5. C=DC(0.)
X-34.674 Y-31.419 Z-.747 B5. C=DC(0.)
X-34.674 Y-31.14 Z-.834 B5. C=DC(0.),1
X-34.674 Y-31.009 Z-.943 B5. C=DC(0.)
X-34.674 Y-30.624 Z-1.159 B5. C=DC(0.)
X-34.674 Y-30.442 Z-1.292 B5. C=DC(0.)
X-34.674 Y-30.091 Z-1.582 B5. C=DC(0.)
X-34.674 Y-29.923 Z-1.741 B5. C=DC(0.)
X-34.674 Y-21.814 Z-9.85 B5. C=DC(0.),8
X-34.674 Y-21.811 Z-9.85 B5. C=DC(0.),3
X-34.674 Y37.07 Z-.036 B5. C=DC(0.)
X-34.674 Y37.5 Z.008 B5. C=DC(0.),7
X-33.674 Y37.5 Z.008 B5. C=DC(0.),7
X-33.674 Y37.07 Z-.036 B5. C=DC(0.)
X-33.674 Y-21.812 Z-9.85 B5. C=DC(0.),8
X-33.674 Y-21.815 Z-9.849 B5. C=DC(0.),3
X-33.674 Y-29.731 Z-1.933 B5. C=DC(0.)
X-33.674 Y-29.894 Z-1.775 B5. C=DC(0.)
X-33.674 Y-30.224 Z-1.501 B5. C=DC(0.)
X-33.674 Y-30.415 Z-1.354 B5. C=DC(0.)
X-33.674 Y-30.607 Z-1.236 B5. C=DC(0.)
X-33.674 Y-30.994 Z-1.028 B5. C=DC(0.)
X-33.674 Y-31.09 Z-.933 B5. C=DC(0.),1
X-33.674 Y-31.411 Z-.862 B5. C=DC(0.)
X-33.674 Y-31.834 Z-.735 B5. C=DC(0.)
X-33.674 Y-32.267 Z-.668 B5. C=DC(0.)
X-33.674 Y-32.703 Z-.632 B5. C=DC(0.)
X-33.674 Y-37.5 Z-.631 B5. C=DC(0.),7
X-32.674 Y-37.5 Z-.798 B5. C=DC(0.),7
X-32.674 Y-32.703 Z-.798 B5. C=DC(0.)
X-32.674 Y-32.267 Z-.818 B5. C=DC(0.)
X-32.674 Y-31.834 Z-.867 B5. C=DC(0.)
X-32.674 Y-31.403 Z-.98 B5. C=DC(0.)
X-32.674 Y-30.566 Z-1.2 B5. C=DC(0.),6
X-32.674 Y-30.684 Z-1.217 B5. C=DC(0.),2
X-32.674 Y-30.391 Z-1.43 B5. C=DC(0.)
X-32.674 Y-30.198 Z-1.556 B5. C=DC(0.)
X-32.674 Y-29.846 Z-1.842 B5. C=DC(0.)
X-32.674 Y-29.677 Z-1.988 B5. C=DC(0.)
X-32.674 Y-29.509 Z-2.155 B5. C=DC(0.)
X-32.674 Y-21.816 Z-9.848 B5. C=DC(0.),3
X-32.674 Y-21.813 Z-9.85 B5. C=DC(0.),8
X-32.674 Y32.342 Z-.825 B5. C=DC(0.)
X-32.674 Y33.202 Z-.69 B5. C=DC(0.)
X-32.674 Y35.781 Z-.304 B5. C=DC(0.),6
X-32.674 Y36.211 Z-.241 B5. C=DC(0.)
X-32.674 Y37.07 Z-.124 B5. C=DC(0.)
X-32.674 Y37.5 Z-.085 B5. C=DC(0.),7
X-32.612 Y37.5 Z-.101 B5. C=DC(0.),3
X-32.424 Y37.5 Z-.157 B5. C=DC(0.),3
X-32.174 Y37.5 Z-.234 B5. C=DC(0.),3
X-31.799 Y37.5 Z-.387 B5. C=DC(0.),3
X-31.674 Y37.5 Z-.453 B5. C=DC(0.),7
X-31.674 Y37.07 Z-.481 B5. C=DC(0.)
X-31.674 Y36.211 Z-.549 B5. C=DC(0.)
X-31.674 Y35.351 Z-.629 B5. C=DC(0.)
X-31.674 Y34.491 Z-.721 B5. C=DC(0.)
X-31.674 Y31.913 Z-1.019 B5. C=DC(0.),6
X-31.674 Y31.053 Z-1.126 B5. C=DC(0.)
X-31.674 Y30.193 Z-1.243 B5. C=DC(0.)
X-31.674 Y29.764 Z-1.305 B5. C=DC(0.)
X-31.674 Y27.615 Z-1.627 B5. C=DC(0.),6
X-31.674 Y26.755 Z-1.759 B5. C=DC(0.)
X-31.674 Y25.895 Z-1.899 B5. C=DC(0.)
X-31.674 Y-21.812 Z-9.85 B5. C=DC(0.),8
X-31.674 Y-21.815 Z-9.849 B5. C=DC(0.),3
X-31.674 Y-29.477 Z-2.187 B5. C=DC(0.)
X-31.674 Y-29.813 Z-1.898 B5. C=DC(0.)
X-31.674 Y-30. Z-1.746 B5. C=DC(0.)
X-31.674 Y-30.187 Z-1.619 B5. C=DC(0.)
X-31.674 Y-30.565 Z-1.412 B5. C=DC(0.)
X-31.674 Y-30.973 Z-1.307 B5. C=DC(0.),1
X-31.674 Y-30.981 Z-1.226 B5. C=DC(0.)
X-31.674 Y-31.398 Z-1.097 B5. C=DC(0.)
X-31.674 Y-31.831 Z-1.012 B5. C=DC(0.)
X-31.674 Y-32.267 Z-.969 B5. C=DC(0.)
X-31.674 Y-32.703 Z-.965 B5. C=DC(0.)
X-31.674 Y-37.5 Z-.965 B5. C=DC(0.),7
X-30.674 Y-37.5 Z-1.131 B5. C=DC(0.),7
X-30.674 Y-32.267 Z-1.131 B5. C=DC(0.)
X-30.674 Y-31.831 Z-1.162 B5. C=DC(0.)
X-30.674 Y-31.398 Z-1.22 B5. C=DC(0.)
X-30.674 Y-30.973 Z-1.343 B5. C=DC(0.)
X-30.674 Y-30.555 Z-1.497 B5. C=DC(0.)
X-30.674 Y-30.162 Z-1.706 B5. C=DC(0.)
X-30.674 Y-29.97 Z-1.817 B5. C=DC(0.)
X-30.674 Y-29.777 Z-1.956 B5. C=DC(0.)
X-30.674 Y-29.436 Z-2.239 B5. C=DC(0.)
X-30.674 Y-29.269 Z-2.395 B5. C=DC(0.)
X-30.674 Y-21.816 Z-9.848 B5. C=DC(0.),3
X-30.674 Y-21.813 Z-9.85 B5. C=DC(0.),8
X-30.674 Y19.878 Z-2.902 B5. C=DC(0.)
X-30.674 Y20.738 Z-2.761 B5. C=DC(0.)
X-30.674 Y21.167 Z-2.694 B5. C=DC(0.)
X-30.674 Y21.597 Z-2.629 B5. C=DC(0.)
X-30.674 Y23.746 Z-2.307 B5. C=DC(0.),6
X-30.674 Y24.176 Z-2.245 B5. C=DC(0.)
X-30.674 Y25.036 Z-2.128 B5. C=DC(0.)
X-30.674 Y25.465 Z-2.073 B5. C=DC(0.)
X-30.674 Y26.325 Z-1.97 B5. C=DC(0.)
X-30.674 Y28.474 Z-1.722 B5. C=DC(0.),6
X-30.674 Y28.904 Z-1.675 B5. C=DC(0.)
X-30.674 Y29.763 Z-1.589 B5. C=DC(0.)
X-30.674 Y30.623 Z-1.514 B5. C=DC(0.)
X-30.674 Y32.772 Z-1.35 B5. C=DC(0.),6
X-30.674 Y33.202 Z-1.318 B5. C=DC(0.)
X-30.674 Y33.632 Z-1.29 B5. C=DC(0.)
X-30.674 Y34.062 Z-1.266 B5. C=DC(0.)
X-30.674 Y34.491 Z-1.247 B5. C=DC(0.)
X-30.674 Y34.921 Z-1.232 B5. C=DC(0.)
X-30.674 Y36.64 Z-1.181 B5. C=DC(0.),6
X-30.674 Y37.07 Z-1.17 B5. C=DC(0.)
X-30.674 Y37.5 Z-1.164 B5. C=DC(0.),7
X-29.674 Y37.5 Z-2.164 B5. C=DC(0.),7
X-29.674 Y31.483 Z-2.165 B5. C=DC(0.)
X-29.674 Y31.053 Z-2.171 B5. C=DC(0.)
X-29.674 Y30.623 Z-2.182 B5. C=DC(0.)
X-29.674 Y29.334 Z-2.22 B5. C=DC(0.)
X-29.674 Y28.904 Z-2.231 B5. C=DC(0.)
X-29.674 Y28.474 Z-2.247 B5. C=DC(0.)
X-29.674 Y28.044 Z-2.267 B5. C=DC(0.)
X-29.674 Y27.615 Z-2.291 B5. C=DC(0.)
X-29.674 Y26.755 Z-2.351 B5. C=DC(0.)
X-29.674 Y25.466 Z-2.45 B5. C=DC(0.)
X-29.674 Y24.606 Z-2.515 B5. C=DC(0.)
X-29.674 Y23.747 Z-2.59 B5. C=DC(0.)
X-29.674 Y22.887 Z-2.676 B5. C=DC(0.)
X-29.674 Y22.457 Z-2.723 B5. C=DC(0.)
X-29.674 Y20.308 Z-2.97 B5. C=DC(0.),6
X-29.674 Y19.449 Z-3.075 B5. C=DC(0.)
X-29.674 Y19.019 Z-3.131 B5. C=DC(0.)
X-29.674 Y18.159 Z-3.248 B5. C=DC(0.)
X-29.674 Y17.729 Z-3.309 B5. C=DC(0.)
X-29.674 Y15.58 Z-3.63 B5. C=DC(0.),6
X-29.674 Y14.291 Z-3.833 B5. C=DC(0.)
X-29.674 Y-21.812 Z-9.85 B5. C=DC(0.),8
X-29.674 Y-21.814 Z-9.85 B5. C=DC(0.),3
X-29.674 Y-29.061 Z-2.603 B5. C=DC(0.)
X-29.674 Y-29.23 Z-2.44 B5. C=DC(0.)
X-29.674 Y-29.578 Z-2.149 B5. C=DC(0.)
X-29.674 Y-29.758 Z-2.014 B5. C=DC(0.)
X-29.674 Y-30.142 Z-1.794 B5. C=DC(0.)
X-29.674 Y-30.146 Z-1.784 B5. C=DC(0.),3
X-29.674 Y-30.55 Z-1.594 B5. C=DC(0.)
X-29.674 Y-30.967 Z-1.46 B5. C=DC(0.)
X-29.674 Y-31.398 Z-1.357 B5. C=DC(0.)
X-29.674 Y-31.831 Z-1.311 B5. C=DC(0.)
X-29.674 Y-32.267 Z-1.298 B5. C=DC(0.)
X-29.674 Y-37.5 Z-1.298 B5. C=DC(0.),7
X-28.674 Y-37.5 Z-1.465 B5. C=DC(0.),7
X-28.674 Y-32.267 Z-1.465 B5. C=DC(0.)
X-28.674 Y-31.831 Z-1.466 B5. C=DC(0.)
X-28.674 Y-31.395 Z-1.505 B5. C=DC(0.)
X-28.674 Y-30.962 Z-1.579 B5. C=DC(0.)
X-28.674 Y-30.539 Z-1.707 B5. C=DC(0.)
X-28.674 Y-30.531 Z-1.702 B5. C=DC(0.),3
X-28.674 Y-30.122 Z-1.88 B5. C=DC(0.)
X-28.674 Y-29.736 Z-2.09 B5. C=DC(0.)
X-28.674 Y-29.546 Z-2.213 B5. C=DC(0.)
X-28.674 Y-29.356 Z-2.363 B5. C=DC(0.)
X-28.674 Y-29.026 Z-2.639 B5. C=DC(0.)
X-28.674 Y-28.866 Z-2.797 B5. C=DC(0.)
X-28.674 Y-21.816 Z-9.848 B5. C=DC(0.),3
X-28.674 Y-21.813 Z-9.85 B5. C=DC(0.),8
X-28.674 Y7.843 Z-4.908 B5. C=DC(0.)
X-28.674 Y8.703 Z-4.766 B5. C=DC(0.)
X-28.674 Y9.563 Z-4.632 B5. C=DC(0.)
X-28.674 Y10.422 Z-4.504 B5. C=DC(0.)
X-28.674 Y11.282 Z-4.375 B5. C=DC(0.)
X-28.674 Y11.712 Z-4.311 B5. C=DC(0.)
X-28.674 Y12.571 Z-4.191 B5. C=DC(0.)
X-28.674 Y13.001 Z-4.133 B5. C=DC(0.)
X-28.674 Y13.861 Z-4.023 B5. C=DC(0.)
X-28.674 Y14.29 Z-3.972 B5. C=DC(0.)
X-28.674 Y16.439 Z-3.725 B5. C=DC(0.),6
X-28.674 Y16.869 Z-3.678 B5. C=DC(0.)
X-28.674 Y17.729 Z-3.592 B5. C=DC(0.)
X-28.674 Y18.589 Z-3.516 B5. C=DC(0.)
X-28.674 Y19.018 Z-3.481 B5. C=DC(0.)
X-28.674 Y19.878 Z-3.418 B5. C=DC(0.)
X-28.674 Y20.738 Z-3.352 B5. C=DC(0.)
X-28.674 Y21.597 Z-3.292 B5. C=DC(0.)
X-28.674 Y22.457 Z-3.247 B5. C=DC(0.)
X-28.674 Y22.887 Z-3.231 B5. C=DC(0.)
X-28.674 Y23.746 Z-3.208 B5. C=DC(0.)
X-28.674 Y24.606 Z-3.182 B5. C=DC(0.)
X-28.674 Y25.036 Z-3.171 B5. C=DC(0.)
X-28.674 Y25.465 Z-3.165 B5. C=DC(0.)
X-28.674 Y25.895 Z-3.164 B5. C=DC(0.)
X-28.674 Y37.5 Z-3.164 B5. C=DC(0.),7
X-27.674 Y37.5 Z-4.164 B5. C=DC(0.),7
X-27.674 Y19.878 Z-4.164 B5. C=DC(0.)
X-27.674 Y19.448 Z-4.165 B5. C=DC(0.)
X-27.674 Y19.018 Z-4.171 B5. C=DC(0.)
X-27.674 Y17.299 Z-4.217 B5. C=DC(0.)
X-27.674 Y16.869 Z-4.231 B5. C=DC(0.)
X-27.674 Y16.439 Z-4.248 B5. C=DC(0.)
X-27.674 Y15.58 Z-4.293 B5. C=DC(0.)
X-27.674 Y15.15 Z-4.322 B5. C=DC(0.)
X-27.674 Y14.72 Z-4.354 B5. C=DC(0.)
X-27.674 Y13.861 Z-4.419 B5. C=DC(0.)
X-27.674 Y13.001 Z-4.481 B5. C=DC(0.)
X-27.674 Y12.571 Z-4.517 B5. C=DC(0.)
X-27.674 Y11.712 Z-4.594 B5. C=DC(0.)
X-27.674 Y10.852 Z-4.68 B5. C=DC(0.)
X-27.674 Y10.422 Z-4.726 B5. C=DC(0.)
X-27.674 Y9.133 Z-4.874 B5. C=DC(0.)
X-27.674 Y8.703 Z-4.923 B5. C=DC(0.)
X-27.674 Y7.843 Z-5.025 B5. C=DC(0.)
X-27.674 Y7.413 Z-5.08 B5. C=DC(0.)
X-27.674 Y6.554 Z-5.193 B5. C=DC(0.)
X-27.674 Y5.694 Z-5.313 B5. C=DC(0.)
X-27.674 Y5.264 Z-5.377 B5. C=DC(0.)
X-27.674 Y4.405 Z-5.506 B5. C=DC(0.)
X-27.674 Y3.975 Z-5.569 B5. C=DC(0.)
X-27.674 Y3.115 Z-5.701 B5. C=DC(0.)
X-27.674 Y1.826 Z-5.91 B5. C=DC(0.)
X-27.674 Y-21.813 Z-9.85 B5. C=DC(0.),8
X-27.674 Y-21.816 Z-9.848 B5. C=DC(0.),3
X-27.674 Y-28.816 Z-2.848 B5. C=DC(0.)
X-27.674 Y-28.985 Z-2.698 B5. C=DC(0.)
X-27.674 Y-29.335 Z-2.411 B5. C=DC(0.)
X-27.674 Y-29.527 Z-2.282 B5. C=DC(0.)
X-27.674 Y-29.918 Z-2.067 B5. C=DC(0.)
X-27.674 Y-30.117 Z-1.969 B5. C=DC(0.)
X-27.674 Y-30.534 Z-1.824 B5. C=DC(0.)
X-27.674 Y-30.962 Z-1.707 B5. C=DC(0.)
X-27.674 Y-31.395 Z-1.655 B5. C=DC(0.)
X-27.674 Y-31.831 Z-1.631 B5. C=DC(0.)
X-27.674 Y-37.5 Z-1.631 B5. C=DC(0.),7
X-26.674 Y-37.5 Z-1.798 B5. C=DC(0.),7
X-26.674 Y-31.831 Z-1.798 B5. C=DC(0.)
X-26.674 Y-31.395 Z-1.805 B5. C=DC(0.)
X-26.674 Y-30.959 Z-1.849 B5. C=DC(0.)
X-26.674 Y-30.526 Z-1.941 B5. C=DC(0.)
X-26.674 Y-30.109 Z-2.072 B5. C=DC(0.)
X-26.674 Y-29.764 Z-2.156 B5. C=DC(0.),1
X-26.674 Y-29.699 Z-2.263 B5. C=DC(0.)
X-26.674 Y-29.321 Z-2.472 B5. C=DC(0.)
X-26.674 Y-29.137 Z-2.602 B5. C=DC(0.)
X-26.674 Y-28.784 Z-2.893 B5. C=DC(0.)
X-26.674 Y-28.615 Z-3.049 B5. C=DC(0.)
X-26.674 Y-21.816 Z-9.848 B5. C=DC(0.),3
X-26.674 Y-21.813 Z-9.85 B5. C=DC(0.),8
X-26.674 Y-3.761 Z-6.842 B5. C=DC(0.)
X-26.674 Y-2.902 Z-6.703 B5. C=DC(0.)
X-26.674 Y-2.042 Z-6.57 B5. C=DC(0.)
X-26.674 Y-1.183 Z-6.443 B5. C=DC(0.)
X-26.674 Y-.323 Z-6.315 B5. C=DC(0.)
X-26.674 Y.107 Z-6.254 B5. C=DC(0.)
X-26.674 Y.966 Z-6.137 B5. C=DC(0.)
X-26.674 Y2.256 Z-5.975 B5. C=DC(0.)
X-26.674 Y2.686 Z-5.924 B5. C=DC(0.)
X-26.674 Y3.975 Z-5.776 B5. C=DC(0.)
X-26.674 Y4.835 Z-5.681 B5. C=DC(0.)
X-26.674 Y5.694 Z-5.595 B5. C=DC(0.)
X-26.674 Y6.554 Z-5.518 B5. C=DC(0.)
X-26.674 Y6.99 Z-5.482 B5. C=DC(0.)
X-26.674 Y7.426 Z-5.448 B5. C=DC(0.)
X-26.674 Y8.297 Z-5.386 B5. C=DC(0.)
X-26.674 Y9.169 Z-5.32 B5. C=DC(0.)
X-26.674 Y9.605 Z-5.292 B5. C=DC(0.)
X-26.674 Y10.477 Z-5.246 B5. C=DC(0.)
X-26.674 Y11.348 Z-5.214 B5. C=DC(0.)
X-26.674 Y12.22 Z-5.194 B5. C=DC(0.)
X-26.674 Y13.092 Z-5.17 B5. C=DC(0.)
X-26.674 Y13.528 Z-5.164 B5. C=DC(0.)
X-26.674 Y37.5 Z-5.164 B5. C=DC(0.),7
X-25.674 Y37.5 Z-6.164 B5. C=DC(0.),7
X-25.674 Y7.532 Z-6.164 B5. C=DC(0.)
X-25.674 Y7.097 Z-6.17 B5. C=DC(0.)
X-25.674 Y6.229 Z-6.193 B5. C=DC(0.)
X-25.674 Y5.36 Z-6.212 B5. C=DC(0.)
X-25.674 Y4.491 Z-6.245 B5. C=DC(0.)
X-25.674 Y3.623 Z-6.291 B5. C=DC(0.)
X-25.674 Y3.189 Z-6.319 B5. C=DC(0.)
X-25.674 Y2.32 Z-6.384 B5. C=DC(0.)
X-25.674 Y1.451 Z-6.445 B5. C=DC(0.)
X-25.674 Y1.017 Z-6.479 B5. C=DC(0.)
X-25.674 Y.148 Z-6.553 B5. C=DC(0.)
X-25.674 Y-.72 Z-6.636 B5. C=DC(0.)
X-25.674 Y-1.589 Z-6.726 B5. C=DC(0.)
X-25.674 Y-3.326 Z-6.924 B5. C=DC(0.)
X-25.674 Y-4.62 Z-7.084 B5. C=DC(0.)
X-25.674 Y-5.91 Z-7.257 B5. C=DC(0.)
X-25.674 Y-6.339 Z-7.317 B5. C=DC(0.)
X-25.674 Y-8.059 Z-7.572 B5. C=DC(0.)
X-25.674 Y-8.918 Z-7.705 B5. C=DC(0.)
X-25.674 Y-9.778 Z-7.845 B5. C=DC(0.)
X-25.674 Y-21.812 Z-9.85 B5. C=DC(0.),8
X-25.674 Y-21.815 Z-9.849 B5. C=DC(0.),3
X-25.674 Y-28.408 Z-3.256 B5. C=DC(0.)
X-25.674 Y-28.572 Z-3.098 B5. C=DC(0.)
X-25.674 Y-28.909 Z-2.817 B5. C=DC(0.)
X-25.674 Y-29.101 Z-2.674 B5. C=DC(0.)
X-25.674 Y-29.293 Z-2.559 B5. C=DC(0.)
X-25.674 Y-29.684 Z-2.348 B5. C=DC(0.)
X-25.674 Y-29.892 Z-2.257 B5. C=DC(0.)
X-25.674 Y-29.794 Z-2.348 B5. C=DC(0.),2
X-25.674 Y-30.101 Z-2.188 B5. C=DC(0.)
X-25.674 Y-30.526 Z-2.063 B5. C=DC(0.)
X-25.674 Y-30.959 Z-1.998 B5. C=DC(0.)
X-25.674 Y-31.395 Z-1.965 B5. C=DC(0.)
X-25.674 Y-37.5 Z-1.965 B5. C=DC(0.),7
X-24.674 Y-37.5 Z-2.131 B5. C=DC(0.),7
X-24.674 Y-31.395 Z-2.131 B5. C=DC(0.)
X-24.674 Y-30.959 Z-2.148 B5. C=DC(0.)
X-24.674 Y-30.526 Z-2.196 B5. C=DC(0.)
X-24.674 Y-30.095 Z-2.305 B5. C=DC(0.)
X-24.674 Y-29.578 Z-2.443 B5. C=DC(0.),1
X-24.674 Y-29.476 Z-2.536 B5. C=DC(0.)
X-24.674 Y-29.274 Z-2.646 B5. C=DC(0.)
X-24.674 Y-28.89 Z-2.872 B5. C=DC(0.)
X-24.674 Y-28.711 Z-3.009 B5. C=DC(0.)
X-24.674 Y-28.364 Z-3.302 B5. C=DC(0.)
X-24.674 Y-28.196 Z-3.468 B5. C=DC(0.)
X-24.674 Y-21.815 Z-9.849 B5. C=DC(0.),3
X-24.674 Y-21.813 Z-9.85 B5. C=DC(0.),8
X-24.674 Y-15.796 Z-8.848 B5. C=DC(0.)
X-24.674 Y-14.936 Z-8.708 B5. C=DC(0.)
X-24.674 Y-14.506 Z-8.641 B5. C=DC(0.)
X-24.674 Y-13.647 Z-8.509 B5. C=DC(0.)
X-24.674 Y-12.357 Z-8.32 B5. C=DC(0.)
X-24.674 Y-11.068 Z-8.142 B5. C=DC(0.)
X-24.674 Y-10.2 Z-8.03 B5. C=DC(0.)
X-24.674 Y-8.9 Z-7.874 B5. C=DC(0.)
X-24.674 Y-7.599 Z-7.727 B5. C=DC(0.)
X-24.674 Y-6.731 Z-7.637 B5. C=DC(0.)
X-24.674 Y-5.864 Z-7.554 B5. C=DC(0.)
X-24.674 Y-5.197 Z-7.779 B5. C=DC(0.),1
X-24.674 Y-4.13 Z-7.413 B5. C=DC(0.)
X-24.674 Y-3.262 Z-7.352 B5. C=DC(0.)
X-24.674 Y-2.395 Z-7.292 B5. C=DC(0.)
X-24.674 Y-1.528 Z-7.246 B5. C=DC(0.)
X-24.674 Y-.66 Z-7.212 B5. C=DC(0.)
X-24.674 Y-.227 Z-7.2 B5. C=DC(0.)
X-24.674 Y.641 Z-7.181 B5. C=DC(0.)
X-24.674 Y1.074 Z-7.17 B5. C=DC(0.)
X-24.674 Y1.508 Z-7.164 B5. C=DC(0.)
X-24.674 Y37.5 Z-7.164 B5. C=DC(0.),7
X-23.674 Y37.5 Z-8.164 B5. C=DC(0.),7
X-23.674 Y-4.076 Z-8.164 B5. C=DC(0.)
X-23.674 Y-4.509 Z-8.165 B5. C=DC(0.)
X-23.674 Y-4.942 Z-8.17 B5. C=DC(0.)
X-23.674 Y-6.746 Z-8.6 B5. C=DC(0.),1
X-23.674 Y-7.112 Z-8.228 B5. C=DC(0.)
X-23.674 Y-7.978 Z-8.268 B5. C=DC(0.)
X-23.674 Y-8.411 Z-8.293 B5. C=DC(0.)
X-23.674 Y-8.845 Z-8.321 B5. C=DC(0.)
X-23.674 Y-10.144 Z-8.412 B5. C=DC(0.)
X-23.674 Y-11.01 Z-8.48 B5. C=DC(0.)
X-23.674 Y-11.876 Z-8.556 B5. C=DC(0.)
X-23.674 Y-12.743 Z-8.638 B5. C=DC(0.)
X-23.674 Y-13.609 Z-8.728 B5. C=DC(0.)
X-23.674 Y-14.042 Z-8.776 B5. C=DC(0.)
X-23.674 Y-14.908 Z-8.874 B5. C=DC(0.)
X-23.674 Y-15.775 Z-8.977 B5. C=DC(0.)
X-23.674 Y-16.641 Z-9.087 B5. C=DC(0.)
X-23.674 Y-17.507 Z-9.201 B5. C=DC(0.)
X-23.674 Y-19.663 Z-9.511 B5. C=DC(0.),6
X-23.674 Y-20.522 Z-9.643 B5. C=DC(0.)
X-23.674 Y-20.952 Z-9.71 B5. C=DC(0.)
X-23.674 Y-21.812 Z-9.85 B5. C=DC(0.),8
X-23.674 Y-21.814 Z-9.85 B5. C=DC(0.),3
X-23.674 Y-28.169 Z-3.496 B5. C=DC(0.)
X-23.674 Y-28.497 Z-3.217 B5. C=DC(0.)
X-23.674 Y-28.684 Z-3.066 B5. C=DC(0.)
X-23.674 Y-28.872 Z-2.941 B5. C=DC(0.)
X-23.674 Y-29.256 Z-2.73 B5. C=DC(0.)
X-23.674 Y-29.463 Z-2.63 B5. C=DC(0.)
X-23.674 Y-30.09 Z-2.422 B5. C=DC(0.),6
X-23.674 Y-30.523 Z-2.342 B5. C=DC(0.)
X-23.674 Y-30.959 Z-2.301 B5. C=DC(0.)
X-23.674 Y-31.395 Z-2.298 B5. C=DC(0.)
X-23.674 Y-37.5 Z-2.298 B5. C=DC(0.),7
X-22.674 Y-37.5 Z-2.465 B5. C=DC(0.),7
X-22.674 Y-30.959 Z-2.465 B5. C=DC(0.)
X-22.674 Y-30.523 Z-2.492 B5. C=DC(0.)
X-22.674 Y-30.09 Z-2.548 B5. C=DC(0.)
X-22.674 Y-29.662 Z-2.668 B5. C=DC(0.)
X-22.674 Y-29.245 Z-2.819 B5. C=DC(0.)
X-22.674 Y-29.046 Z-2.921 B5. C=DC(0.)
X-22.674 Y-28.656 Z-3.138 B5. C=DC(0.)
X-22.674 Y-28.464 Z-3.273 B5. C=DC(0.)
X-22.674 Y-28.119 Z-3.558 B5. C=DC(0.)
X-22.674 Y-27.951 Z-3.713 B5. C=DC(0.)
X-22.674 Y-21.698 Z-9.966 B5. C=DC(0.),8
X-22.674 Y-21.696 Z-9.967 B5. C=DC(0.),3
X-22.674 Y-20.832 Z-9.864 B5. C=DC(0.)
X-22.674 Y-19.968 Z-9.767 B5. C=DC(0.)
X-22.674 Y-19.536 Z-9.72 B5. C=DC(0.)
X-22.674 Y-18.671 Z-9.631 B5. C=DC(0.)
X-22.674 Y-18.239 Z-9.589 B5. C=DC(0.)
X-22.674 Y-17.368 Z-9.509 B5. C=DC(0.)
X-22.674 Y-16.497 Z-9.437 B5. C=DC(0.)
X-22.674 Y-16.062 Z-9.404 B5. C=DC(0.)
X-22.674 Y-15.191 Z-9.344 B5. C=DC(0.)
X-22.674 Y-14.32 Z-9.287 B5. C=DC(0.)
X-22.674 Y-13.449 Z-9.242 B5. C=DC(0.)
X-22.674 Y-13.014 Z-9.223 B5. C=DC(0.)
X-22.674 Y-12.143 Z-9.194 B5. C=DC(0.)
X-22.674 Y-11.707 Z-9.184 B5. C=DC(0.)
X-22.674 Y-10.836 Z-9.168 B5. C=DC(0.)
X-22.674 Y-10.401 Z-9.164 B5. C=DC(0.)
X-22.674 Y-9.965 Z-9.164 B5. C=DC(0.)
X-22.674 Y37.5 Z-9.164 B5. C=DC(0.),7
X-21.674 Y37.5 Z-9.798 B5. C=DC(0.),7
X-21.674 Y23.553 Z-9.798 B5. C=DC(0.)
X-21.674 Y23.13 Z-9.823 B5. C=DC(0.)
X-21.674 Y22.707 Z-9.893 B5. C=DC(0.)
X-21.674 Y22.272 Z-9.992 B5. C=DC(0.),8
X-21.674 Y-21.671 Z-9.992 B5. C=DC(0.),8
X-21.674 Y-21.673 Z-9.991 B5. C=DC(0.),3
X-21.674 Y-27.755 Z-3.909 B5. C=DC(0.)
X-21.674 Y-27.923 Z-3.75 B5. C=DC(0.)
X-21.674 Y-28.273 Z-3.458 B5. C=DC(0.)
X-21.674 Y-28.456 Z-3.327 B5. C=DC(0.)
X-21.674 Y-28.832 Z-3.114 B5. C=DC(0.)
X-21.674 Y-29.036 Z-3.006 B5. C=DC(0.)
X-21.674 Y-29.239 Z-2.919 B5. C=DC(0.)
X-21.674 Y-30.087 Z-2.686 B5. C=DC(0.),6
X-21.674 Y-30.523 Z-2.641 B5. C=DC(0.)
X-21.674 Y-30.959 Z-2.631 B5. C=DC(0.)
X-21.674 Y-37.5 Z-2.631 B5. C=DC(0.),7
X-20.674 Y-37.5 Z-2.798 B5. C=DC(0.),7
X-20.674 Y-30.523 Z-2.799 B5. C=DC(0.)
X-20.674 Y-30.087 Z-2.835 B5. C=DC(0.)
X-20.674 Y-29.754 Z-2.905 B5. C=DC(0.)
X-20.674 Y-29.232 Z-3.031 B5. C=DC(0.)
X-20.674 Y-29.023 Z-3.105 B5. C=DC(0.)
X-20.674 Y-28.815 Z-3.199 B5. C=DC(0.)
X-20.674 Y-28.424 Z-3.411 B5. C=DC(0.)
X-20.674 Y-28.234 Z-3.531 B5. C=DC(0.)
X-20.674 Y-28.043 Z-3.676 B5. C=DC(0.)
X-20.674 Y-27.709 Z-3.958 B5. C=DC(0.)
X-20.674 Y-27.548 Z-4.116 B5. C=DC(0.)
X-20.674 Y-21.672 Z-9.992 B5. C=DC(0.),3
X-20.674 Y-21.67 Z-9.992 B5. C=DC(0.),8
X-20.674 Y22.063 Z-9.992 B5. C=DC(0.),8
X-20.674 Y22.461 Z-9.839 B5. C=DC(0.)
X-20.674 Y22.867 Z-9.727 B5. C=DC(0.)
X-20.674 Y23.285 Z-9.658 B5. C=DC(0.)
X-20.674 Y23.716 Z-9.632 B5. C=DC(0.)
X-20.674 Y37.5 Z-9.631 B5. C=DC(0.),7
X-19.674 Y37.5 Z-9.465 B5. C=DC(0.),7
X-19.674 Y23.923 Z-9.465 B5. C=DC(0.)
X-19.674 Y23.498 Z-9.486 B5. C=DC(0.)
X-19.674 Y23.074 Z-9.552 B5. C=DC(0.)
X-19.674 Y22.662 Z-9.661 B5. C=DC(0.)
X-19.674 Y22.271 Z-9.807 B5. C=DC(0.)
X-19.674 Y21.898 Z-9.992 B5. C=DC(0.),8
X-19.674 Y-21.671 Z-9.992 B5. C=DC(0.),8
X-19.674 Y-21.674 Z-9.99 B5. C=DC(0.),3
X-19.674 Y-27.498 Z-4.166 B5. C=DC(0.)
X-19.674 Y-27.667 Z-4.018 B5. C=DC(0.)
X-19.674 Y-27.844 Z-3.87 B5. C=DC(0.)
X-19.674 Y-28.021 Z-3.73 B5. C=DC(0.)
X-19.674 Y-28.213 Z-3.604 B5. C=DC(0.)
X-19.674 Y-28.706 Z-3.388 B5. C=DC(0.),1
X-19.674 Y-28.806 Z-3.292 B5. C=DC(0.)
X-19.674 Y-29.223 Z-3.149 B5. C=DC(0.)
X-19.674 Y-29.654 Z-3.036 B5. C=DC(0.)
X-19.674 Y-30.087 Z-2.985 B5. C=DC(0.)
X-19.674 Y-30.523 Z-2.965 B5. C=DC(0.)
X-19.674 Y-37.5 Z-2.965 B5. C=DC(0.),7
X-18.674 Y-37.5 Z-3.131 B5. C=DC(0.),7
X-18.674 Y-30.523 Z-3.131 B5. C=DC(0.)
X-18.674 Y-30.087 Z-3.136 B5. C=DC(0.)
X-18.674 Y-29.651 Z-3.178 B5. C=DC(0.)
X-18.674 Y-29.218 Z-3.266 B5. C=DC(0.)
X-18.674 Y-28.798 Z-3.397 B5. C=DC(0.)
X-18.674 Y-28.592 Z-3.48 B5. C=DC(0.)
X-18.674 Y-28.387 Z-3.582 B5. C=DC(0.)
X-18.674 Y-28.42 Z-3.582 B5. C=DC(0.),2
X-18.674 Y-28.006 Z-3.795 B5. C=DC(0.)
X-18.674 Y-27.82 Z-3.922 B5. C=DC(0.)
X-18.674 Y-27.633 Z-4.074 B5. C=DC(0.)
X-18.674 Y-27.306 Z-4.358 B5. C=DC(0.)
X-18.674 Y-21.672 Z-9.992 B5. C=DC(0.),8
X-18.674 Y-21.669 Z-9.992 B5. C=DC(0.),3
X-18.674 Y21.79 Z-9.992 B5. C=DC(0.),8
X-18.674 Y22.157 Z-9.776 B5. C=DC(0.)
X-18.674 Y22.541 Z-9.598 B5. C=DC(0.)
X-18.674 Y22.945 Z-9.459 B5. C=DC(0.)
X-18.674 Y23.361 Z-9.362 B5. C=DC(0.)
X-18.674 Y23.789 Z-9.309 B5. C=DC(0.)
X-18.674 Y24.218 Z-9.298 B5. C=DC(0.)
X-18.674 Y37.5 Z-9.298 B5. C=DC(0.),7
X-17.674 Y37.5 Z-9.131 B5. C=DC(0.),7
X-17.674 Y24.515 Z-9.131 B5. C=DC(0.)
X-17.674 Y24.082 Z-9.135 B5. C=DC(0.)
X-17.674 Y23.649 Z-9.175 B5. C=DC(0.)
X-17.674 Y23.23 Z-9.26 B5. C=DC(0.)
X-17.674 Y22.822 Z-9.387 B5. C=DC(0.)
X-17.674 Y22.436 Z-9.552 B5. C=DC(0.)
X-17.674 Y22.068 Z-9.757 B5. C=DC(0.)
X-17.674 Y21.724 Z-9.992 B5. C=DC(0.),8
X-17.674 Y-21.67 Z-9.992 B5. C=DC(0.),8
X-17.674 Y-21.672 Z-9.992 B5. C=DC(0.),3
X-17.674 Y-27.087 Z-4.577 B5. C=DC(0.)
X-17.674 Y-27.252 Z-4.42 B5. C=DC(0.)
X-17.674 Y-27.596 Z-4.133 B5. C=DC(0.)
X-17.674 Y-27.789 Z-3.993 B5. C=DC(0.)
X-17.674 Y-27.982 Z-3.88 B5. C=DC(0.)
X-17.674 Y-27.99 Z-3.88 B5. C=DC(0.),3
X-17.674 Y-28.179 Z-3.772 B5. C=DC(0.)
X-17.674 Y-28.376 Z-3.669 B5. C=DC(0.)
X-17.674 Y-28.793 Z-3.512 B5. C=DC(0.)
X-17.674 Y-29.218 Z-3.39 B5. C=DC(0.)
X-17.674 Y-29.651 Z-3.328 B5. C=DC(0.)
X-17.674 Y-30.087 Z-3.298 B5. C=DC(0.)
X-17.674 Y-37.5 Z-3.298 B5. C=DC(0.),7
X-16.674 Y-37.5 Z-3.465 B5. C=DC(0.),7
X-16.674 Y-30.087 Z-3.465 B5. C=DC(0.)
X-16.674 Y-29.651 Z-3.477 B5. C=DC(0.)
X-16.674 Y-29.218 Z-3.525 B5. C=DC(0.)
X-16.674 Y-28.787 Z-3.629 B5. C=DC(0.)
X-16.674 Y-28.373 Z-3.765 B5. C=DC(0.)
X-16.674 Y-28.17 Z-3.855 B5. C=DC(0.)
X-16.674 Y-27.967 Z-3.965 B5. C=DC(0.)
X-16.674 Y-27.59 Z-4.181 B5. C=DC(0.)
X-16.674 Y-27.411 Z-4.314 B5. C=DC(0.)
X-16.674 Y-27.062 Z-4.607 B5. C=DC(0.)
X-16.674 Y-26.894 Z-4.77 B5. C=DC(0.)
X-16.674 Y-21.673 Z-9.991 B5. C=DC(0.),3
X-16.674 Y-21.67 Z-9.992 B5. C=DC(0.),8
X-16.674 Y21.688 Z-9.992 B5. C=DC(0.),8
X-16.674 Y22.019 Z-9.732 B5. C=DC(0.)
X-16.674 Y22.371 Z-9.509 B5. C=DC(0.)
X-16.674 Y22.749 Z-9.317 B5. C=DC(0.)
X-16.674 Y23.148 Z-9.167 B5. C=DC(0.)
X-16.674 Y23.558 Z-9.055 B5. C=DC(0.)
X-16.674 Y23.98 Z-8.989 B5. C=DC(0.)
X-16.674 Y24.403 Z-8.965 B5. C=DC(0.)
X-16.674 Y37.5 Z-8.965 B5. C=DC(0.),7
X-15.674 Y37.5 Z-8.798 B5. C=DC(0.),7
X-15.674 Y24.727 Z-8.798 B5. C=DC(0.)
X-15.674 Y24.301 Z-8.809 B5. C=DC(0.)
X-15.674 Y23.876 Z-8.86 B5. C=DC(0.)
X-15.674 Y23.463 Z-8.954 B5. C=DC(0.)
X-15.674 Y23.062 Z-9.09 B5. C=DC(0.)
X-15.674 Y22.682 Z-9.263 B5. C=DC(0.)
X-15.674 Y22.32 Z-9.473 B5. C=DC(0.)
X-15.674 Y21.983 Z-9.718 B5. C=DC(0.)
X-15.674 Y21.671 Z-9.992 B5. C=DC(0.),8
X-15.674 Y-21.669 Z-9.992 B5. C=DC(0.),8
X-15.674 Y-21.672 Z-9.992 B5. C=DC(0.),3
X-15.674 Y-26.688 Z-4.976 B5. C=DC(0.)
X-15.674 Y-26.846 Z-4.819 B5. C=DC(0.)
X-15.674 Y-27.178 Z-4.535 B5. C=DC(0.)
X-15.674 Y-27.367 Z-4.388 B5. C=DC(0.)
X-15.674 Y-27.370 Z-4.388 B5. C=DC(0.),3
X-15.674 Y-27.556 Z-4.265 B5. C=DC(0.)
X-15.674 Y-27.946 Z-4.05 B5. C=DC(0.)
X-15.674 Y-28.153 Z-3.953 B5. C=DC(0.)
X-15.674 Y-28.36 Z-3.876 B5. C=DC(0.)
X-15.674 Y-28.782 Z-3.748 B5. C=DC(0.)
X-15.674 Y-29.215 Z-3.671 B5. C=DC(0.)
X-15.674 Y-29.651 Z-3.633 B5. C=DC(0.)
X-15.674 Y-30.087 Z-3.631 B5. C=DC(0.)
X-15.674 Y-37.5 Z-3.631 B5. C=DC(0.),7
X-14.674 Y-37.5 Z-3.798 B5. C=DC(0.),7
X-14.674 Y-29.651 Z-3.798 B5. C=DC(0.)
X-14.674 Y-29.215 Z-3.821 B5. C=DC(0.)
X-14.674 Y-28.782 Z-3.877 B5. C=DC(0.)
X-14.674 Y-28.354 Z-3.993 B5. C=DC(0.)
X-14.674 Y-28.32 Z-3.993 B5. C=DC(0.),3
X-14.674 Y-27.937 Z-4.141 B5. C=DC(0.)
X-14.674 Y-27.738 Z-4.238 B5. C=DC(0.)
X-14.674 Y-27.346 Z-4.457 B5. C=DC(0.)
X-14.674 Y-27.154 Z-4.588 B5. C=DC(0.)
X-14.674 Y-26.979 Z-4.729 B5. C=DC(0.)
X-14.674 Y-26.804 Z-4.876 B5. C=DC(0.)
X-14.674 Y-26.636 Z-5.028 B5. C=DC(0.)
X-14.674 Y-21.673 Z-9.991 B5. C=DC(0.),3
X-14.674 Y-21.67 Z-9.992 B5. C=DC(0.),8
X-14.674 Y21.671 Z-9.992 B5. C=DC(0.),8
X-14.674 Y21.977 Z-9.699 B5. C=DC(0.)
X-14.674 Y22.3 Z-9.435 B5. C=DC(0.)
X-14.674 Y22.654 Z-9.205 B5. C=DC(0.)
X-14.674 Y23.025 Z-9.01 B5. C=DC(0.)
X-14.674 Y23.416 Z-8.855 B5. C=DC(0.)
X-14.674 Y23.83 Z-8.736 B5. C=DC(0.)
X-14.674 Y24.245 Z-8.665 B5. C=DC(0.)
X-14.674 Y24.672 Z-8.633 B5. C=DC(0.)
X-14.674 Y25.1 Z-8.631 B5. C=DC(0.)
X-14.674 Y37.5 Z-8.631 B5. C=DC(0.),7
X-13.674 Y37.5 Z-8.465 B5. C=DC(0.),7
X-13.674 Y25.037 Z-8.465 B5. C=DC(0.)
X-13.674 Y24.608 Z-8.478 B5. C=DC(0.)
X-13.674 Y24.178 Z-8.532 B5. C=DC(0.)
X-13.674 Y23.762 Z-8.631 B5. C=DC(0.)
X-13.674 Y23.358 Z-8.771 B5. C=DC(0.)
X-13.674 Y22.975 Z-8.951 B5. C=DC(0.)
X-13.674 Y22.612 Z-9.167 B5. C=DC(0.)
X-13.674 Y22.281 Z-9.413 B5. C=DC(0.)
X-13.674 Y21.977 Z-9.687 B5. C=DC(0.)
X-13.674 Y21.671 Z-9.992 B5. C=DC(0.),8
X-13.674 Y-21.669 Z-9.992 B5. C=DC(0.),8
X-13.674 Y-21.672 Z-9.992 B5. C=DC(0.),3
X-13.674 Y-26.445 Z-5.218 B5. C=DC(0.)
X-13.674 Y-26.77 Z-4.932 B5. C=DC(0.)
X-13.674 Y-26.954 Z-4.78 B5. C=DC(0.)
X-13.674 Y-27.137 Z-4.65 B5. C=DC(0.)
X-13.674 Y-27.518 Z-4.434 B5. C=DC(0.)
X-13.674 Y-27.722 Z-4.33 B5. C=DC(0.)
X-13.674 Y-27.926 Z-4.244 B5. C=DC(0.)
X-13.674 Y-28.346 Z-4.11 B5. C=DC(0.)
X-13.674 Y-28.779 Z-4.016 B5. C=DC(0.)
X-13.674 Y-29.215 Z-3.972 B5. C=DC(0.)
X-13.674 Y-29.651 Z-3.965 B5. C=DC(0.)
X-13.674 Y-37.5 Z-3.965 B5. C=DC(0.),7
X-12.674 Y-37.5 Z-4.131 B5. C=DC(0.),7
X-12.674 Y-29.215 Z-4.132 B5. C=DC(0.)
X-12.674 Y-28.779 Z-4.165 B5. C=DC(0.)
X-12.674 Y-28.346 Z-4.232 B5. C=DC(0.)

X-12.674 Y-27.713 Z-4.429 B5. C=DC(0.),6
X-12.674 Y-27.504 Z-4.52 B5. C=DC(0.)
X-12.674 Y-27.113 Z-4.733 B5. C=DC(0.)
X-12.674 Y-26.92 Z-4.85 B5. C=DC(0.)
X-12.674 Y-26.728 Z-4.993 B5. C=DC(0.)
X-12.674 Y-26.387 Z-5.282 B5. C=DC(0.)
X-12.674 Y-26.224 Z-5.44 B5. C=DC(0.)
X-12.674 Y-21.673 Z-9.991 B5. C=DC(0.),3
X-12.674 Y-21.67 Z-9.992 B5. C=DC(0.),8
X-12.674 Y21.671 Z-9.992 B5. C=DC(0.),8
X-12.674 Y21.977 Z-9.687 B5. C=DC(0.)
X-12.674 Y22.281 Z-9.394 B5. C=DC(0.)
X-12.674 Y22.598 Z-9.128 B5. C=DC(0.)
X-12.674 Y22.945 Z-8.899 B5. C=DC(0.)
X-12.674 Y23.309 Z-8.7 B5. C=DC(0.)
X-12.674 Y23.692 Z-8.54 B5. C=DC(0.)
X-12.674 Y24.098 Z-8.418 B5. C=DC(0.)
X-12.674 Y24.517 Z-8.338 B5. C=DC(0.)
X-12.674 Y24.95 Z-8.301 B5. C=DC(0.)
X-12.674 Y25.383 Z-8.298 B5. C=DC(0.)
X-12.674 Y37.5 Z-8.298 B5. C=DC(0.),7
X-11.674 Y37.5 Z-8.131 B5. C=DC(0.),7
X-11.674 Y25.286 Z-8.131 B5. C=DC(0.)
X-11.674 Y24.865 Z-8.151 B5. C=DC(0.)
X-11.674 Y24.444 Z-8.211 B5. C=DC(0.)
X-11.674 Y24.036 Z-8.316 B5. C=DC(0.)
X-11.674 Y23.64 Z-8.459 B5. C=DC(0.)
X-11.674 Y23.265 Z-8.642 B5. C=DC(0.)
X-11.674 Y22.91 Z-8.858 B5. C=DC(0.)
X-11.674 Y22.585 Z-9.105 B5. C=DC(0.)
X-11.674 Y22.281 Z-9.383 B5. C=DC(0.)
X-11.674 Y21.672 Z-9.992 B5. C=DC(0.),8
X-11.674 Y21.67 Z-9.992 B5. C=DC(0.),3
X-11.674 Y-21.671 Z-9.992 B5. C=DC(0.),8
X-11.674 Y-21.674 Z-9.99 B5. C=DC(0.),3
X-11.674 Y-26.027 Z-5.637 B5. C=DC(0.)
X-11.674 Y-26.196 Z-5.47 B5. C=DC(0.)
X-11.674 Y-26.543 Z-5.174 B5. C=DC(0.)
X-11.674 Y-26.722 Z-5.039 B5. C=DC(0.)
X-11.674 Y-27.095 Z-4.819 B5. C=DC(0.)
X-11.674 Y-27.297 Z-4.707 B5. C=DC(0.)
X-11.674 Y-27.30 Z-4.707 B5. C=DC(0.),3
X-11.674 Y-27.499 Z-4.615 B5. C=DC(0.)
X-11.674 Y-27.916 Z-4.474 B5. C=DC(0.)
X-11.674 Y-28.346 Z-4.365 B5. C=DC(0.)
X-11.674 Y-28.779 Z-4.313 B5. C=DC(0.)
X-11.674 Y-29.215 Z-4.298 B5. C=DC(0.)
X-11.674 Y-37.5 Z-4.298 B5. C=DC(0.),7
X-10.674 Y-37.5 Z-4.465 B5. C=DC(0.),7
X-10.674 Y-29.215 Z-4.465 B5. C=DC(0.)
X-10.674 Y-28.779 Z-4.468 B5. C=DC(0.)
X-10.674 Y-28.343 Z-4.508 B5. C=DC(0.)
X-10.674 Y-27.91 Z-4.592 B5. C=DC(0.)
X-10.674 Y-27.491 Z-4.721 B5. C=DC(0.)
X-10.674 Y-27.285 Z-4.801 B5. C=DC(0.)
X-10.674 Y-27.079 Z-4.9 B5. C=DC(0.)
X-10.674 Y-26.693 Z-5.116 B5. C=DC(0.)
X-10.674 Y-26.506 Z-5.241 B5. C=DC(0.)
X-10.674 Y-26.319 Z-5.388 B5. C=DC(0.)
X-10.674 Y-25.989 Z-5.676 B5. C=DC(0.)
X-10.674 Y-21.673 Z-9.991 B5. C=DC(0.),3
X-10.674 Y-21.671 Z-9.992 B5. C=DC(0.),8
X-10.674 Y21.671 Z-9.992 B5. C=DC(0.),8
X-10.674 Y21.672 Z-9.992 B5. C=DC(0.),3
X-10.674 Y22.281 Z-9.383 B5. C=DC(0.)
X-10.674 Y22.585 Z-9.087 B5. C=DC(0.)
X-10.674 Y22.91 Z-8.812 B5. C=DC(0.)
X-10.674 Y23.249 Z-8.583 B5. C=DC(0.)
X-10.674 Y23.624 Z-8.375 B5. C=DC(0.)
X-10.674 Y24.009 Z-8.213 B5. C=DC(0.)
X-10.674 Y24.418 Z-8.088 B5. C=DC(0.)
X-10.674 Y24.84 Z-8.006 B5. C=DC(0.)
X-10.674 Y25.262 Z-7.968 B5. C=DC(0.)
X-10.674 Y25.699 Z-7.965 B5. C=DC(0.)
X-10.674 Y37.5 Z-7.965 B5. C=DC(0.),7
X-9.674 Y37.5 Z-7.798 B5. C=DC(0.),7
X-9.674 Y25.607 Z-7.798 B5. C=DC(0.)
X-9.674 Y25.183 Z-7.82 B5. C=DC(0.)
X-9.674 Y24.758 Z-7.881 B5. C=DC(0.)
X-9.674 Y24.347 Z-7.991 B5. C=DC(0.)
X-9.674 Y23.948 Z-8.136 B5. C=DC(0.)
X-9.674 Y23.572 Z-8.325 B5. C=DC(0.)
X-9.674 Y23.215 Z-8.544 B5. C=DC(0.)
X-9.674 Y22.89 Z-8.798 B5. C=DC(0.)
X-9.674 Y22.586 Z-9.078 B5. C=DC(0.)
X-9.674 Y21.672 Z-9.991 B5. C=DC(0.),3
X-9.674 Y21.671 Z-9.992 B5. C=DC(0.),8
X-9.674 Y-4.133 Z-9.992 B5. C=DC(0.),8
X-9.674 Y-4.288 Z-9.945 B5. C=DC(0.)
X-9.674 Y-4.723 Z-9.911 B5. C=DC(0.)
X-9.674 Y-5.139 Z-9.992 B5. C=DC(0.),8
X-9.674 Y-21.67 Z-9.992 B5. C=DC(0.),8
X-9.674 Y-21.672 Z-9.992 B5. C=DC(0.),3
X-9.674 Y-25.771 Z-5.893 B5. C=DC(0.)
X-9.674 Y-25.938 Z-5.737 B5. C=DC(0.)
X-9.674 Y-26.283 Z-5.449 B5. C=DC(0.)
X-9.674 Y-26.475 Z-5.314 B5. C=DC(0.)
X-9.674 Y-26.866 Z-5.091 B5. C=DC(0.)
X-9.674 Y-27.066 Z-4.991 B5. C=DC(0.)
X-9.674 Y-27.482 Z-4.837 B5. C=DC(0.)
X-9.674 Y-27.91 Z-4.718 B5. C=DC(0.)
X-9.674 Y-28.343 Z-4.658 B5. C=DC(0.)
X-9.674 Y-28.779 Z-4.631 B5. C=DC(0.)
X-9.674 Y-37.5 Z-4.631 B5. C=DC(0.),7
X-8.674 Y-37.5 Z-4.798 B5. C=DC(0.),7
X-8.674 Y-28.779 Z-4.798 B5. C=DC(0.)
X-8.674 Y-28.343 Z-4.808 B5. C=DC(0.)
X-8.674 Y-27.907 Z-4.855 B5. C=DC(0.)
X-8.674 Y-27.477 Z-4.953 B5. C=DC(0.)
X-8.674 Y-27.06 Z-5.09 B5. C=DC(0.)
X-8.674 Y-26.957 Z-5.177 B5. C=DC(0.),1
X-8.674 Y-26.654 Z-5.283 B5. C=DC(0.)
X-8.674 Y-26.275 Z-5.503 B5. C=DC(0.)
X-8.674 Y-26.093 Z-5.634 B5. C=DC(0.)
X-8.674 Y-25.912 Z-5.785 B5. C=DC(0.)
X-8.674 Y-25.587 Z-6.077 B5. C=DC(0.)
X-8.674 Y-21.673 Z-9.991 B5. C=DC(0.),3
X-8.674 Y-21.671 Z-9.992 B5. C=DC(0.),8
X-8.674 Y-6.11 Z-9.992 B5. C=DC(0.),8
X-8.674 Y-5.836 Z-9.681 B5. C=DC(0.)
X-8.674 Y-5.532 Z-9.397 B5. C=DC(0.)
X-8.674 Y-5.199 Z-9.147 B5. C=DC(0.)
X-8.674 Y-4.834 Z-8.944 B5. C=DC(0.)
X-8.674 Y-4.438 Z-8.803 B5. C=DC(0.)
X-8.674 Y-4.015 Z-8.752 B5. C=DC(0.)
X-8.674 Y-3.578 Z-8.83 B5. C=DC(0.)
X-8.674 Y-3.372 Z-8.927 B5. C=DC(0.)
X-8.674 Y-3.167 Z-9.078 B5. C=DC(0.)
X-8.674 Y-3.006 Z-9.237 B5. C=DC(0.)
X-8.674 Y-2.252 Z-9.99 B5. C=DC(0.),3
X-8.674 Y-2.25 Z-9.992 B5. C=DC(0.),8
X-8.674 Y21.671 Z-9.992 B5. C=DC(0.),8
X-8.674 Y21.672 Z-9.992 B5. C=DC(0.),3
X-8.674 Y22.586 Z-9.078 B5. C=DC(0.)
X-8.674 Y22.89 Z-8.779 B5. C=DC(0.)
X-8.674 Y23.215 Z-8.501 B5. C=DC(0.)
X-8.674 Y23.555 Z-8.265 B5. C=DC(0.)
X-8.674 Y23.932 Z-8.055 B5. C=DC(0.)
X-8.674 Y24.319 Z-7.888 B5. C=DC(0.)
X-8.674 Y24.719 Z-7.763 B5. C=DC(0.)
X-8.674 Y25.131 Z-7.679 B5. C=DC(0.)
X-8.674 Y25.558 Z-7.636 B5. C=DC(0.)
X-8.674 Y25.984 Z-7.631 B5. C=DC(0.)
X-8.674 Y37.5 Z-7.631 B5. C=DC(0.),7
X-7.674 Y37.5 Z-7.465 B5. C=DC(0.),7
X-7.674 Y25.889 Z-7.465 B5. C=DC(0.)
X-7.674 Y25.459 Z-7.494 B5. C=DC(0.)
X-7.674 Y25.043 Z-7.559 B5. C=DC(0.)
X-7.674 Y24.628 Z-7.675 B5. C=DC(0.)
X-7.674 Y24.238 Z-7.822 B5. C=DC(0.)
X-7.674 Y23.87 Z-8.012 B5. C=DC(0.)
X-7.674 Y23.52 Z-8.231 B5. C=DC(0.)
X-7.674 Y23.195 Z-8.489 B5. C=DC(0.)
X-7.674 Y22.891 Z-8.773 B5. C=DC(0.)
X-7.674 Y21.673 Z-9.991 B5. C=DC(0.)
X-7.674 Y21.671 Z-9.992 B5. C=DC(0.),8
X-7.674 Y-.517 Z-9.992 B5. C=DC(0.),8
X-7.674 Y-.519 Z-9.991 B5. C=DC(0.)
X-7.674 Y-2.46 Z-8.05 B5. C=DC(0.)
X-7.674 Y-2.628 Z-7.89 B5. C=DC(0.)
X-7.674 Y-2.834 Z-7.75 B5. C=DC(0.)
X-7.674 Y-3.041 Z-7.661 B5. C=DC(0.)
X-7.674 Y-3.477 Z-7.598 B5. C=DC(0.)
X-7.674 Y-3.9 Z-7.659 B5. C=DC(0.)
X-7.674 Y-4.294 Z-7.806 B5. C=DC(0.)
X-7.674 Y-4.654 Z-8.014 B5. C=DC(0.)
X-7.674 Y-4.984 Z-8.267 B5. C=DC(0.)
X-7.674 Y-5.283 Z-8.552 B5. C=DC(0.)
X-7.674 Y-5.554 Z-8.865 B5. C=DC(0.)
X-7.674 Y-5.795 Z-9.199 B5. C=DC(0.)
X-7.674 Y-6.008 Z-9.547 B5. C=DC(0.)
X-7.674 Y-6.116 Z-9.753 B5. C=DC(0.)
X-7.674 Y-6.237 Z-9.992 B5. C=DC(0.),8
X-7.674 Y-21.67 Z-9.992 B5. C=DC(0.),8
X-7.674 Y-21.673 Z-9.991 B5. C=DC(0.),3
X-7.674 Y-25.366 Z-6.298 B5. C=DC(0.)
X-7.674 Y-25.526 Z-6.14 B5. C=DC(0.)
X-7.674 Y-25.865 Z-5.849 B5. C=DC(0.)
X-7.674 Y-26.054 Z-5.706 B5. C=DC(0.)
X-7.674 Y-26.244 Z-5.586 B5. C=DC(0.)
X-7.674 Y-26.633 Z-5.372 B5. C=DC(0.)
X-7.674 Y-26.233 Z-5.372 B5. C=DC(0.),2
X-7.674 Y-26.841 Z-5.278 B5. C=DC(0.)
X-7.674 Y-27.049 Z-5.201 B5. C=DC(0.)
X-7.674 Y-27.474 Z-5.075 B5. C=DC(0.)
X-7.674 Y-27.907 Z-5.001 B5. C=DC(0.)
X-7.674 Y-28.343 Z-4.966 B5. C=DC(0.)
X-7.674 Y-28.779 Z-4.965 B5. C=DC(0.)
X-7.674 Y-37.5 Z-4.965 B5. C=DC(0.),7
X-6.674 Y-37.5 Z-5.131 B5. C=DC(0.),7
X-6.674 Y-28.343 Z-5.131 B5. C=DC(0.)
X-6.674 Y-27.907 Z-5.15 B5. C=DC(0.)
X-6.674 Y-27.474 Z-5.205 B5. C=DC(0.)
X-6.674 Y-27.044 Z-5.318 B5. C=DC(0.)
X-6.674 Y-26.627 Z-5.464 B5. C=DC(0.)
X-6.674 Y-26.427 Z-5.559 B5. C=DC(0.)
X-6.674 Y-26.226 Z-5.671 B5. C=DC(0.)
X-6.674 Y-25.854 Z-5.897 B5. C=DC(0.)
X-6.674 Y-25.676 Z-6.034 B5. C=DC(0.)
X-6.674 Y-25.498 Z-6.187 B5. C=DC(0.)
X-6.674 Y-25.329 Z-6.335 B5. C=DC(0.)
X-6.674 Y-21.674 Z-9.99 B5. C=DC(0.),3
X-6.674 Y-21.671 Z-9.992 B5. C=DC(0.),8
X-6.674 Y-6.236 Z-9.992 B5. C=DC(0.),8
X-6.674 Y-6.234 Z-9.989 B5. C=DC(0.),3
X-6.674 Y-5.618 Z-8.757 B5. C=DC(0.)
X-6.674 Y-5.423 Z-8.38 B5. C=DC(0.)
X-6.674 Y-5.21 Z-8.032 B5. C=DC(0.)
X-6.674 Y-4.967 Z-7.699 B5. C=DC(0.)
X-6.674 Y-4.695 Z-7.386 B5. C=DC(0.)
X-6.674 Y-4.393 Z-7.101 B5. C=DC(0.)
X-6.674 Y-4.061 Z-6.849 B5. C=DC(0.)
X-6.674 Y-3.699 Z-6.644 B5. C=DC(0.)
X-6.674 Y-3.307 Z-6.5 B5. C=DC(0.)
X-6.674 Y-2.886 Z-6.443 B5. C=DC(0.)
X-6.674 Y-2.452 Z-6.51 B5. C=DC(0.)
X-6.674 Y-2.246 Z-6.601 B5. C=DC(0.)
X-6.674 Y-2.04 Z-6.744 B5. C=DC(0.)
X-6.674 Y-1.874 Z-6.905 B5. C=DC(0.)
X-6.674 Y1.213 Z-9.992 B5. C=DC(0.),3
X-6.674 Y1.215 Z-9.992 B5. C=DC(0.),8
X-6.674 Y21.672 Z-9.992 B5. C=DC(0.),8
X-6.674 Y22.889 Z-8.775 B5. C=DC(0.)
X-6.674 Y23.194 Z-8.472 B5. C=DC(0.)
X-6.674 Y23.511 Z-8.196 B5. C=DC(0.)
X-6.674 Y23.853 Z-7.953 B5. C=DC(0.)
X-6.674 Y24.221 Z-7.744 B5. C=DC(0.)
X-6.674 Y24.601 Z-7.574 B5. C=DC(0.)
X-6.674 Y25.004 Z-7.444 B5. C=DC(0.)
X-6.674 Y25.421 Z-7.352 B5. C=DC(0.)
X-6.674 Y25.852 Z-7.306 B5. C=DC(0.)
X-6.674 Y26.283 Z-7.298 B5. C=DC(0.)
X-6.674 Y37.5 Z-7.298 B5. C=DC(0.),7
X-5.674 Y37.5 Z-7.131 B5. C=DC(0.),7
X-5.674 Y26.191 Z-7.132 B5. C=DC(0.)
X-5.674 Y25.756 Z-7.165 B5. C=DC(0.)
X-5.674 Y25.336 Z-7.234 B5. C=DC(0.)
X-5.674 Y24.931 Z-7.351 B5. C=DC(0.)
X-5.674 Y24.538 Z-7.504 B5. C=DC(0.)
X-5.674 Y24.168 Z-7.701 B5. C=DC(0.)
X-5.674 Y23.817 Z-7.923 B5. C=DC(0.)
X-5.674 Y23.498 Z-8.184 B5. C=DC(0.)
X-5.674 Y23.194 Z-8.47 B5. C=DC(0.)
X-5.674 Y21.672 Z-9.992 B5. C=DC(0.),8
X-5.674 Y21.67 Z-9.992 B5. C=DC(0.),3
X-5.674 Y2.947 Z-9.992 B5. C=DC(0.),8
X-5.674 Y2.944 Z-9.991 B5. C=DC(0.)
X-5.674 Y-1.282 Z-5.765 B5. C=DC(0.)
X-5.674 Y-1.445 Z-5.605 B5. C=DC(0.)
X-5.674 Y-1.65 Z-5.457 B5. C=DC(0.)
X-5.674 Y-1.855 Z-5.362 B5. C=DC(0.)
X-5.674 Y-2.292 Z-5.288 B5. C=DC(0.)
X-5.674 Y-2.716 Z-5.342 B5. C=DC(0.)
X-5.674 Y-3.11 Z-5.483 B5. C=DC(0.)
X-5.674 Y-3.473 Z-5.687 B5. C=DC(0.)
X-5.674 Y-3.806 Z-5.937 B5. C=DC(0.)
X-5.674 Y-4.107 Z-6.221 B5. C=DC(0.)
X-5.674 Y-4.379 Z-6.531 B5. C=DC(0.)
X-5.674 Y-4.623 Z-6.863 B5. C=DC(0.)
X-5.674 Y-4.838 Z-7.211 B5. C=DC(0.)
X-5.674 Y-5.033 Z-7.586 B5. C=DC(0.)
X-5.674 Y-6.236 Z-9.992 B5. C=DC(0.),8
X-5.674 Y-6.238 Z-9.992 B5. C=DC(0.),3
X-5.674 Y-21.671 Z-9.992 B5. C=DC(0.),8
X-5.674 Y-21.674 Z-9.99 B5. C=DC(0.),3
X-5.674 Y-25.125 Z-6.539 B5. C=DC(0.)
X-5.674 Y-25.456 Z-6.246 B5. C=DC(0.)
X-5.674 Y-25.641 Z-6.097 B5. C=DC(0.)
X-5.674 Y-25.827 Z-5.969 B5. C=DC(0.)
X-5.674 Y-26.21 Z-5.751 B5. C=DC(0.)
X-5.674 Y-26.415 Z-5.651 B5. C=DC(0.)
X-5.674 Y-26.619 Z-5.568 B5. C=DC(0.)
X-5.674 Y-27.038 Z-5.435 B5. C=DC(0.)
X-5.674 Y-27.471 Z-5.345 B5. C=DC(0.)
X-5.674 Y-27.907 Z-5.303 B5. C=DC(0.)
X-5.674 Y-28.343 Z-5.298 B5. C=DC(0.)
X-5.674 Y-37.5 Z-5.298 B5. C=DC(0.),7
X-4.674 Y-37.5 Z-5.465 B5. C=DC(0.),7
X-4.674 Y-27.907 Z-5.465 B5. C=DC(0.)
X-4.674 Y-27.471 Z-5.494 B5. C=DC(0.)
X-4.674 Y-27.038 Z-5.56 B5. C=DC(0.)
X-4.674 Y-26.613 Z-5.681 B5. C=DC(0.)
X-4.674 Y-26.197 Z-5.841 B5. C=DC(0.)
X-4.674 Y-25.999 Z-5.942 B5. C=DC(0.)
X-4.674 Y-25.801 Z-6.054 B5. C=DC(0.)
X-4.674 Y-25.609 Z-6.168 B5. C=DC(0.)
X-4.674 Y-25.418 Z-6.307 B5. C=DC(0.)
X-4.674 Y-25.074 Z-6.597 B5. C=DC(0.)
X-4.674 Y-24.91 Z-6.754 B5. C=DC(0.)
X-4.674 Y-21.672 Z-9.992 B5. C=DC(0.),3
X-4.674 Y-21.67 Z-9.992 B5. C=DC(0.),8
X-4.674 Y-6.236 Z-9.992 B5. C=DC(0.),8
X-4.674 Y-6.235 Z-9.99 B5. C=DC(0.),3
X-4.674 Y-4.446 Z-6.413 B5. C=DC(0.)
X-4.674 Y-4.251 Z-6.04 B5. C=DC(0.)
X-4.674 Y-4.035 Z-5.692 B5. C=DC(0.)
X-4.674 Y-3.79 Z-5.362 B5. C=DC(0.)
X-4.674 Y-3.517 Z-5.053 B5. C=DC(0.)
X-4.674 Y-3.213 Z-4.77 B5. C=DC(0.)
X-4.674 Y-2.879 Z-4.522 B5. C=DC(0.)
X-4.674 Y-2.516 Z-4.321 B5. C=DC(0.)
X-4.674 Y-2.119 Z-4.182 B5. C=DC(0.)
X-4.674 Y-1.698 Z-4.134 B5. C=DC(0.)
X-4.674 Y-1.262 Z-4.213 B5. C=DC(0.)
X-4.674 Y-1.058 Z-4.311 B5. C=DC(0.)
X-4.674 Y-.854 Z-4.462 B5. C=DC(0.)
X-4.674 Y-.693 Z-4.621 B5. C=DC(0.)
X-4.674 Y4.676 Z-9.991 B5. C=DC(0.),3
X-4.674 Y4.678 Z-9.992 B5. C=DC(0.),8
X-4.674 Y21.671 Z-9.992 B5. C=DC(0.),8
X-4.674 Y21.673 Z-9.991 B5. C=DC(0.),3
X-4.674 Y23.499 Z-8.165 B5. C=DC(0.)
X-4.674 Y23.81 Z-7.891 B5. C=DC(0.)
X-4.674 Y24.144 Z-7.646 B5. C=DC(0.)
X-4.674 Y24.505 Z-7.437 B5. C=DC(0.)
X-4.674 Y24.887 Z-7.259 B5. C=DC(0.)
X-4.674 Y25.294 Z-7.123 B5. C=DC(0.)
X-4.674 Y25.701 Z-7.028 B5. C=DC(0.)
X-4.674 Y26.122 Z-6.977 B5. C=DC(0.)
X-4.674 Y26.544 Z-6.965 B5. C=DC(0.)
X-4.674 Y37.5 Z-6.965 B5. C=DC(0.),7
X-3.674 Y37.5 Z-6.798 B5. C=DC(0.),7
X-3.674 Y26.923 Z-6.798 B5. C=DC(0.)
X-3.674 Y26.5 Z-6.799 B5. C=DC(0.)
X-3.674 Y26.077 Z-6.833 B5. C=DC(0.)
X-3.674 Y25.654 Z-6.905 B5. C=DC(0.)
X-3.674 Y25.246 Z-7.024 B5. C=DC(0.)
X-3.674 Y24.85 Z-7.18 B5. C=DC(0.)
X-3.674 Y24.489 Z-7.376 B5. C=DC(0.)
X-3.674 Y24.137 Z-7.599 B5. C=DC(0.)
X-3.674 Y23.803 Z-7.877 B5. C=DC(0.)
X-3.674 Y23.499 Z-8.165 B5. C=DC(0.)
X-3.674 Y21.673 Z-9.991 B5. C=DC(0.),3
X-3.674 Y21.671 Z-9.992 B5. C=DC(0.),8
X-3.674 Y6.412 Z-9.992 B5. C=DC(0.),8
X-3.674 Y6.409 Z-9.992 B5. C=DC(0.),3
X-3.674 Y-.104 Z-3.479 B5. C=DC(0.)
X-3.674 Y-.262 Z-3.321 B5. C=DC(0.)
X-3.674 Y-.465 Z-3.165 B5. C=DC(0.)
X-3.674 Y-.668 Z-3.065 B5. C=DC(0.)
X-3.674 Y-1.102 Z-2.979 B5. C=DC(0.)
X-3.674 Y-1.526 Z-3.024 B5. C=DC(0.)
X-3.674 Y-1.924 Z-3.16 B5. C=DC(0.)
X-3.674 Y-2.289 Z-3.359 B5. C=DC(0.)
X-3.674 Y-2.624 Z-3.605 B5. C=DC(0.)
X-3.674 Y-2.928 Z-3.886 B5. C=DC(0.),6
X-3.674 Y-3.45 Z-4.526 B5. C=DC(0.)
X-3.674 Y-3.666 Z-4.872 B5. C=DC(0.)
X-3.674 Y-3.861 Z-5.243 B5. C=DC(0.)
X-3.674 Y-6.235 Z-9.991 B5. C=DC(0.),3
X-3.674 Y-6.237 Z-9.992 B5. C=DC(0.),8
X-3.674 Y-21.67 Z-9.992 B5. C=DC(0.),8
X-3.674 Y-21.672 Z-9.992 B5. C=DC(0.),3
X-3.674 Y-24.724 Z-6.94 B5. C=DC(0.)
X-3.674 Y-25.046 Z-6.645 B5. C=DC(0.)
X-3.674 Y-25.225 Z-6.494 B5. C=DC(0.)
X-3.674 Y-25.404 Z-6.362 B5. C=DC(0.)
X-3.674 Y-25.783 Z-6.137 B5. C=DC(0.)
X-3.674 Y-25.986 Z-6.029 B5. C=DC(0.)
X-3.674 Y-26.605 Z-5.798 B5. C=DC(0.),6
X-3.674 Y-27.035 Z-5.694 B5. C=DC(0.)
X-3.674 Y-27.471 Z-5.643 B5. C=DC(0.)
X-3.674 Y-27.907 Z-5.631 B5. C=DC(0.)
X-3.674 Y-37.5 Z-5.631 B5. C=DC(0.),7
X-2.674 Y-37.5 Z-5.798 B5. C=DC(0.),7
X-2.674 Y-27.907 Z-5.798 B5. C=DC(0.)
X-2.674 Y-27.471 Z-5.8 B5. C=DC(0.)
X-2.674 Y-27.035 Z-5.838 B5. C=DC(0.)
X-2.674 Y-27.602 Z-5.917 B5. C=DC(0.),2
X-2.674 Y-26.18 Z-6.046 B5. C=DC(0.),6
X-2.674 Y-25.973 Z-6.125 B5. C=DC(0.)
X-2.674 Y-25.767 Z-6.222 B5. C=DC(0.)
X-2.674 Y-25.378 Z-6.438 B5. C=DC(0.)
X-2.674 Y-25.19 Z-6.562 B5. C=DC(0.)
X-2.674 Y-25.002 Z-6.706 B5. C=DC(0.)
X-2.674 Y-24.666 Z-6.999 B5. C=DC(0.)
X-2.674 Y-21.672 Z-9.992 B5. C=DC(0.),3
X-2.674 Y-21.67 Z-9.992 B5. C=DC(0.),8
X-2.674 Y-6.237 Z-9.992 B5. C=DC(0.),8
X-2.674 Y-6.235 Z-9.99 B5. C=DC(0.),3
X-2.674 Y-3.276 Z-4.072 B5. C=DC(0.)
X-2.674 Y-3.081 Z-3.703 B5. C=DC(0.)
X-2.674 Y-2.863 Z-3.358 B5. C=DC(0.)
X-2.674 Y-2.615 Z-3.028 B5. C=DC(0.)
X-2.674 Y-2.338 Z-2.719 B5. C=DC(0.)
X-2.674 Y-2.032 Z-2.438 B5. C=DC(0.)
X-2.674 Y-1.694 Z-2.193 B5. C=DC(0.)
X-2.674 Y-1.328 Z-1.996 B5. C=DC(0.)
X-2.674 Y-.927 Z-1.864 B5. C=DC(0.)
X-2.674 Y-.501 Z-1.826 B5. C=DC(0.)
X-2.674 Y-.282 Z-1.854 B5. C=DC(0.)
X-2.674 Y-.064 Z-1.921 B5. C=DC(0.)
X-2.674 Y.138 Z-2.027 B5. C=DC(0.)
X-2.674 Y.34 Z-2.191 B5. C=DC(0.)
X-2.674 Y8.14 Z-9.99 B5. C=DC(0.),3
X-2.674 Y8.142 Z-9.992 B5. C=DC(0.),8
X-2.674 Y21.671 Z-9.992 B5. C=DC(0.),8
X-2.674 Y21.673 Z-9.991 B5. C=DC(0.),3
X-2.674 Y23.803 Z-7.861 B5. C=DC(0.)
X-2.674 Y24.108 Z-7.589 B5. C=DC(0.)
X-2.674 Y24.434 Z-7.341 B5. C=DC(0.)
X-2.674 Y24.787 Z-7.132 B5. C=DC(0.)
X-2.674 Y25.161 Z-6.95 B5. C=DC(0.)
X-2.674 Y25.559 Z-6.811 B5. C=DC(0.)
X-2.674 Y25.971 Z-6.706 B5. C=DC(0.)
X-2.674 Y26.398 Z-6.649 B5. C=DC(0.)
X-2.674 Y26.825 Z-6.631 B5. C=DC(0.)
X-2.674 Y37.5 Z-6.631 B5. C=DC(0.),7
X-1.674 Y37.5 Z-6.465 B5. C=DC(0.),7
X-1.674 Y27.235 Z-6.465 B5. C=DC(0.)
X-1.674 Y26.808 Z-6.467 B5. C=DC(0.)
X-1.674 Y26.38 Z-6.503 B5. C=DC(0.)
X-1.674 Y26.968 Z-6.576 B5. C=DC(0.),2
X-1.674 Y25.556 Z-6.698 B5. C=DC(0.),6
X-1.674 Y25.171 Z-6.853 B5. C=DC(0.)
X-1.674 Y24.786 Z-7.063 B5. C=DC(0.)
X-1.674 Y24.442 Z-7.288 B5. C=DC(0.)
X-1.674 Y24.107 Z-7.568 B5. C=DC(0.)
X-1.674 Y23.803 Z-7.861 B5. C=DC(0.)
X-1.674 Y21.672 Z-9.992 B5. C=DC(0.),8
X-1.674 Y21.67 Z-9.992 B5. C=DC(0.),3
X-1.674 Y9.871 Z-9.992 B5. C=DC(0.),8
X-1.674 Y9.869 Z-9.99 B5. C=DC(0.),3
X-1.674 Y.922 Z-1.044 B5. C=DC(0.)
X-1.674 Y.721 Z-.883 B5. C=DC(0.)
X-1.674 Y.52 Z-.776 B5. C=DC(0.)
X-1.674 Y.302 Z-.705 B5. C=DC(0.)
X-1.674 Y.085 Z-.672 B5. C=DC(0.)
X-1.674 Y-.34 Z-.707 B5. C=DC(0.)
X-1.674 Y-.739 Z-.837 B5. C=DC(0.)
X-1.674 Y-1.106 Z-1.032 B5. C=DC(0.)
X-1.674 Y-1.445 Z-1.276 B5. C=DC(0.)
X-1.674 Y-1.752 Z-1.555 B5. C=DC(0.)
X-1.674 Y-2.028 Z-1.861 B5. C=DC(0.)
X-1.674 Y-2.277 Z-2.19 B5. C=DC(0.)
X-1.674 Y-2.496 Z-2.536 B5. C=DC(0.)
X-1.674 Y-2.692 Z-2.903 B5. C=DC(0.)
X-1.674 Y-6.236 Z-9.992 B5. C=DC(0.),8
X-1.674 Y-6.238 Z-9.992 B5. C=DC(0.),3
X-1.674 Y-21.671 Z-9.992 B5. C=DC(0.),8
X-1.674 Y-21.674 Z-9.99 B5. C=DC(0.),3
X-1.674 Y-24.467 Z-7.197 B5. C=DC(0.)
X-1.674 Y-24.635 Z-7.045 B5. C=DC(0.)
X-1.674 Y-24.812 Z-6.892 B5. C=DC(0.)
X-1.674 Y-24.988 Z-6.753 B5. C=DC(0.)
X-1.674 Y-25.36 Z-6.522 B5. C=DC(0.)
X-1.674 Y-25.559 Z-6.409 B5. C=DC(0.)
X-1.674 Y-25.758 Z-6.313 B5. C=DC(0.)
X-1.674 Y-26.174 Z-6.162 B5. C=DC(0.)
X-1.674 Y-26.602 Z-6.046 B5. C=DC(0.)
X-1.674 Y-27.035 Z-5.987 B5. C=DC(0.)
X-1.674 Y-27.471 Z-5.965 B5. C=DC(0.)
X-1.674 Y-37.5 Z-5.965 B5. C=DC(0.),7
X-.674 Y-37.5 Z-6.131 B5. C=DC(0.),7
X-.674 Y-27.471 Z-6.131 B5. C=DC(0.)
X-.674 Y-27.035 Z-6.138 B5. C=DC(0.)
X-.674 Y-26.599 Z-6.184 B5. C=DC(0.)
X-.674 Y-26.169 Z-6.278 B5. C=DC(0.)
X-.674 Y-25.75 Z-6.415 B5. C=DC(0.)
X-.674 Y-25.344 Z-6.601 B5. C=DC(0.)
X-.674 Y-24.961 Z-6.823 B5. C=DC(0.)
X-.674 Y-24.778 Z-6.952 B5. C=DC(0.)
X-.674 Y-24.596 Z-7.101 B5. C=DC(0.)
X-.674 Y-24.266 Z-7.398 B5. C=DC(0.)
X-.674 Y-21.672 Z-9.992 B5. C=DC(0.),8
X-.674 Y-21.669 Z-9.992 B5. C=DC(0.),3
X-.674 Y-6.236 Z-9.992 B5. C=DC(0.),8
X-.674 Y-6.235 Z-9.99 B5. C=DC(0.),3
X-.674 Y-2.105 Z-1.73 B5. C=DC(0.)
X-.674 Y-1.91 Z-1.366 B5. C=DC(0.)
X-.674 Y-1.69 Z-1.022 B5. C=DC(0.)
X-.674 Y-1.44 Z-.698 B5. C=DC(0.)
X-.674 Y-1.15 Z-.434 B5. C=DC(0.)
X-.674 Y-.798 Z-.228 B5. C=DC(0.)
X-.674 Y-.403 Z-.098 B5. C=DC(0.)
X-.674 Y.323 Z-.146 B5. C=DC(0.),1
X-.674 Y.458 Z-.111 B5. C=DC(0.)
X-.674 Y.669 Z-.175 B5. C=DC(0.)
X-.674 Y.879 Z-.267 B5. C=DC(0.)
X-.674 Y1.074 Z-.381 B5. C=DC(0.)
X-.674 Y1.269 Z-.53 B5. C=DC(0.)
X-.674 Y1.434 Z-.687 B5. C=DC(0.)
X-.674 Y10.737 Z-9.99 B5. C=DC(0.),3
X-.674 Y10.739 Z-9.992 B5. C=DC(0.),8
X-.674 Y21.671 Z-9.992 B5. C=DC(0.),8
X-.674 Y21.673 Z-9.991 B5. C=DC(0.),3
X-.674 Y24.108 Z-7.556 B5. C=DC(0.)
X-.674 Y24.412 Z-7.281 B5. C=DC(0.)
X-.674 Y24.74 Z-7.027 B5. C=DC(0.)
X-.674 Y25.094 Z-6.815 B5. C=DC(0.)
X-.674 Y25.47 Z-6.627 B5. C=DC(0.)
X-.674 Y25.871 Z-6.485 B5. C=DC(0.)
X-.674 Y26.272 Z-6.378 B5. C=DC(0.)
X-.674 Y26.188 Z-6.321 B5. C=DC(0.),2
X-.674 Y27.12 Z-6.298 B5. C=DC(0.)
X-.674 Y37.5 Z-6.298 B5. C=DC(0.),7
X.326 Y37.5 Z-6.131 B5. C=DC(0.),7
X.326 Y27.526 Z-6.131 B5. C=DC(0.)
X.326 Y27.093 Z-6.135 B5. C=DC(0.)
X.326 Y26.659 Z-6.176 B5. C=DC(0.)
X.326 Y26.242 Z-6.158 B5. C=DC(0.),1
X.326 Y25.84 Z-6.381 B5. C=DC(0.)
X.326 Y25.451 Z-6.546 B5. C=DC(0.)
X.326 Y25.075 Z-6.754 B5. C=DC(0.)
X.326 Y24.739 Z-6.983 B5. C=DC(0.)
X.326 Y24.412 Z-7.259 B5. C=DC(0.)
X.326 Y24.107 Z-7.557 B5. C=DC(0.)
X.326 Y21.672 Z-9.992 B5. C=DC(0.),3
X.326 Y21.671 Z-9.992 B5. C=DC(0.),8
X.326 Y10.741 Z-9.992 B5. C=DC(0.),3
X.326 Y10.738 Z-9.992 B5. C=DC(0.),8
X.326 Y1.432 Z-.686 B5. C=DC(0.)
X.326 Y1.268 Z-.529 B5. C=DC(0.)
X.326 Y1.073 Z-.38 B5. C=DC(0.)
X.326 Y.878 Z-.266 B5. C=DC(0.)
X.326 Y.668 Z-.175 B5. C=DC(0.)
X.326 Y.457 Z-.111 B5. C=DC(0.)
X.326 Y.021 Z-.056 B5. C=DC(0.)
X.326 Y-.404 Z-.099 B5. C=DC(0.)
X.326 Y-.799 Z-.229 B5. C=DC(0.)
X.326 Y-1.151 Z-.435 B5. C=DC(0.)
X.326 Y-1.441 Z-.699 B5. C=DC(0.)
X.326 Y-1.691 Z-1.023 B5. C=DC(0.)
X.326 Y-1.911 Z-1.368 B5. C=DC(0.)
X.326 Y-2.106 Z-1.733 B5. C=DC(0.)
X.326 Y-6.236 Z-9.992 B5. C=DC(0.),8
X.326 Y-6.238 Z-9.992 B5. C=DC(0.),3
X.326 Y-21.671 Z-9.992 B5. C=DC(0.),8
X.326 Y-21.674 Z-9.99 B5. C=DC(0.),3
X.326 Y-24.044 Z-7.62 B5. C=DC(0.)
X.326 Y-24.205 Z-7.462 B5. C=DC(0.)
X.326 Y-24.55 Z-7.167 B5. C=DC(0.)
X.326 Y-24.741 Z-7.026 B5. C=DC(0.)
X.326 Y-24.933 Z-6.907 B5. C=DC(0.)
X.326 Y-25.129 Z-6.795 B5. C=DC(0.)
X.326 Y-25.325 Z-6.692 B5. C=DC(0.)
X.326 Y-25.533 Z-6.601 B5. C=DC(0.)
X.326 Y-25.741 Z-6.525 B5. C=DC(0.)
X.326 Y-25.9 Z-6.402 B5. C=DC(0.),1
X.326 Y-26.599 Z-6.331 B5. C=DC(0.)
X.326 Y-27.035 Z-6.299 B5. C=DC(0.)
X.326 Y-37.5 Z-6.298 B5. C=DC(0.),7
X1.326 Y-37.5 Z-6.465 B5. C=DC(0.),7
X1.326 Y-27.035 Z-6.465 B5. C=DC(0.)
X1.326 Y-26.599 Z-6.479 B5. C=DC(0.)
X1.326 Y-26.166 Z-6.534 B5. C=DC(0.)
X1.326 Y-25.736 Z-6.641 B5. C=DC(0.)
X1.326 Y-25.322 Z-6.785 B5. C=DC(0.)
X1.326 Y-25.121 Z-6.878 B5. C=DC(0.)
X1.326 Y-24.92 Z-6.986 B5. C=DC(0.)
X1.326 Y-24.541 Z-7.216 B5. C=DC(0.)
X1.326 Y-24.363 Z-7.349 B5. C=DC(0.)
X1.326 Y-24.185 Z-7.502 B5. C=DC(0.)
X1.326 Y-23.863 Z-7.801 B5. C=DC(0.)
X1.326 Y-21.674 Z-9.99 B5. C=DC(0.),3
X1.326 Y-21.671 Z-9.992 B5. C=DC(0.),8
X1.326 Y-6.238 Z-9.992 B5. C=DC(0.),3
X1.326 Y-6.236 Z-9.992 B5. C=DC(0.),8
X1.326 Y-2.691 Z-2.903 B5. C=DC(0.)
X1.326 Y-2.496 Z-2.536 B5. C=DC(0.)
X1.326 Y-2.277 Z-2.19 B5. C=DC(0.)
X1.326 Y-2.028 Z-1.861 B5. C=DC(0.)
X1.326 Y-1.752 Z-1.555 B5. C=DC(0.)
X1.326 Y-1.445 Z-1.276 B5. C=DC(0.)
X1.326 Y-1.652 Z-1.555 B5. C=DC(0.),2
X1.326 Y-1.106 Z-1.031 B5. C=DC(0.)
X1.326 Y-.739 Z-.837 B5. C=DC(0.)
X1.326 Y-.34 Z-.707 B5. C=DC(0.)
X1.326 Y.085 Z-.672 B5. C=DC(0.)
X1.326 Y.302 Z-.705 B5. C=DC(0.)
X1.326 Y.52 Z-.776 B5. C=DC(0.)
X1.326 Y.721 Z-.883 B5. C=DC(0.)
X1.326 Y.922 Z-1.044 B5. C=DC(0.)
X1.326 Y9.869 Z-9.99 B5. C=DC(0.),3
X1.326 Y9.871 Z-9.992 B5. C=DC(0.),8
X1.326 Y21.67 Z-9.992 B5. C=DC(0.),3
X1.326 Y21.672 Z-9.992 B5. C=DC(0.),8
X1.326 Y24.412 Z-7.252 B5. C=DC(0.)
X1.326 Y24.716 Z-6.975 B5. C=DC(0.)
X1.326 Y25.036 Z-6.72 B5. C=DC(0.)
X1.326 Y25.392 Z-6.503 B5. C=DC(0.)
X1.326 Y25.759 Z-6.313 B5. C=DC(0.)
X1.326 Y25.715 Z-6.369 B5. C=DC(0.),2
X1.326 Y26.555 Z-6.056 B5. C=DC(0.)
X1.326 Y26.976 Z-5.994 B5. C=DC(0.)
X1.326 Y27.397 Z-5.965 B5. C=DC(0.)
X1.326 Y37.5 Z-5.965 B5. C=DC(0.),7
X2.326 Y37.5 Z-5.798 B5. C=DC(0.),7
X2.326 Y27.778 Z-5.798 B5. C=DC(0.)
X2.326 Y27.355 Z-5.806 B5. C=DC(0.)
X2.326 Y26.932 Z-5.85 B5. C=DC(0.)
X2.326 Y26.526 Z-5.938 B5. C=DC(0.)
X2.326 Y26.52 Z-6.067 B5. C=DC(0.),1
X2.326 Y25.74 Z-6.235 B5. C=DC(0.)
X2.326 Y25.373 Z-6.441 B5. C=DC(0.)
X2.326 Y25.036 Z-6.678 B5. C=DC(0.)
X2.326 Y24.716 Z-6.951 B5. C=DC(0.)
X2.326 Y24.412 Z-7.252 B5. C=DC(0.)
X2.326 Y21.673 Z-9.991 B5. C=DC(0.),3
X2.326 Y21.671 Z-9.992 B5. C=DC(0.),8
X2.326 Y8.142 Z-9.992 B5. C=DC(0.),8
X2.326 Y8.14 Z-9.99 B5. C=DC(0.),3
X2.326 Y.337 Z-2.187 B5. C=DC(0.)
X2.326 Y.135 Z-2.025 B5. C=DC(0.)
X2.326 Y-.067 Z-1.92 B5. C=DC(0.)
X2.326 Y-.285 Z-1.853 B5. C=DC(0.)
X2.326 Y-.504 Z-1.826 B5. C=DC(0.)
X2.326 Y-.931 Z-1.865 B5. C=DC(0.)
X2.326 Y-1.331 Z-1.998 B5. C=DC(0.)
X2.326 Y-1.698 Z-2.195 B5. C=DC(0.)
X2.326 Y-2.033 Z-2.439 B5. C=DC(0.)
X2.326 Y-2.342 Z-2.795 B5. C=DC(0.),2
X2.326 Y-2.339 Z-2.72 B5. C=DC(0.)
X2.326 Y-2.616 Z-3.028 B5. C=DC(0.)
X2.326 Y-2.863 Z-3.358 B5. C=DC(0.)
X2.326 Y-3.081 Z-3.704 B5. C=DC(0.)
X2.326 Y-3.277 Z-4.073 B5. C=DC(0.)
X2.326 Y-6.236 Z-9.992 B5. C=DC(0.),3
X2.326 Y-6.237 Z-9.992 B5. C=DC(0.),8
X2.326 Y-21.671 Z-9.992 B5. C=DC(0.),8
X2.326 Y-21.673 Z-9.991 B5. C=DC(0.),3
X2.326 Y-23.803 Z-7.861 B5. C=DC(0.)
X2.326 Y-24.136 Z-7.565 B5. C=DC(0.)
X2.326 Y-24.322 Z-7.42 B5. C=DC(0.)
X2.326 Y-24.508 Z-7.293 B5. C=DC(0.)
X2.326 Y-24.898 Z-7.073 B5. C=DC(0.)
X2.326 Y-25.103 Z-6.975 B5. C=DC(0.)
X2.326 Y-25.308 Z-6.892 B5. C=DC(0.)
X2.326 Y-25.73 Z-6.761 B5. C=DC(0.)
X2.326 Y-26.163 Z-6.675 B5. C=DC(0.)
X2.326 Y-26.599 Z-6.635 B5. C=DC(0.)
X2.326 Y-27.035 Z-6.631 B5. C=DC(0.)
X2.326 Y-37.5 Z-6.631 B5. C=DC(0.),7
X3.326 Y-37.5 Z-6.798 B5. C=DC(0.),7
X3.326 Y-26.599 Z-6.798 B5. C=DC(0.)
X3.326 Y-26.163 Z-6.824 B5. C=DC(0.)
X3.326 Y-25.73 Z-6.887 B5. C=DC(0.)
X3.326 Y-25.305 Z-7.005 B5. C=DC(0.)
X3.326 Y-24.889 Z-7.162 B5. C=DC(0.)
X3.326 Y-24.691 Z-7.26 B5. C=DC(0.)
X3.326 Y-24.492 Z-7.374 B5. C=DC(0.)
X3.326 Y-24.123 Z-7.61 B5. C=DC(0.)
X3.326 Y-23.948 Z-7.75 B5. C=DC(0.)
X3.326 Y-23.773 Z-7.902 B5. C=DC(0.)
X3.326 Y-23.605 Z-8.058 B5. C=DC(0.)
X3.326 Y-21.674 Z-9.99 B5. C=DC(0.),3
X3.326 Y-21.672 Z-9.992 B5. C=DC(0.),8
X3.326 Y-6.236 Z-9.992 B5. C=DC(0.),8
X3.326 Y-6.235 Z-9.989 B5. C=DC(0.),3
X3.326 Y-3.862 Z-5.245 B5. C=DC(0.)
X3.326 Y-3.667 Z-4.874 B5. C=DC(0.)
X3.326 Y-3.451 Z-4.528 B5. C=DC(0.)
X3.326 Y-3.205 Z-4.198 B5. C=DC(0.)
X3.326 Y-2.93 Z-3.889 B5. C=DC(0.)
X3.326 Y-2.626 Z-3.607 B5. C=DC(0.)
X3.326 Y-2.292 Z-3.361 B5. C=DC(0.)
X3.326 Y-1.927 Z-3.161 B5. C=DC(0.)
X3.326 Y-1.529 Z-3.024 B5. C=DC(0.)
X3.326 Y-1.104 Z-2.979 B5. C=DC(0.)
X3.326 Y-.671 Z-3.064 B5. C=DC(0.)
X3.326 Y-.468 Z-3.164 B5. C=DC(0.)
X3.326 Y-.265 Z-3.319 B5. C=DC(0.)
X3.326 Y-.106 Z-3.477 B5. C=DC(0.)
X3.326 Y6.41 Z-9.992 B5. C=DC(0.),8
X3.326 Y6.412 Z-9.992 B5. C=DC(0.),3
X3.326 Y21.671 Z-9.992 B5. C=DC(0.),8
X3.326 Y21.673 Z-9.991 B5. C=DC(0.),3
X3.326 Y24.716 Z-6.947 B5. C=DC(0.)
X3.326 Y25.021 Z-6.668 B5. C=DC(0.)
X3.326 Y25.358 Z-6.394 B5. C=DC(0.)
X3.326 Y25.715 Z-6.176 B5. C=DC(0.)
X3.326 Y26.084 Z-5.984 B5. C=DC(0.)
X3.326 Y26.477 Z-5.838 B5. C=DC(0.)
X3.326 Y26.885 Z-5.723 B5. C=DC(0.)
X3.326 Y27.31 Z-5.66 B5. C=DC(0.)
X3.326 Y27.735 Z-5.631 B5. C=DC(0.)
X3.326 Y37.5 Z-5.631 B5. C=DC(0.),7
X4.326 Y37.5 Z-5.465 B5. C=DC(0.),7
X4.326 Y28.078 Z-5.465 B5. C=DC(0.)
X4.326 Y27.649 Z-5.476 B5. C=DC(0.)
X4.326 Y27.221 Z-5.524 B5. C=DC(0.)
X4.326 Y26.81 Z-5.619 B5. C=DC(0.)
X4.326 Y26.414 Z-5.749 B5. C=DC(0.)
X4.326 Y26.932 Z-5.924 B5. C=DC(0.),2
X4.326 Y25.662 Z-6.135 B5. C=DC(0.),6
X4.326 Y25.333 Z-6.375 B5. C=DC(0.)
X4.326 Y25.021 Z-6.645 B5. C=DC(0.)
X4.326 Y24.717 Z-6.947 B5. C=DC(0.)
X4.326 Y21.673 Z-9.991 B5. C=DC(0.),3
X4.326 Y21.671 Z-9.992 B5. C=DC(0.),8
X4.326 Y4.678 Z-9.992 B5. C=DC(0.),8
X4.326 Y4.676 Z-9.99 B5. C=DC(0.),3
X4.326 Y-.693 Z-4.621 B5. C=DC(0.)
X4.326 Y-.855 Z-4.462 B5. C=DC(0.)
X4.326 Y-1.059 Z-4.31 B5. C=DC(0.)
X4.326 Y-1.263 Z-4.213 B5. C=DC(0.)
X4.326 Y-1.698 Z-4.134 B5. C=DC(0.)
X4.326 Y-2.12 Z-4.182 B5. C=DC(0.)
X4.326 Y-2.516 Z-4.321 B5. C=DC(0.)
X4.326 Y-2.88 Z-4.522 B5. C=DC(0.)
X4.326 Y-3.213 Z-4.77 B5. C=DC(0.)
X4.326 Y-3.517 Z-5.053 B5. C=DC(0.)
X4.326 Y-3.791 Z-5.363 B5. C=DC(0.)
X4.326 Y-4.035 Z-5.693 B5. C=DC(0.)
X4.326 Y-4.251 Z-6.04 B5. C=DC(0.)
X4.326 Y-4.446 Z-6.413 B5. C=DC(0.)
X4.326 Y-6.235 Z-9.99 B5. C=DC(0.),3
X4.326 Y-6.237 Z-9.992 B5. C=DC(0.),8
X4.326 Y-21.67 Z-9.992 B5. C=DC(0.),3
X4.326 Y-21.672 Z-9.992 B5. C=DC(0.),8
X4.326 Y-23.399 Z-8.265 B5. C=DC(0.)
X4.326 Y-23.564 Z-8.105 B5. C=DC(0.)
X4.326 Y-23.73 Z-7.96 B5. C=DC(0.)
X4.326 Y-23.91 Z-7.812 B5. C=DC(0.)
X4.326 Y-24.09 Z-7.681 B5. C=DC(0.)
X4.326 Y-24.47 Z-7.456 B5. C=DC(0.)
X4.326 Y-24.674 Z-7.351 B5. C=DC(0.)
X4.326 Y-24.878 Z-7.263 B5. C=DC(0.)
X4.326 Y-25.297 Z-7.122 B5. C=DC(0.)
X4.326 Y-25.727 Z-7.023 B5. C=DC(0.)
X4.326 Y-26.163 Z-6.974 B5. C=DC(0.)
X4.326 Y-26.599 Z-6.965 B5. C=DC(0.)
X4.326 Y-37.5 Z-6.965 B5. C=DC(0.),7
X5.326 Y-37.5 Z-7.131 B5. C=DC(0.),7
X5.326 Y-26.599 Z-7.131 B5. C=DC(0.)
X5.326 Y-26.163 Z-7.133 B5. C=DC(0.)
X5.326 Y-25.727 Z-7.168 B5. C=DC(0.)
X5.326 Y-25.294 Z-7.244 B5. C=DC(0.)
X5.326 Y-24.869 Z-7.371 B5. C=DC(0.)
X5.326 Y-24.663 Z-7.449 B5. C=DC(0.)
X5.326 Y-24.586 Z-7.543 B5. C=DC(0.),1
X5.326 Y-24.067 Z-7.758 B5. C=DC(0.)
X5.326 Y-23.878 Z-7.88 B5. C=DC(0.)
X5.326 Y-23.689 Z-8.021 B5. C=DC(0.)
X5.326 Y-23.517 Z-8.167 B5. C=DC(0.)
X5.326 Y-23.345 Z-8.32 B5. C=DC(0.)
X5.326 Y-23.187 Z-8.477 B5. C=DC(0.)
X5.326 Y-21.672 Z-9.992 B5. C=DC(0.),8
X5.326 Y-21.67 Z-9.992 B5. C=DC(0.),3
X5.326 Y-6.237 Z-9.992 B5. C=DC(0.),8
X5.326 Y-6.235 Z-9.99 B5. C=DC(0.),3
X5.326 Y-5.032 Z-7.584 B5. C=DC(0.)
X5.326 Y-4.837 Z-7.209 B5. C=DC(0.)
X5.326 Y-4.622 Z-6.862 B5. C=DC(0.)
X5.326 Y-4.378 Z-6.53 B5. C=DC(0.)
X5.326 Y-4.106 Z-6.22 B5. C=DC(0.)
X5.326 Y-3.805 Z-5.937 B5. C=DC(0.)
X5.326 Y-3.472 Z-5.686 B5. C=DC(0.)
X5.326 Y-3.109 Z-5.483 B5. C=DC(0.)
X5.326 Y-2.715 Z-5.341 B5. C=DC(0.)
X5.326 Y-2.292 Z-5.288 B5. C=DC(0.)
X5.326 Y-1.854 Z-5.363 B5. C=DC(0.)
X5.326 Y-1.649 Z-5.457 B5. C=DC(0.)
X5.326 Y-1.444 Z-5.605 B5. C=DC(0.)
X5.326 Y-1.281 Z-5.766 B5. C=DC(0.)
X5.326 Y2.945 Z-9.991 B5. C=DC(0.),3
X5.326 Y2.947 Z-9.992 B5. C=DC(0.),8
X5.326 Y21.671 Z-9.992 B5. C=DC(0.),8
X5.326 Y21.672 Z-9.992 B5. C=DC(0.),3
X5.326 Y25.021 Z-6.643 B5. C=DC(0.)
X5.326 Y25.325 Z-6.359 B5. C=DC(0.)
X5.326 Y25.654 Z-6.087 B5. C=DC(0.)
X5.326 Y26.002 Z-5.869 B5. C=DC(0.)
X5.326 Y26.386 Z-5.664 B5. C=DC(0.)
X5.326 Y26.783 Z-5.514 B5. C=DC(0.)
X5.326 Y27.195 Z-5.395 B5. C=DC(0.)
X5.326 Y27.607 Z-5.331 B5. C=DC(0.)
X5.326 Y28.037 Z-5.299 B5. C=DC(0.)
X5.326 Y37.5 Z-5.298 B5. C=DC(0.),7
X6.326 Y37.5 Z-5.131 B5. C=DC(0.),7
X6.326 Y28.332 Z-5.131 B5. C=DC(0.)
X6.326 Y27.916 Z-5.149 B5. C=DC(0.)
X6.326 Y27.499 Z-5.201 B5. C=DC(0.)
X6.326 Y27.099 Z-5.3 B5. C=DC(0.)
X6.326 Y26.699 Z-5.434 B5. C=DC(0.)
X6.326 Y26.327 Z-5.613 B5. C=DC(0.)
X6.326 Y25.966 Z-5.82 B5. C=DC(0.)
X6.326 Y25.637 Z-6.067 B5. C=DC(0.)
X6.326 Y25.324 Z-6.34 B5. C=DC(0.)
X6.326 Y21.672 Z-9.992 B5. C=DC(0.),8
X6.326 Y21.67 Z-9.992 B5. C=DC(0.),3
X6.326 Y1.216 Z-9.992 B5. C=DC(0.),3
X6.326 Y1.213 Z-9.992 B5. C=DC(0.),8
X6.326 Y-1.874 Z-6.905 B5. C=DC(0.)
X6.326 Y-2.04 Z-6.744 B5. C=DC(0.)
X6.326 Y-2.246 Z-6.601 B5. C=DC(0.)
X6.326 Y-2.452 Z-6.511 B5. C=DC(0.)
X6.326 Y-2.886 Z-6.443 B5. C=DC(0.)
X6.326 Y-3.307 Z-6.5 B5. C=DC(0.)
X6.326 Y-3.699 Z-6.643 B5. C=DC(0.)
X6.326 Y-4.393 Z-7.1 B5. C=DC(0.),6
X6.326 Y-4.694 Z-7.386 B5. C=DC(0.)
X6.326 Y-4.966 Z-7.698 B5. C=DC(0.)
X6.326 Y-5.209 Z-8.031 B5. C=DC(0.)
X6.326 Y-5.423 Z-8.379 B5. C=DC(0.)
X6.326 Y-5.618 Z-8.756 B5. C=DC(0.)
X6.326 Y-6.236 Z-9.992 B5. C=DC(0.),8
X6.326 Y-6.237 Z-9.992 B5. C=DC(0.),3
X6.326 Y-21.671 Z-9.992 B5. C=DC(0.),8
X6.326 Y-21.673 Z-9.991 B5. C=DC(0.),3
X6.326 Y-23.002 Z-8.662 B5. C=DC(0.)
X6.326 Y-23.32 Z-8.361 B5. C=DC(0.)
X6.326 Y-23.498 Z-8.207 B5. C=DC(0.)
X6.326 Y-23.676 Z-8.071 B5. C=DC(0.)
X6.326 Y-24.054 Z-7.836 B5. C=DC(0.)
X6.326 Y-24.254 Z-7.728 B5. C=DC(0.)
X6.326 Y-24.453 Z-7.634 B5. C=DC(0.)
X6.326 Y-24.867 Z-7.485 B5. C=DC(0.)
X6.326 Y-25.294 Z-7.374 B5. C=DC(0.)
X6.326 Y-25.727 Z-7.316 B5. C=DC(0.)
X6.326 Y-26.163 Z-7.298 B5. C=DC(0.)
X6.326 Y-37.5 Z-7.298 B5. C=DC(0.),7
X7.326 Y-37.5 Z-7.465 B5. C=DC(0.),7
X7.326 Y-26.163 Z-7.465 B5. C=DC(0.)
X7.326 Y-25.727 Z-7.47 B5. C=DC(0.)
X7.326 Y-25.291 Z-7.513 B5. C=DC(0.)
X7.326 Y-24.858 Z-7.605 B5. C=DC(0.)
X7.326 Y-24.436 Z-7.74 B5. C=DC(0.)
X7.326 Y-24.233 Z-7.825 B5. C=DC(0.)
X7.326 Y-24.029 Z-7.924 B5. C=DC(0.)
X7.326 Y-23.835 Z-8.033 B5. C=DC(0.)
X7.326 Y-23.642 Z-8.147 B5. C=DC(0.)
X7.326 Y-23.458 Z-8.275 B5. C=DC(0.)
X7.326 Y-23.274 Z-8.422 B5. C=DC(0.)
X7.326 Y-22.943 Z-8.721 B5. C=DC(0.)
X7.326 Y-21.674 Z-9.99 B5. C=DC(0.),3
X7.326 Y-21.671 Z-9.992 B5. C=DC(0.),8
X7.326 Y-6.238 Z-9.992 B5. C=DC(0.),8
X7.326 Y-6.117 Z-9.754 B5. C=DC(0.)
X7.326 Y-6.008 Z-9.548 B5. C=DC(0.)
X7.326 Y-5.796 Z-9.2 B5. C=DC(0.)
X7.326 Y-5.554 Z-8.866 B5. C=DC(0.)
X7.326 Y-5.283 Z-8.553 B5. C=DC(0.)
X7.326 Y-4.984 Z-8.267 B5. C=DC(0.)
X7.326 Y-4.655 Z-8.015 B5. C=DC(0.)
X7.326 Y-4.295 Z-7.807 B5. C=DC(0.)
X7.326 Y-3.9 Z-7.659 B5. C=DC(0.)
X7.326 Y-3.478 Z-7.598 B5. C=DC(0.)
X7.326 Y-3.042 Z-7.661 B5. C=DC(0.)
X7.326 Y-2.835 Z-7.749 B5. C=DC(0.)
X7.326 Y-2.628 Z-7.89 B5. C=DC(0.)
X7.326 Y-2.461 Z-8.05 B5. C=DC(0.)
X7.326 Y-.52 Z-9.991 B5. C=DC(0.),3
X7.326 Y-.518 Z-9.992 B5. C=DC(0.),8
X7.326 Y21.671 Z-9.992 B5. C=DC(0.),8
X7.326 Y21.673 Z-9.991 B5. C=DC(0.),3
X7.326 Y25.325 Z-6.339 B5. C=DC(0.)
X7.326 Y25.63 Z-6.049 B5. C=DC(0.)
X7.326 Y25.959 Z-5.775 B5. C=DC(0.)
X7.326 Y26.299 Z-5.556 B5. C=DC(0.)
X7.326 Y26.672 Z-5.353 B5. C=DC(0.)
X7.326 Y27.059 Z-5.198 B5. C=DC(0.)
X7.326 Y27.477 Z-5.074 B5. C=DC(0.)
X7.326 Y27.894 Z-5.003 B5. C=DC(0.)
X7.326 Y28.312 Z-4.967 B5. C=DC(0.)
X7.326 Y28.73 Z-4.965 B5. C=DC(0.)
X7.326 Y37.5 Z-4.965 B5. C=DC(0.),7
X8.326 Y37.5 Z-4.798 B5. C=DC(0.),7
X8.326 Y28.623 Z-4.798 B5. C=DC(0.)
X8.326 Y28.2 Z-4.822 B5. C=DC(0.)
X8.326 Y27.777 Z-4.877 B5. C=DC(0.)
X8.326 Y27.372 Z-4.987 B5. C=DC(0.)
X8.326 Y26.982 Z-5.121 B5. C=DC(0.)
X8.326 Y26.607 Z-5.31 B5. C=DC(0.)
X8.326 Y26.255 Z-5.516 B5. C=DC(0.)
X8.326 Y25.934 Z-5.766 B5. C=DC(0.)
X8.326 Y25.63 Z-6.034 B5. C=DC(0.)
X8.326 Y21.673 Z-9.991 B5. C=DC(0.),3
X8.326 Y21.671 Z-9.992 B5. C=DC(0.),8
X8.326 Y-2.248 Z-9.992 B5. C=DC(0.),3
X8.326 Y-2.251 Z-9.992 B5. C=DC(0.),8
X8.326 Y-3.006 Z-9.236 B5. C=DC(0.)
X8.326 Y-3.168 Z-9.078 B5. C=DC(0.)
X8.326 Y-3.373 Z-8.926 B5. C=DC(0.)
X8.326 Y-3.578 Z-8.83 B5. C=DC(0.)
X8.326 Y-4.015 Z-8.752 B5. C=DC(0.)
X8.326 Y-4.439 Z-8.803 B5. C=DC(0.)
X8.326 Y-4.835 Z-8.944 B5. C=DC(0.)
X8.326 Y-5.2 Z-9.148 B5. C=DC(0.)
X8.326 Y-5.533 Z-9.398 B5. C=DC(0.)
X8.326 Y-5.836 Z-9.682 B5. C=DC(0.)
X8.326 Y-6.109 Z-9.992 B5. C=DC(0.),3
X8.326 Y-6.11 Z-9.992 B5. C=DC(0.),8
X8.326 Y-21.669 Z-9.992 B5. C=DC(0.),3
X8.326 Y-21.672 Z-9.992 B5. C=DC(0.),8
X8.326 Y-22.73 Z-8.934 B5. C=DC(0.)
X8.326 Y-22.893 Z-8.775 B5. C=DC(0.)
X8.326 Y-23.065 Z-8.624 B5. C=DC(0.)
X8.326 Y-23.236 Z-8.484 B5. C=DC(0.)
X8.326 Y-23.429 Z-8.345 B5. C=DC(0.)
X8.326 Y-23.819 Z-8.113 B5. C=DC(0.)
X8.326 Y-24.018 Z-8.013 B5. C=DC(0.)
X8.326 Y-24.226 Z-7.924 B5. C=DC(0.)
X8.326 Y-24.433 Z-7.85 B5. C=DC(0.)
X8.326 Y-24.858 Z-7.73 B5. C=DC(0.)
X8.326 Y-25.291 Z-7.661 B5. C=DC(0.)
X8.326 Y-25.727 Z-7.632 B5. C=DC(0.)
X8.326 Y-37.5 Z-7.631 B5. C=DC(0.),7
X9.326 Y-37.5 Z-7.798 B5. C=DC(0.),7
X9.326 Y-25.727 Z-7.798 B5. C=DC(0.)
X9.326 Y-25.291 Z-7.81 B5. C=DC(0.)
X9.326 Y-24.855 Z-7.863 B5. C=DC(0.)
X9.326 Y-24.425 Z-7.966 B5. C=DC(0.)
X9.326 Y-24.006 Z-8.111 B5. C=DC(0.)
X9.326 Y-23.804 Z-8.202 B5. C=DC(0.)
X9.326 Y-23.602 Z-8.308 B5. C=DC(0.)
X9.326 Y-23.222 Z-8.539 B5. C=DC(0.)
X9.326 Y-23.043 Z-8.671 B5. C=DC(0.)
X9.326 Y-22.865 Z-8.819 B5. C=DC(0.)
X9.326 Y-22.7 Z-8.966 B5. C=DC(0.)
X9.326 Y-22.535 Z-9.129 B5. C=DC(0.)
X9.326 Y-21.674 Z-9.99 B5. C=DC(0.),3
X9.326 Y-21.672 Z-9.992 B5. C=DC(0.),8
X9.326 Y-5.14 Z-9.992 B5. C=DC(0.),8
X9.326 Y-4.724 Z-9.911 B5. C=DC(0.)
X9.326 Y-4.289 Z-9.944 B5. C=DC(0.)
X9.326 Y-4.134 Z-9.992 B5. C=DC(0.),8
X9.326 Y21.67 Z-9.992 B5. C=DC(0.),8
X9.326 Y21.672 Z-9.992 B5. C=DC(0.),3
X9.326 Y25.629 Z-6.035 B5. C=DC(0.)
X9.326 Y25.933 Z-5.741 B5. C=DC(0.)
X9.326 Y26.264 Z-5.464 B5. C=DC(0.)
X9.326 Y26.604 Z-5.237 B5. C=DC(0.)
X9.326 Y26.98 Z-5.032 B5. C=DC(0.)
X9.326 Y27.37 Z-4.872 B5. C=DC(0.)
X9.326 Y27.775 Z-4.749 B5. C=DC(0.)
X9.326 Y28.198 Z-4.672 B5. C=DC(0.)
X9.326 Y28.621 Z-4.634 B5. C=DC(0.)
X9.326 Y29.043 Z-4.631 B5. C=DC(0.)
X9.326 Y37.5 Z-4.631 B5. C=DC(0.),7
X10.326 Y37.5 Z-4.465 B5. C=DC(0.),7
X10.326 Y28.919 Z-4.465 B5. C=DC(0.)
X10.326 Y28.49 Z-4.493 B5. C=DC(0.)
X10.326 Y28.081 Z-4.55 B5. C=DC(0.)
X10.326 Y27.671 Z-4.664 B5. C=DC(0.)
X10.326 Y27.278 Z-4.805 B5. C=DC(0.)
X10.326 Y26.913 Z-4.994 B5. C=DC(0.)
X10.326 Y26.56 Z-5.202 B5. C=DC(0.)
X10.326 Y26.238 Z-5.46 B5. C=DC(0.)
X10.326 Y25.934 Z-5.73 B5. C=DC(0.)
X10.326 Y21.672 Z-9.991 B5. C=DC(0.),3
X10.326 Y21.671 Z-9.992 B5. C=DC(0.),8
X10.326 Y-21.67 Z-9.992 B5. C=DC(0.),8
X10.326 Y-21.673 Z-9.991 B5. C=DC(0.),3
X10.326 Y-22.486 Z-9.178 B5. C=DC(0.)
X10.326 Y-22.656 Z-9.023 B5. C=DC(0.)
X10.326 Y-22.827 Z-8.877 B5. C=DC(0.)
X10.326 Y-23.014 Z-8.735 B5. C=DC(0.)
X10.326 Y-23.201 Z-8.61 B5. C=DC(0.)
X10.326 Y-23.59 Z-8.392 B5. C=DC(0.)
X10.326 Y-24. Z-8.216 B5. C=DC(0.)
X10.326 Y-23.9 Z-8.392 B5. C=DC(0.),2
X10.326 Y-24.422 Z-8.087 B5. C=DC(0.)
X10.326 Y-24.855 Z-8.004 B5. C=DC(0.)
X10.326 Y-25.291 Z-7.967 B5. C=DC(0.)
X10.326 Y-25.727 Z-7.965 B5. C=DC(0.)
X10.326 Y-37.5 Z-7.965 B5. C=DC(0.),7
X11.326 Y-37.5 Z-8.131 B5. C=DC(0.),7
X11.326 Y-25.291 Z-8.131 B5. C=DC(0.)
X11.326 Y-24.855 Z-8.152 B5. C=DC(0.)
X11.326 Y-24.422 Z-8.215 B5. C=DC(0.)
X11.326 Y-23.995 Z-8.33 B5. C=DC(0.)
X11.326 Y-23.582 Z-8.484 B5. C=DC(0.)
X11.326 Y-23.382 Z-8.58 B5. C=DC(0.)
X11.326 Y-23.183 Z-8.69 B5. C=DC(0.)
X11.326 Y-22.994 Z-8.802 B5. C=DC(0.)
X11.326 Y-22.706 Z-8.931 B5. C=DC(0.),1
X11.326 Y-22.629 Z-9.068 B5. C=DC(0.)
X11.326 Y-22.453 Z-9.223 B5. C=DC(0.)
X11.326 Y-22.136 Z-9.528 B5. C=DC(0.)
X11.326 Y-21.672 Z-9.992 B5. C=DC(0.),3
X11.326 Y-21.67 Z-9.992 B5. C=DC(0.),8
X11.326 Y21.671 Z-9.992 B5. C=DC(0.),8
X11.326 Y21.673 Z-9.991 B5. C=DC(0.),3
X11.326 Y25.934 Z-5.73 B5. C=DC(0.)
X11.326 Y26.238 Z-5.432 B5. C=DC(0.)
X11.326 Y26.56 Z-5.16 B5. C=DC(0.)
X11.326 Y26.902 Z-4.924 B5. C=DC(0.)
X11.326 Y27.28 Z-4.716 B5. C=DC(0.)
X11.326 Y27.659 Z-4.554 B5. C=DC(0.)
X11.326 Y28.069 Z-4.427 B5. C=DC(0.)
X11.326 Y28.479 Z-4.345 B5. C=DC(0.)
X11.326 Y28.908 Z-4.303 B5. C=DC(0.)
X11.326 Y29.338 Z-4.298 B5. C=DC(0.)
X11.326 Y37.5 Z-4.298 B5. C=DC(0.),7
X12.326 Y37.5 Z-4.131 B5. C=DC(0.),7
X12.326 Y29.264 Z-4.131 B5. C=DC(0.)
X12.326 Y28.83 Z-4.16 B5. C=DC(0.)
X12.326 Y28.418 Z-4.216 B5. C=DC(0.)
X12.326 Y28.005 Z-4.331 B5. C=DC(0.)
X12.326 Y27.609 Z-4.472 B5. C=DC(0.)
X12.326 Y27.229 Z-4.671 B5. C=DC(0.)
X12.326 Y26.875 Z-4.882 B5. C=DC(0.)
X12.326 Y26.543 Z-5.151 B5. C=DC(0.)
X12.326 Y26.238 Z-5.426 B5. C=DC(0.)
X12.326 Y21.673 Z-9.991 B5. C=DC(0.),3
X12.326 Y21.671 Z-9.992 B5. C=DC(0.),8
X12.326 Y-21.67 Z-9.992 B5. C=DC(0.),8
X12.326 Y-21.672 Z-9.992 B5. C=DC(0.),3
X12.326 Y-22.08 Z-9.584 B5. C=DC(0.)
X12.326 Y-22.245 Z-9.426 B5. C=DC(0.)
X12.326 Y-22.411 Z-9.279 B5. C=DC(0.)
X12.326 Y-22.592 Z-9.132 B5. C=DC(0.)
X12.326 Y-22.774 Z-9.003 B5. C=DC(0.)
X12.326 Y-22.967 Z-8.885 B5. C=DC(0.)
X12.326 Y-23.16 Z-8.775 B5. C=DC(0.)
X12.326 Y-23.364 Z-8.674 B5. C=DC(0.)
X12.326 Y-23.567 Z-8.587 B5. C=DC(0.)
X12.326 Y-23.989 Z-8.447 B5. C=DC(0.)
X12.326 Y-24.419 Z-8.352 B5. C=DC(0.)
X12.326 Y-24.855 Z-8.305 B5. C=DC(0.)
X12.326 Y-25.291 Z-8.298 B5. C=DC(0.)
X12.326 Y-37.5 Z-8.298 B5. C=DC(0.),7
X13.326 Y-37.5 Z-8.465 B5. C=DC(0.),7
X13.326 Y-24.855 Z-8.466 B5. C=DC(0.)
X13.326 Y-24.419 Z-8.497 B5. C=DC(0.)
X13.326 Y-23.986 Z-8.572 B5. C=DC(0.)
X13.326 Y-23.562 Z-8.695 B5. C=DC(0.)
X13.326 Y-23.254 Z-8.772 B5. C=DC(0.),1
X13.326 Y-23.146 Z-8.864 B5. C=DC(0.)
X13.326 Y-22.949 Z-8.965 B5. C=DC(0.)
X13.326 Y-22.752 Z-9.081 B5. C=DC(0.)
X13.326 Y-22.562 Z-9.201 B5. C=DC(0.)
X13.326 Y-22.371 Z-9.342 B5. C=DC(0.)
X13.326 Y-22.199 Z-9.484 B5. C=DC(0.)
X13.326 Y-22.027 Z-9.639 B5. C=DC(0.)
X13.326 Y-21.867 Z-9.797 B5. C=DC(0.)
X13.326 Y-21.673 Z-9.991 B5. C=DC(0.),3
X13.326 Y-21.671 Z-9.992 B5. C=DC(0.),8
X13.326 Y21.671 Z-9.992 B5. C=DC(0.),8
X13.326 Y21.672 Z-9.992 B5. C=DC(0.),3
X13.326 Y26.238 Z-5.426 B5. C=DC(0.)
X13.326 Y26.542 Z-5.125 B5. C=DC(0.)
X13.326 Y26.865 Z-4.851 B5. C=DC(0.)
X13.326 Y27.197 Z-4.613 B5. C=DC(0.)
X13.326 Y27.565 Z-4.408 B5. C=DC(0.)
X13.326 Y27.947 Z-4.236 B5. C=DC(0.)
X13.326 Y28.345 Z-4.11 B5. C=DC(0.)
X13.326 Y28.761 Z-4.018 B5. C=DC(0.)
X13.326 Y29.177 Z-3.975 B5. C=DC(0.)
X13.326 Y29.594 Z-3.965 B5. C=DC(0.)
X13.326 Y37.5 Z-3.965 B5. C=DC(0.),7
X14.326 Y37.5 Z-3.798 B5. C=DC(0.),7
X14.326 Y29.531 Z-3.799 B5. C=DC(0.)
X14.326 Y29.111 Z-3.832 B5. C=DC(0.)
X14.326 Y28.692 Z-3.896 B5. C=DC(0.)
X14.326 Y28.291 Z-4.012 B5. C=DC(0.)
X14.326 Y27.908 Z-4.154 B5. C=DC(0.)
X14.326 Y27.524 Z-4.358 B5. C=DC(0.)
X14.326 Y27.18 Z-4.569 B5. C=DC(0.)
X14.326 Y26.847 Z-4.841 B5. C=DC(0.)
X14.326 Y26.543 Z-5.121 B5. C=DC(0.)
X14.326 Y21.673 Z-9.991 B5. C=DC(0.),3
X14.326 Y21.671 Z-9.992 B5. C=DC(0.),8
X14.326 Y-21.669 Z-9.992 B5. C=DC(0.),8
X14.326 Y-21.836 Z-9.828 B5. C=DC(0.)
X14.326 Y-22.001 Z-9.678 B5. C=DC(0.)
X14.326 Y-22.179 Z-9.528 B5. C=DC(0.)
X14.326 Y-22.357 Z-9.395 B5. C=DC(0.)
X14.326 Y-22.546 Z-9.27 B5. C=DC(0.)
X14.326 Y-22.736 Z-9.158 B5. C=DC(0.)
X14.326 Y-22.937 Z-9.052 B5. C=DC(0.)
X14.326 Y-23.137 Z-8.96 B5. C=DC(0.)
X14.326 Y-23.553 Z-8.81 B5. C=DC(0.)
X14.326 Y-23.983 Z-8.703 B5. C=DC(0.)
X14.326 Y-24.419 Z-8.646 B5. C=DC(0.)
X14.326 Y-24.855 Z-8.631 B5. C=DC(0.)
X14.326 Y-37.5 Z-8.631 B5. C=DC(0.),7
X15.326 Y-37.5 Z-8.798 B5. C=DC(0.),7
X15.326 Y-24.855 Z-8.798 B5. C=DC(0.)
X15.326 Y-24.419 Z-8.802 B5. C=DC(0.)
X15.326 Y-23.983 Z-8.842 B5. C=DC(0.)
X15.326 Y-23.55 Z-8.93 B5. C=DC(0.)
X15.326 Y-23.129 Z-9.064 B5. C=DC(0.)
X15.326 Y-22.722 Z-9.243 B5. C=DC(0.)
X15.326 Y-22.333 Z-9.465 B5. C=DC(0.),6
X15.326 Y-22.148 Z-9.591 B5. C=DC(0.)
X15.326 Y-21.964 Z-9.733 B5. C=DC(0.)
X15.326 Y-21.671 Z-9.992 B5. C=DC(0.),8
X15.326 Y21.671 Z-9.992 B5. C=DC(0.),8
X15.326 Y21.672 Z-9.992 B5. C=DC(0.),3
X15.326 Y26.542 Z-5.122 B5. C=DC(0.)
X15.326 Y26.847 Z-4.818 B5. C=DC(0.)
X15.326 Y27.16 Z-4.55 B5. C=DC(0.)
X15.326 Y27.483 Z-4.309 B5. C=DC(0.)
X15.326 Y27.841 Z-4.107 B5. C=DC(0.)
X15.326 Y28.212 Z-3.929 B5. C=DC(0.)
X15.326 Y28.616 Z-3.797 B5. C=DC(0.)
X15.326 Y29.02 Z-3.697 B5. C=DC(0.)
X15.326 Y29.444 Z-3.648 B5. C=DC(0.)
X15.326 Y29.868 Z-3.631 B5. C=DC(0.)
X15.326 Y37.5 Z-3.631 B5. C=DC(0.),7
X16.326 Y37.5 Z-3.465 B5. C=DC(0.),7
X16.326 Y30.271 Z-3.465 B5. C=DC(0.)
X16.326 Y29.846 Z-3.466 B5. C=DC(0.)
X16.326 Y29.42 Z-3.501 B5. C=DC(0.)
X16.326 Y28.995 Z-3.57 B5. C=DC(0.)
X16.326 Y28.59 Z-3.69 B5. C=DC(0.)
X16.326 Y28.203 Z-3.839 B5. C=DC(0.)
X16.326 Y27.831 Z-4.039 B5. C=DC(0.)
X16.326 Y27.485 Z-4.256 B5. C=DC(0.)
X16.326 Y27.152 Z-4.531 B5. C=DC(0.)
X16.326 Y26.847 Z-4.817 B5. C=DC(0.)
X16.326 Y21.673 Z-9.991 B5. C=DC(0.),3
X16.326 Y21.671 Z-9.992 B5. C=DC(0.),8
X16.326 Y-21.687 Z-9.992 B5. C=DC(0.),8
X16.326 Y-21.938 Z-9.789 B5. C=DC(0.)
X16.326 Y-22.126 Z-9.657 B5. C=DC(0.)
X16.326 Y-22.314 Z-9.541 B5. C=DC(0.)
X16.326 Y-22.514 Z-9.43 B5. C=DC(0.)
X16.326 Y-22.713 Z-9.333 B5. C=DC(0.)
X16.326 Y-23.126 Z-9.174 B5. C=DC(0.)
X16.326 Y-23.55 Z-9.057 B5. C=DC(0.)
X16.326 Y-23.983 Z-8.989 B5. C=DC(0.)
X16.326 Y-24.419 Z-8.965 B5. C=DC(0.)
X16.326 Y-37.5 Z-8.965 B5. C=DC(0.),7
X17.326 Y-37.5 Z-9.131 B5. C=DC(0.),7
X17.326 Y-24.419 Z-9.131 B5. C=DC(0.)
X17.326 Y-23.983 Z-9.141 B5. C=DC(0.)
X17.326 Y-23.547 Z-9.192 B5. C=DC(0.)
X17.326 Y-23.117 Z-9.291 B5. C=DC(0.)
X17.326 Y-22.696 Z-9.436 B5. C=DC(0.)
X17.326 Y-22.097 Z-9.738 B5. C=DC(0.),6
X17.326 Y-21.906 Z-9.86 B5. C=DC(0.)
X17.326 Y-21.724 Z-9.992 B5. C=DC(0.),8
X17.326 Y21.67 Z-9.992 B5. C=DC(0.),3
X17.326 Y21.672 Z-9.992 B5. C=DC(0.),8
X17.326 Y27.151 Z-4.513 B5. C=DC(0.)
X17.326 Y27.455 Z-4.251 B5. C=DC(0.)
X17.326 Y27.779 Z-4. B5. C=DC(0.)
X17.326 Y28.139 Z-3.795 B5. C=DC(0.)
X17.326 Y28.514 Z-3.608 B5. C=DC(0.)
X17.326 Y28.904 Z-3.478 B5. C=DC(0.)
X17.326 Y29.314 Z-3.371 B5. C=DC(0.)
X17.326 Y29.723 Z-3.321 B5. C=DC(0.)
X17.326 Y30.155 Z-3.298 B5. C=DC(0.)
X17.326 Y37.5 Z-3.298 B5. C=DC(0.),7
X18.326 Y37.5 Z-3.131 B5. C=DC(0.),7
X18.326 Y30.577 Z-3.131 B5. C=DC(0.)
X18.326 Y30.144 Z-3.133 B5. C=DC(0.)
X18.326 Y29.712 Z-3.172 B5. C=DC(0.)
X18.326 Y29.302 Z-3.243 B5. C=DC(0.)
X18.326 Y28.892 Z-3.366 B5. C=DC(0.)
X18.326 Y28.501 Z-3.523 B5. C=DC(0.)
X18.326 Y28.126 Z-3.726 B5. C=DC(0.)
X18.326 Y27.791 Z-3.944 B5. C=DC(0.)
X18.326 Y27.456 Z-4.222 B5. C=DC(0.)
X18.326 Y27.152 Z-4.512 B5. C=DC(0.)
X18.326 Y21.673 Z-9.991 B5. C=DC(0.),3
X18.326 Y21.671 Z-9.992 B5. C=DC(0.),8
X18.326 Y-21.789 Z-9.992 B5. C=DC(0.),8
X18.326 Y-22.082 Z-9.816 B5. C=DC(0.)
X18.326 Y-22.277 Z-9.714 B5. C=DC(0.)
X18.326 Y-22.484 Z-9.621 B5. C=DC(0.)
X18.326 Y-22.69 Z-9.541 B5. C=DC(0.)
X18.326 Y-23.114 Z-9.414 B5. C=DC(0.)
X18.326 Y-23.547 Z-9.334 B5. C=DC(0.)
X18.326 Y-23.983 Z-9.3 B5. C=DC(0.)
X18.326 Y-24.419 Z-9.298 B5. C=DC(0.)
X18.326 Y-37.5 Z-9.298 B5. C=DC(0.),7
X19.326 Y-37.5 Z-9.465 B5. C=DC(0.),7
X19.326 Y-23.983 Z-9.465 B5. C=DC(0.)
X19.326 Y-23.547 Z-9.482 B5. C=DC(0.)
X19.326 Y-23.464 Z-9.544 B5. C=DC(0.),1
X19.326 Y-22.687 Z-9.653 B5. C=DC(0.),6
X19.326 Y-22.272 Z-9.807 B5. C=DC(0.)
X19.326 Y-21.898 Z-9.992 B5. C=DC(0.),8
X19.326 Y21.671 Z-9.992 B5. C=DC(0.),8
X19.326 Y21.673 Z-9.991 B5. C=DC(0.)
X19.326 Y27.456 Z-4.208 B5. C=DC(0.)
X19.326 Y27.76 Z-3.942 B5. C=DC(0.)
X19.326 Y28.096 Z-3.677 B5. C=DC(0.)
X19.326 Y28.458 Z-3.47 B5. C=DC(0.)
X19.326 Y28.835 Z-3.48 B5. C=DC(0.),1
X19.326 Y29.228 Z-3.148 B5. C=DC(0.)
X19.326 Y29.642 Z-3.038 B5. C=DC(0.)
X19.326 Y30.056 Z-2.988 B5. C=DC(0.)
X19.326 Y30.469 Z-2.965 B5. C=DC(0.)
X19.326 Y37.5 Z-2.965 B5. C=DC(0.),7
X20.326 Y37.5 Z-2.798 B5. C=DC(0.),7
X20.326 Y30.825 Z-2.798 B5. C=DC(0.)
X20.326 Y30.408 Z-2.804 B5. C=DC(0.)
X20.326 Y29.991 Z-2.845 B5. C=DC(0.)
X20.326 Y29.573 Z-2.927 B5. C=DC(0.)
X20.326 Y29.177 Z-3.048 B5. C=DC(0.)
X20.326 Y28.799 Z-3.207 B5. C=DC(0.)
X20.326 Y28.421 Z-3.414 B5. C=DC(0.)
X20.326 Y28.084 Z-3.642 B5. C=DC(0.)
X20.326 Y27.76 Z-3.913 B5. C=DC(0.)
X20.326 Y27.455 Z-4.209 B5. C=DC(0.)
X20.326 Y21.672 Z-9.992 B5. C=DC(0.),8
X20.326 Y21.67 Z-9.992 B5. C=DC(0.),3
X20.326 Y-22.063 Z-9.992 B5. C=DC(0.),8
X20.326 Y-22.26 Z-9.911 B5. C=DC(0.)
X20.326 Y-22.681 Z-9.773 B5. C=DC(0.)
X20.326 Y-23.11 Z-9.681 B5. C=DC(0.)
X20.326 Y-23.547 Z-9.636 B5. C=DC(0.)
X20.326 Y-23.983 Z-9.631 B5. C=DC(0.)
X20.326 Y-37.5 Z-9.631 B5. C=DC(0.),7
X21.326 Y-37.5 Z-9.798 B5. C=DC(0.),7
X21.326 Y-23.547 Z-9.798 B5. C=DC(0.)
X21.326 Y-23.11 Z-9.826 B5. C=DC(0.)
X21.326 Y-22.678 Z-9.899 B5. C=DC(0.)
X21.326 Y-22.254 Z-9.992 B5. C=DC(0.),8
X21.326 Y21.671 Z-9.992 B5. C=DC(0.),8
X21.326 Y21.672 Z-9.992 B5. C=DC(0.),3
X21.326 Y27.76 Z-3.904 B5. C=DC(0.)
X21.326 Y28.064 Z-3.633 B5. C=DC(0.)
X21.326 Y28.401 Z-3.364 B5. C=DC(0.)
X21.326 Y28.751 Z-3.158 B5. C=DC(0.)
X21.326 Y29.132 Z-2.962 B5. C=DC(0.)
X21.326 Y29.53 Z-2.824 B5. C=DC(0.)
X21.326 Y29.929 Z-2.714 B5. C=DC(0.)
X21.326 Y30.349 Z-2.659 B5. C=DC(0.)
X21.326 Y30.77 Z-2.631 B5. C=DC(0.)
X21.326 Y37.5 Z-2.631 B5. C=DC(0.),7
X22.326 Y37.5 Z-2.465 B5. C=DC(0.),7
X22.326 Y31.149 Z-2.465 B5. C=DC(0.)
X22.326 Y30.726 Z-2.472 B5. C=DC(0.)
X22.326 Y30.303 Z-2.514 B5. C=DC(0.)
X22.326 Y29.903 Z-2.595 B5. C=DC(0.)
X22.326 Y30.503 Z-2.718 B5. C=DC(0.),2
X22.326 Y29.122 Z-2.879 B5. C=DC(0.),6
X22.326 Y28.741 Z-3.087 B5. C=DC(0.)
X22.326 Y28.404 Z-3.32 B5. C=DC(0.)
X22.326 Y28.08 Z-3.592 B5. C=DC(0.)
X22.326 Y27.776 Z-3.888 B5. C=DC(0.)
X22.326 Y21.698 Z-9.966 B5. C=DC(0.),3
X22.326 Y21.696 Z-9.967 B5. C=DC(0.),8
X22.326 Y20.856 Z-9.867 B5. C=DC(0.)
X22.326 Y20.002 Z-9.771 B5. C=DC(0.)
X22.326 Y19.576 Z-9.724 B5. C=DC(0.)
X22.326 Y18.722 Z-9.636 B5. C=DC(0.)
X22.326 Y18.295 Z-9.594 B5. C=DC(0.)
X22.326 Y17.442 Z-9.516 B5. C=DC(0.)
X22.326 Y16.134 Z-9.409 B5. C=DC(0.)
X22.326 Y15.262 Z-9.348 B5. C=DC(0.)
X22.326 Y14.39 Z-9.291 B5. C=DC(0.)
X22.326 Y13.517 Z-9.246 B5. C=DC(0.)
X22.326 Y13.081 Z-9.226 B5. C=DC(0.)
X22.326 Y12.209 Z-9.195 B5. C=DC(0.)
X22.326 Y11.773 Z-9.185 B5. C=DC(0.)
X22.326 Y10.901 Z-9.17 B5. C=DC(0.)
X22.326 Y10.465 Z-9.164 B5. C=DC(0.)
X22.326 Y10.029 Z-9.164 B5. C=DC(0.)
X22.326 Y-37.5 Z-9.164 B5. C=DC(0.),7
X23.326 Y-37.5 Z-8.164 B5. C=DC(0.),7
X23.326 Y4.36 Z-8.164 B5. C=DC(0.)
X23.326 Y4.797 Z-8.168 B5. C=DC(0.)
X23.326 Y6.105 Z-8.195 B5. C=DC(0.)
X23.326 Y6.541 Z-8.207 B5. C=DC(0.)
X23.326 Y7.413 Z-8.241 B5. C=DC(0.)
X23.326 Y8.285 Z-8.285 B5. C=DC(0.)
X23.326 Y8.721 Z-8.313 B5. C=DC(0.)
X23.326 Y10.029 Z-8.404 B5. C=DC(0.)
X23.326 Y10.901 Z-8.471 B5. C=DC(0.)
X23.326 Y11.766 Z-8.545 B5. C=DC(0.)
X23.326 Y12.624 Z-8.626 B5. C=DC(0.)
X23.326 Y13.482 Z-8.714 B5. C=DC(0.)
X23.326 Y14.768 Z-8.858 B5. C=DC(0.)
X23.326 Y15.626 Z-8.959 B5. C=DC(0.)
X23.326 Y16.484 Z-9.066 B5. C=DC(0.)
X23.326 Y17.342 Z-9.179 B5. C=DC(0.)
X23.326 Y18.2 Z-9.297 B5. C=DC(0.)
X23.326 Y18.628 Z-9.358 B5. C=DC(0.)
X23.326 Y19.486 Z-9.484 B5. C=DC(0.)
X23.326 Y19.915 Z-9.549 B5. C=DC(0.)
X23.326 Y20.773 Z-9.682 B5. C=DC(0.)
X23.326 Y21.813 Z-9.851 B5. C=DC(0.),3
X23.326 Y21.815 Z-9.849 B5. C=DC(0.),8
X23.326 Y27.966 Z-3.698 B5. C=DC(0.)
X23.326 Y28.274 Z-3.402 B5. C=DC(0.)
X23.326 Y28.603 Z-3.128 B5. C=DC(0.)
X23.326 Y28.945 Z-2.9 B5. C=DC(0.)
X23.326 Y29.317 Z-2.698 B5. C=DC(0.)
X23.326 Y29.707 Z-2.539 B5. C=DC(0.)
X23.326 Y30.117 Z-2.415 B5. C=DC(0.)
X23.326 Y30.527 Z-2.341 B5. C=DC(0.)
X23.326 Y30.937 Z-2.302 B5. C=DC(0.)
X23.326 Y31.348 Z-2.298 B5. C=DC(0.)
X23.326 Y37.5 Z-2.298 B5. C=DC(0.),7
X24.326 Y37.5 Z-2.131 B5. C=DC(0.),7
X24.326 Y31.28 Z-2.131 B5. C=DC(0.)
X24.326 Y30.865 Z-2.158 B5. C=DC(0.)
X24.326 Y30.451 Z-2.209 B5. C=DC(0.)
X24.326 Y30.036 Z-2.323 B5. C=DC(0.)
X24.326 Y29.643 Z-2.457 B5. C=DC(0.)
X24.326 Y29.269 Z-2.649 B5. C=DC(0.)
X24.326 Y28.911 Z-2.857 B5. C=DC(0.)
X24.326 Y28.581 Z-3.119 B5. C=DC(0.)
X24.326 Y28.273 Z-3.391 B5. C=DC(0.)
X24.326 Y21.815 Z-9.849 B5. C=DC(0.),8
X24.326 Y21.813 Z-9.85 B5. C=DC(0.),3
X24.326 Y15.992 Z-8.88 B5. C=DC(0.)
X24.326 Y15.132 Z-8.74 B5. C=DC(0.)
X24.326 Y14.702 Z-8.671 B5. C=DC(0.)
X24.326 Y13.842 Z-8.538 B5. C=DC(0.)
X24.326 Y12.121 Z-8.286 B5. C=DC(0.)
X24.326 Y11.261 Z-8.168 B5. C=DC(0.)
X24.326 Y10.4 Z-8.056 B5. C=DC(0.)
X24.326 Y9.97 Z-8.001 B5. C=DC(0.)
X24.326 Y9.11 Z-7.898 B5. C=DC(0.)
X24.326 Y7.819 Z-7.751 B5. C=DC(0.)
X24.326 Y6.529 Z-7.617 B5. C=DC(0.)
X24.326 Y5.669 Z-7.536 B5. C=DC(0.)
X24.326 Y4.797 Z-7.463 B5. C=DC(0.)
X24.326 Y4.36 Z-7.429 B5. C=DC(0.)
X24.326 Y2.616 Z-7.306 B5. C=DC(0.)
X24.326 Y2.18 Z-7.279 B5. C=DC(0.)
X24.326 Y1.308 Z-7.236 B5. C=DC(0.)
X24.326 Y.436 Z-7.205 B5. C=DC(0.)
X24.326 Y0. Z-7.194 B5. C=DC(0.)
X24.326 Y-.436 Z-7.187 B5. C=DC(0.)
X24.326 Y-1.308 Z-7.166 B5. C=DC(0.)
X24.326 Y-1.744 Z-7.164 B5. C=DC(0.)
X24.326 Y-37.5 Z-7.164 B5. C=DC(0.),7
X25.326 Y-37.5 Z-6.164 B5. C=DC(0.),7
X25.326 Y-7.849 Z-6.164 B5. C=DC(0.)
X25.326 Y-7.413 Z-6.165 B5. C=DC(0.)
X25.326 Y-6.977 Z-6.172 B5. C=DC(0.)
X25.326 Y-5.233 Z-6.216 B5. C=DC(0.)
X25.326 Y-4.36 Z-6.252 B5. C=DC(0.)
X25.326 Y-3.488 Z-6.299 B5. C=DC(0.)
X25.326 Y-1.308 Z-6.455 B5. C=DC(0.)
X25.326 Y-.436 Z-6.527 B5. C=DC(0.)
X25.326 Y.426 Z-6.607 B5. C=DC(0.)
X25.326 Y.857 Z-6.65 B5. C=DC(0.)
X25.326 Y1.719 Z-6.741 B5. C=DC(0.)
X25.326 Y2.582 Z-6.84 B5. C=DC(0.)
X25.326 Y3.013 Z-6.888 B5. C=DC(0.)
X25.326 Y3.875 Z-6.99 B5. C=DC(0.)
X25.326 Y5.168 Z-7.155 B5. C=DC(0.)
X25.326 Y6.03 Z-7.273 B5. C=DC(0.)
X25.326 Y6.461 Z-7.335 B5. C=DC(0.)
X25.326 Y7.324 Z-7.463 B5. C=DC(0.)
X25.326 Y7.755 Z-7.526 B5. C=DC(0.)
X25.326 Y8.617 Z-7.658 B5. C=DC(0.)
X25.326 Y9.479 Z-7.796 B5. C=DC(0.)
X25.326 Y9.91 Z-7.867 B5. C=DC(0.)
X25.326 Y21.812 Z-9.85 B5. C=DC(0.),8
X25.326 Y21.814 Z-9.85 B5. C=DC(0.),3
X25.326 Y28.273 Z-3.391 B5. C=DC(0.)
X25.326 Y28.581 Z-3.091 B5. C=DC(0.)
X25.326 Y28.899 Z-2.825 B5. C=DC(0.)
X25.326 Y29.23 Z-2.594 B5. C=DC(0.)
X25.326 Y29.606 Z-2.388 B5. C=DC(0.)
X25.326 Y29.982 Z-2.225 B5. C=DC(0.)
X25.326 Y30.377 Z-2.102 B5. C=DC(0.)
X25.326 Y30.796 Z-2.015 B5. C=DC(0.)
X25.326 Y31.215 Z-1.973 B5. C=DC(0.)
X25.326 Y31.634 Z-1.965 B5. C=DC(0.)
X25.326 Y37.5 Z-1.965 B5. C=DC(0.),7
X26.326 Y37.5 Z-1.798 B5. C=DC(0.),7
X26.326 Y31.595 Z-1.798 B5. C=DC(0.)
X26.326 Y31.173 Z-1.827 B5. C=DC(0.)
X26.326 Y30.752 Z-1.883 B5. C=DC(0.)
X26.326 Y30.355 Z-1.994 B5. C=DC(0.)
X26.326 Y29.958 Z-2.132 B5. C=DC(0.)
X26.326 Y29.581 Z-2.327 B5. C=DC(0.)
X26.326 Y29.236 Z-2.529 B5. C=DC(0.)
X26.326 Y28.906 Z-2.793 B5. C=DC(0.)
X26.326 Y28.599 Z-3.065 B5. C=DC(0.)
X26.326 Y21.815 Z-9.849 B5. C=DC(0.),8
X26.326 Y21.813 Z-9.85 B5. C=DC(0.),3
X26.326 Y3.822 Z-6.852 B5. C=DC(0.)
X26.326 Y2.958 Z-6.712 B5. C=DC(0.)
X26.326 Y2.095 Z-6.578 B5. C=DC(0.)
X26.326 Y1.231 Z-6.451 B5. C=DC(0.)
X26.326 Y.368 Z-6.322 B5. C=DC(0.)
X26.326 Y-.064 Z-6.26 B5. C=DC(0.)
X26.326 Y-.928 Z-6.143 B5. C=DC(0.)
X26.326 Y-2.223 Z-5.979 B5. C=DC(0.)
X26.326 Y-2.655 Z-5.927 B5. C=DC(0.)
X26.326 Y-3.95 Z-5.779 B5. C=DC(0.)
X26.326 Y-4.114 Z-5.684 B5. C=DC(0.),1
X26.326 Y-5.677 Z-5.597 B5. C=DC(0.)
X26.326 Y-6.541 Z-5.519 B5. C=DC(0.)
X26.326 Y-6.577 Z-5.483 B5. C=DC(0.),3
X26.326 Y-7.413 Z-5.449 B5. C=DC(0.)
X26.326 Y-8.285 Z-5.387 B5. C=DC(0.)
X26.326 Y-9.157 Z-5.321 B5. C=DC(0.)
X26.326 Y-9.593 Z-5.292 B5. C=DC(0.)
X26.326 Y-10.465 Z-5.247 B5. C=DC(0.)
X26.326 Y-11.337 Z-5.214 B5. C=DC(0.)
X26.326 Y-12.209 Z-5.194 B5. C=DC(0.)
X26.326 Y-13.081 Z-5.17 B5. C=DC(0.)
X26.326 Y-13.517 Z-5.164 B5. C=DC(0.)
X26.326 Y-37.5 Z-5.164 B5. C=DC(0.),7
X27.326 Y-37.5 Z-4.164 B5. C=DC(0.),7
X27.326 Y-19.622 Z-4.164 B5. C=DC(0.)
X27.326 Y-19.186 Z-4.168 B5. C=DC(0.)
X27.326 Y-18.75 Z-4.178 B5. C=DC(0.)
X27.326 Y-17.878 Z-4.204 B5. C=DC(0.)
X27.326 Y-17.006 Z-4.226 B5. C=DC(0.)
X27.326 Y-16.57 Z-4.242 B5. C=DC(0.)
X27.326 Y-15.698 Z-4.286 B5. C=DC(0.)
X27.326 Y-15.262 Z-4.314 B5. C=DC(0.)
X27.326 Y-14.826 Z-4.345 B5. C=DC(0.)
X27.326 Y-13.953 Z-4.413 B5. C=DC(0.)
X27.326 Y-13.081 Z-4.475 B5. C=DC(0.)
X27.326 Y-12.209 Z-4.548 B5. C=DC(0.)
X27.326 Y-11.777 Z-4.588 B5. C=DC(0.)
X27.326 Y-11.345 Z-4.629 B5. C=DC(0.)
X27.326 Y-10.48 Z-4.72 B5. C=DC(0.)
X27.326 Y-10.048 Z-4.769 B5. C=DC(0.)
X27.326 Y-9.184 Z-4.868 B5. C=DC(0.)
X27.326 Y-8.319 Z-4.968 B5. C=DC(0.)
X27.326 Y-7.454 Z-5.074 B5. C=DC(0.)
X27.326 Y-6.59 Z-5.188 B5. C=DC(0.)
X27.326 Y-5.725 Z-5.309 B5. C=DC(0.)
X27.326 Y-5.293 Z-5.373 B5. C=DC(0.)
X27.326 Y-4.429 Z-5.502 B5. C=DC(0.)
X27.326 Y-3.996 Z-5.566 B5. C=DC(0.)
X27.326 Y-3.132 Z-5.698 B5. C=DC(0.)
X27.326 Y-1.844 Z-5.907 B5. C=DC(0.)
X27.326 Y21.812 Z-9.85 B5. C=DC(0.),8
X27.326 Y21.814 Z-9.85 B5. C=DC(0.),3
X27.326 Y28.58 Z-3.084 B5. C=DC(0.)
X27.326 Y28.888 Z-2.78 B5. C=DC(0.)
X27.326 Y29.207 Z-2.514 B5. C=DC(0.)
X27.326 Y29.526 Z-2.282 B5. C=DC(0.)
X27.326 Y29.888 Z-2.084 B5. C=DC(0.)
X27.326 Y30.251 Z-1.914 B5. C=DC(0.)
X27.326 Y30.654 Z-1.787 B5. C=DC(0.)
X27.326 Y31.056 Z-1.691 B5. C=DC(0.)
X27.326 Y31.486 Z-1.646 B5. C=DC(0.)
X27.326 Y31.915 Z-1.631 B5. C=DC(0.)
X27.326 Y37.5 Z-1.631 B5. C=DC(0.),7
X28.326 Y37.5 Z-1.465 B5. C=DC(0.),7
X28.326 Y31.877 Z-1.465 B5. C=DC(0.)
X28.326 Y31.445 Z-1.5 B5. C=DC(0.)
X28.326 Y31.041 Z-1.559 B5. C=DC(0.)
X28.326 Y30.637 Z-1.677 B5. C=DC(0.)
X28.326 Y30.256 Z-1.814 B5. C=DC(0.)
X28.326 Y29.875 Z-2.015 B5. C=DC(0.)
X28.326 Y29.528 Z-2.225 B5. C=DC(0.)
X28.326 Y29.196 Z-2.495 B5. C=DC(0.)
X28.326 Y28.888 Z-2.776 B5. C=DC(0.)
X28.326 Y21.814 Z-9.85 B5. C=DC(0.),8
X28.326 Y21.813 Z-9.85 B5. C=DC(0.),3
X28.326 Y-7.946 Z-4.891 B5. C=DC(0.)
X28.326 Y-8.803 Z-4.75 B5. C=DC(0.)
X28.326 Y-9.661 Z-4.617 B5. C=DC(0.)
X28.326 Y-11.391 Z-4.359 B5. C=DC(0.)
X28.326 Y-11.824 Z-4.295 B5. C=DC(0.)
X28.326 Y-12.689 Z-4.175 B5. C=DC(0.)
X28.326 Y-13.555 Z-4.062 B5. C=DC(0.)
X28.326 Y-13.987 Z-4.008 B5. C=DC(0.)
X28.326 Y-14.42 Z-3.956 B5. C=DC(0.)
X28.326 Y-16.151 Z-3.758 B5. C=DC(0.)
X28.326 Y-16.583 Z-3.709 B5. C=DC(0.)
X28.326 Y-17.449 Z-3.619 B5. C=DC(0.)
X28.326 Y-18.314 Z-3.539 B5. C=DC(0.)
X28.326 Y-19.186 Z-3.469 B5. C=DC(0.)
X28.326 Y-19.622 Z-3.438 B5. C=DC(0.)
X28.326 Y-20.93 Z-3.338 B5. C=DC(0.)
X28.326 Y-21.366 Z-3.307 B5. C=DC(0.)
X28.326 Y-21.802 Z-3.28 B5. C=DC(0.)
X28.326 Y-22.674 Z-3.239 B5. C=DC(0.)
X28.326 Y-23.11 Z-3.223 B5. C=DC(0.)
X28.326 Y-23.547 Z-3.213 B5. C=DC(0.)
X28.326 Y-24.855 Z-3.175 B5. C=DC(0.)
X28.326 Y-25.291 Z-3.166 B5. C=DC(0.)
X28.326 Y-25.727 Z-3.164 B5. C=DC(0.)
X28.326 Y-37.5 Z-3.164 B5. C=DC(0.),7
X29.326 Y-37.5 Z-2.164 B5. C=DC(0.),7
X29.326 Y-31.831 Z-2.164 B5. C=DC(0.)
X29.326 Y-31.395 Z-2.165 B5. C=DC(0.)
X29.326 Y-30.959 Z-2.173 B5. C=DC(0.)
X29.326 Y-29.651 Z-2.211 B5. C=DC(0.)
X29.326 Y-28.779 Z-2.235 B5. C=DC(0.)
X29.326 Y-28.343 Z-2.253 B5. C=DC(0.)
X29.326 Y-27.907 Z-2.274 B5. C=DC(0.)
X29.326 Y-27.471 Z-2.3 B5. C=DC(0.)
X29.326 Y-27.035 Z-2.33 B5. C=DC(0.)
X29.326 Y-25.727 Z-2.43 B5. C=DC(0.)
X29.326 Y-24.855 Z-2.495 B5. C=DC(0.)
X29.326 Y-24.419 Z-2.53 B5. C=DC(0.)
X29.326 Y-23.55 Z-2.609 B5. C=DC(0.)
X29.326 Y-22.684 Z-2.698 B5. C=DC(0.)
X29.326 Y-22.251 Z-2.747 B5. C=DC(0.)
X29.326 Y-20.519 Z-2.946 B5. C=DC(0.)
X29.326 Y-20.086 Z-2.997 B5. C=DC(0.)
X29.326 Y-19.22 Z-3.104 B5. C=DC(0.)
X29.326 Y-18.354 Z-3.221 B5. C=DC(0.)
X29.326 Y-17.488 Z-3.345 B5. C=DC(0.)
X29.326 Y-16.199 Z-3.538 B5. C=DC(0.)
X29.326 Y-15.34 Z-3.667 B5. C=DC(0.)
X29.326 Y-14.051 Z-3.873 B5. C=DC(0.)
X29.326 Y21.813 Z-9.85 B5. C=DC(0.),8
X29.326 Y21.815 Z-9.849 B5. C=DC(0.),3
X29.326 Y28.889 Z-2.775 B5. C=DC(0.)
X29.326 Y29.196 Z-2.47 B5. C=DC(0.)
X29.326 Y29.515 Z-2.202 B5. C=DC(0.)
X29.326 Y29.848 Z-1.956 B5. C=DC(0.)
X29.326 Y30.213 Z-1.756 B5. C=DC(0.)
X29.326 Y30.596 Z-1.577 B5. C=DC(0.)
X29.326 Y30.513 Z-1.756 B5. C=DC(0.),2
X29.326 Y31.002 Z-1.45 B5. C=DC(0.)
X29.326 Y31.408 Z-1.355 B5. C=DC(0.)
X29.326 Y31.814 Z-1.313 B5. C=DC(0.)
X29.326 Y32.221 Z-1.298 B5. C=DC(0.)
X29.326 Y37.5 Z-1.298 B5. C=DC(0.),7
X30.326 Y37.5 Z-1.131 B5. C=DC(0.),7
X30.326 Y32.591 Z-1.131 B5. C=DC(0.)
X30.326 Y32.182 Z-1.132 B5. C=DC(0.)
X30.326 Y31.773 Z-1.168 B5. C=DC(0.)
X30.326 Y31.364 Z-1.228 B5. C=DC(0.)
X30.326 Y30.955 Z-1.349 B5. C=DC(0.)
X30.326 Y30.57 Z-1.49 B5. C=DC(0.)
X30.326 Y30.185 Z-1.694 B5. C=DC(0.)
X30.326 Y29.836 Z-1.91 B5. C=DC(0.)
X30.326 Y29.503 Z-2.183 B5. C=DC(0.)
X30.326 Y29.195 Z-2.468 B5. C=DC(0.)
X30.326 Y21.814 Z-9.85 B5. C=DC(0.),8
X30.326 Y21.812 Z-9.85 B5. C=DC(0.),3
X30.326 Y-20.15 Z-2.857 B5. C=DC(0.)
X30.326 Y-21.44 Z-2.652 B5. C=DC(0.)
X30.326 Y-23.591 Z-2.33 B5. C=DC(0.)
X30.326 Y-24.022 Z-2.267 B5. C=DC(0.)
X30.326 Y-24.888 Z-2.148 B5. C=DC(0.)
X30.326 Y-25.755 Z-2.037 B5. C=DC(0.)
X30.326 Y-26.188 Z-1.985 B5. C=DC(0.)
X30.326 Y-28.354 Z-1.736 B5. C=DC(0.),6
X30.326 Y-28.787 Z-1.687 B5. C=DC(0.)
X30.326 Y-29.654 Z-1.599 B5. C=DC(0.)
X30.326 Y-30.523 Z-1.522 B5. C=DC(0.)
X30.326 Y-31.395 Z-1.456 B5. C=DC(0.)
X30.326 Y-32.703 Z-1.355 B5. C=DC(0.)
X30.326 Y-33.14 Z-1.322 B5. C=DC(0.)
X30.326 Y-33.576 Z-1.293 B5. C=DC(0.)
X30.326 Y-34.012 Z-1.269 B5. C=DC(0.)
X30.326 Y-34.448 Z-1.248 B5. C=DC(0.)
X30.326 Y-34.884 Z-1.233 B5. C=DC(0.)
X30.326 Y-36.628 Z-1.182 B5. C=DC(0.),6
X30.326 Y-37.064 Z-1.17 B5. C=DC(0.)
X30.326 Y-37.5 Z-1.164 B5. C=DC(0.),7
X30.357 Y-37.5 Z-1.136 B5. C=DC(0.),3
X30.576 Y-37.5 Z-.952 B5. C=DC(0.),3
X30.826 Y-37.5 Z-.749 B5. C=DC(0.),3
X31.078 Y-37.5 Z-.587 B5. C=DC(0.),3
X31.326 Y-37.5 Z-.453 B5. C=DC(0.),7
X31.326 Y-37.064 Z-.481 B5. C=DC(0.)
X31.326 Y-36.192 Z-.55 B5. C=DC(0.)
X31.326 Y-35.325 Z-.631 B5. C=DC(0.)
X31.326 Y-34.458 Z-.725 B5. C=DC(0.)
X31.326 Y-31.857 Z-1.025 B5. C=DC(0.),6
X31.326 Y-30.99 Z-1.134 B5. C=DC(0.)
X31.326 Y-30.123 Z-1.253 B5. C=DC(0.)
X31.326 Y-29.692 Z-1.316 B5. C=DC(0.)
X31.326 Y-27.539 Z-1.638 B5. C=DC(0.),6
X31.326 Y-26.677 Z-1.771 B5. C=DC(0.)
X31.326 Y-25.816 Z-1.912 B5. C=DC(0.)
X31.326 Y21.812 Z-9.85 B5. C=DC(0.),8
X31.326 Y21.814 Z-9.85 B5. C=DC(0.),3
X31.326 Y29.503 Z-2.161 B5. C=DC(0.)
X31.326 Y29.811 Z-1.9 B5. C=DC(0.)
X31.326 Y30.145 Z-1.645 B5. C=DC(0.)
X31.326 Y30.513 Z-1.441 B5. C=DC(0.)
X31.326 Y30.881 Z-1.262 B5. C=DC(0.)
X31.326 Y31.27 Z-1.137 B5. C=DC(0.)
X31.326 Y31.685 Z-1.031 B5. C=DC(0.)
X31.326 Y32.101 Z-.985 B5. C=DC(0.)
X31.326 Y32.516 Z-.965 B5. C=DC(0.)
X31.326 Y37.5 Z-.965 B5. C=DC(0.),7
X32.326 Y37.5 Z-.798 B5. C=DC(0.),7
X32.326 Y32.873 Z-.798 B5. C=DC(0.)
X32.326 Y32.453 Z-.802 B5. C=DC(0.)
X32.326 Y32.032 Z-.842 B5. C=DC(0.)
X32.326 Y31.611 Z-.917 B5. C=DC(0.)
X32.326 Y31.219 Z-1.037 B5. C=DC(0.)
X32.326 Y30.849 Z-1.183 B5. C=DC(0.)
X32.326 Y30.48 Z-1.381 B5. C=DC(0.)
X32.326 Y30.145 Z-1.596 B5. C=DC(0.)
X32.326 Y29.811 Z-1.87 B5. C=DC(0.)
X32.326 Y29.504 Z-2.16 B5. C=DC(0.)
X32.326 Y21.815 Z-9.849 B5. C=DC(0.),3
X32.326 Y21.813 Z-9.85 B5. C=DC(0.),8
X32.326 Y-32.318 Z-.829 B5. C=DC(0.)
X32.326 Y-33.18 Z-.693 B5. C=DC(0.)
X32.326 Y-35.766 Z-.306 B5. C=DC(0.)
X32.326 Y-36.197 Z-.243 B5. C=DC(0.)
X32.326 Y-37.064 Z-.125 B5. C=DC(0.)
X32.326 Y-37.5 Z-.085 B5. C=DC(0.),7
X32.576 Y-37.5 Z-.044 B5. C=DC(0.),3
X32.826 Y-37.5 Z-.019 B5. C=DC(0.),3
X33.076 Y-37.5 Z.004 B5. C=DC(0.),3
X33.326 Y-37.5 Z.008 B5. C=DC(0.),7
X33.326 Y-37.064 Z-.037 B5. C=DC(0.)
X33.326 Y21.812 Z-9.85 B5. C=DC(0.),8
X33.326 Y21.814 Z-9.85 B5. C=DC(0.),3
X33.326 Y29.811 Z-1.853 B5. C=DC(0.)
X33.326 Y30.118 Z-1.588 B5. C=DC(0.)
X33.326 Y30.454 Z-1.328 B5. C=DC(0.)
X33.326 Y30.806 Z-1.129 B5. C=DC(0.)
X33.326 Y31.178 Z-.943 B5. C=DC(0.)
X33.326 Y31.573 Z-.813 B5. C=DC(0.)
X33.326 Y31.968 Z-.706 B5. C=DC(0.)
X33.326 Y32.394 Z-.656 B5. C=DC(0.)
X33.326 Y32.819 Z-.631 B5. C=DC(0.)
X33.326 Y37.5 Z-.631 B5. C=DC(0.),7
X34.326 Y37.5 Z-.465 B5. C=DC(0.),7
X34.326 Y33.192 Z-.465 B5. C=DC(0.)
X34.326 Y32.761 Z-.47 B5. C=DC(0.)
X34.326 Y32.33 Z-.512 B5. C=DC(0.)
X34.326 Y31.933 Z-.587 B5. C=DC(0.)
X34.326 Y31.535 Z-.709 B5. C=DC(0.)
X34.326 Y31.162 Z-.86 B5. C=DC(0.)
X34.326 Y30.789 Z-1.061 B5. C=DC(0.)
X34.326 Y30.454 Z-1.282 B5. C=DC(0.)
X34.326 Y30.118 Z-1.559 B5. C=DC(0.)
X34.326 Y29.811 Z-1.853 B5. C=DC(0.)
X34.326 Y21.814 Z-9.85 B5. C=DC(0.),8
X34.326 Y21.812 Z-9.85 B5. C=DC(0.),3
X34.326 Y-37.064 Z-.037 B5. C=DC(0.)
X34.326 Y-37.5 Z.008 B5. C=DC(0.),7
X35.326 Y-37.5 Z.008 B5. C=DC(0.),7
X35.326 Y-37.064 Z-.037 B5. C=DC(0.)
X35.326 Y21.812 Z-9.85 B5. C=DC(0.),8
X35.326 Y21.814 Z-9.85 B5. C=DC(0.),3
X35.326 Y30.118 Z-1.546 B5. C=DC(0.)
X35.326 Y30.426 Z-1.276 B5. C=DC(0.)
X35.326 Y30.763 Z-1.011 B5. C=DC(0.)
X35.326 Y31.117 Z-.807 B5. C=DC(0.)
X35.326 Y31.493 Z-.617 B5. C=DC(0.)
X35.326 Y31.893 Z-.484 B5. C=DC(0.)
X35.326 Y32.294 Z-.374 B5. C=DC(0.)
X35.326 Y32.694 Z-.326 B5. C=DC(0.)
X35.326 Y33.095 Z-.298 B5. C=DC(0.)
X35.326 Y37.5 Z-.298 B5. C=DC(0.),7
X36.326 Y37.5 Z-.131 B5. C=DC(0.),7
X36.326 Y33.457 Z-.131 B5. C=DC(0.)
X36.326 Y33.053 Z-.14 B5. C=DC(0.)
X36.326 Y32.648 Z-.181 B5. C=DC(0.)
X36.326 Y32.244 Z-.261 B5. C=DC(0.)
X36.326 Y31.84 Z-.385 B5. C=DC(0.)
X36.326 Y31.462 Z-.545 B5. C=DC(0.)
X36.326 Y31.085 Z-.748 B5. C=DC(0.)
X36.326 Y30.747 Z-.982 B5. C=DC(0.)
X36.326 Y30.426 Z-1.247 B5. C=DC(0.)
X36.326 Y30.118 Z-1.546 B5. C=DC(0.)
X36.326 Y21.814 Z-9.85 B5. C=DC(0.),8
X36.326 Y21.812 Z-9.85 B5. C=DC(0.),3
X36.326 Y-37.064 Z-.037 B5. C=DC(0.)
X36.326 Y-37.5 Z.008 B5. C=DC(0.),7
X36.326 Y-37.97 Z.067 B5. C=DC(0.)
X36.326 Y-38.436 Z.149 B5. C=DC(0.)
X36.326 Y-38.898 Z.253 B5. C=DC(0.)
X36.326 Y-39.354 Z.379 B5. C=DC(0.)
X36.326 Y-39.804 Z.526 B5. C=DC(0.)
X36.326 Y-40.247 Z.695 B5. C=DC(0.)
X36.326 Y-40.681 Z.884 B5. C=DC(0.)
X36.326 Y-41.105 Z1.093 B5. C=DC(0.)
X36.326 Y-41.52 Z1.322 B5. C=DC(0.)
X36.326 Y-41.922 Z1.571 B5. C=DC(0.)
X36.326 Y-42.313 Z1.838 B5. C=DC(0.)
X36.326 Y-42.691 Z2.124 B5. C=DC(0.)
X36.326 Y-43.054 Z2.427 B5. C=DC(0.)
X36.326 Y-43.403 Z2.747 B5. C=DC(0.)
X36.326 Y-43.737 Z3.083 B5. C=DC(0.)
X36.326 Y-44.054 Z3.435 B5. C=DC(0.)
X36.326 Y-44.354 Z3.801 B5. C=DC(0.)
X36.326 Y-44.636 Z4.181 B5. C=DC(0.)
X36.326 Y-44.9 Z4.574 B5. C=DC(0.)
X36.326 Y-45.146 Z4.979 B5. C=DC(0.)
X36.326 Y-45.371 Z5.395 B5. C=DC(0.)
X36.326 Y-45.577 Z5.821 B5. C=DC(0.)
X36.326 Y-45.763 Z6.257 B5. C=DC(0.)
X36.326 Y-45.927 Z6.701 B5. C=DC(0.)
X36.326 Y-46.071 Z7.152 B5. C=DC(0.)
X36.326 Y-46.193 Z7.609 B5. C=DC(0.)
X36.326 Y-46.293 Z8.072 B5. C=DC(0.)
X36.326 Y-46.371 Z8.539 B5. C=DC(0.)
X36.326 Y-46.427 Z9.009 B5. C=DC(0.)
X36.326 Y-46.46 Z9.481 B5. C=DC(0.)
X36.326 Y-46.471 Z9.955 B5. C=DC(0.)
X36.326 Y-46.471 Z10.455 B5. C=DC(0.)
G00 Z50.008
CYCLE832(0,_OFF,1)
G64
TRAFOOF
M05
G00 SUPA Z0. D0
G00 SUPA X-255. Y175.
D1
M51 ; C-Axis lock-off
M53 ; C-Axis lock-off
G00 B0. C=DC(0.)
ROT
TRANS
M30