;%_N_2_MPF
;MASTERCAM - 2024
;MCX PATH  - G:\ФЃаЭПт\ЧЧвуВЉ\
;MCAM FILE - ЖржсФЃаЭ.MCAM
;POST      - HEN-Xxzy_LITZ_LU400_SIEMENS.PST
;PROGRAM   - 2.MPF
;DATE      - 2026.03.12
;TIME      - 2:49 PM
;T1   - 4 ЧђЕЖ/дВБЧЯГЕЖ            - D1   - D4.000mm - R2.000mm
G00 G17 G40 G71 G90
G00 SUPA Z0. D0
G00 SUPA X-255. Y175.
D1
M51 ; C-Axis lock-off
M53 ; C-Axis lock-off
G00 B0. C=DC(0.)
M1

N1
;OPERATION NO - 12
;OPERATION TYPE - CONVERT 5AX
T1 ;4 ЧђЕЖ/дВБЧЯГЕЖ
M06
D1
G54 G90
G00 X-36.674 Y-47.5
B5. C=DC(0.)
TRAORI
CYCLE832(.025,_ROUGH,1)
X-36.674 Y-47.5 Z50.008 S3000 M03
Z7.508
G94 G01 X-36.674 Y-47.5 Z7.008 B5. C=DC(0.) F360.
X-36.674 Y-47.489 Z6.546 B5. C=DC(0.)
X-36.674 Y-47.457 Z6.085 B5. C=DC(0.),3
X-36.674 Y-47.404 Z5.626 B5. C=DC(0.),3
X-36.674 Y-47.33 Z5.17 B5. C=DC(0.),3
X-36.674 Y-47.234 Z4.718 B5. C=DC(0.),3
X-36.674 Y-47.118 Z4.271 B5. C=DC(0.),3
X-36.674 Y-46.982 Z3.83 B5. C=DC(0.),3
X-36.674 Y-46.825 Z3.395 B5. C=DC(0.),3
X-36.674 Y-46.648 Z2.968 B5. C=DC(0.),3
X-36.674 Y-46.452 Z2.55 B5. C=DC(0.),3
X-36.674 Y-46.236 Z2.142 B5. C=DC(0.),3
X-36.674 Y-46.002 Z1.743 B5. C=DC(0.),3
X-36.674 Y-45.75 Z1.356 B5. C=DC(0.),3
X-36.674 Y-45.48 Z.981 B5. C=DC(0.),3
X-36.674 Y-45.193 Z.619 B5. C=DC(0.),3
X-36.674 Y-44.89 Z.271 B5. C=DC(0.),3
X-36.674 Y-44.571 Z-.063 B5. C=DC(0.),3
X-36.674 Y-44.237 Z-.382 B5. C=DC(0.),3
X-36.674 Y-43.888 Z-.686 B5. C=DC(0.),3
X-36.674 Y-43.526 Z-.973 B5. C=DC(0.),3
X-36.674 Y-43.151 Z-1.242 B5. C=DC(0.),3
X-36.674 Y-42.764 Z-1.495 B5. C=DC(0.),3
X-36.674 Y-42.366 Z-1.729 B5. C=DC(0.),3
X-36.674 Y-41.957 Z-1.944 B5. C=DC(0.),3
X-36.674 Y-41.539 Z-2.14 B5. C=DC(0.),3
X-36.674 Y-41.112 Z-2.317 B5. C=DC(0.),3
X-36.674 Y-40.678 Z-2.474 B5. C=DC(0.),3
X-36.674 Y-40.237 Z-2.611 B5. C=DC(0.),3
X-36.674 Y-39.79 Z-2.727 B5. C=DC(0.),3
X-36.674 Y-39.337 Z-2.822 B5. C=DC(0.),3
X-36.674 Y-38.882 Z-2.896 B5. C=DC(0.),3
X-36.674 Y-38.423 Z-2.95 B5. C=DC(0.),3
X-36.674 Y-37.962 Z-2.982 B5. C=DC(0.),3
X-36.674 Y-37.5 Z-2.992 B5. C=DC(0.),7
X-36.674 Y37.5 Z-2.992 B5. C=DC(0.),7
X-35.674 Y37.5 Z-2.992 B5. C=DC(0.),7
X-35.674 Y-37.5 Z-2.992 B5. C=DC(0.),7
X-34.674 Y-37.5 Z-2.992 B5. C=DC(0.),7
X-34.674 Y37.5 Z-2.992 B5. C=DC(0.),7
X-33.674 Y37.5 Z-2.992 B5. C=DC(0.),7
X-33.674 Y-37.5 Z-2.992 B5. C=DC(0.),7
X-32.674 Y-37.5 Z-2.992 B5. C=DC(0.),7
X-32.674 Y37.5 Z-2.992 B5. C=DC(0.),7
X-31.674 Y37.5 Z-2.992 B5. C=DC(0.),7
X-31.674 Y14.049 Z-2.992 B5. C=DC(0.),8
X-31.674 Y13.638 Z-2.899 B5. C=DC(0.)
X-31.674 Y13.211 Z-2.809 B5. C=DC(0.)
X-31.674 Y12.785 Z-2.726 B5. C=DC(0.)
X-31.674 Y12.359 Z-2.648 B5. C=DC(0.)
X-31.674 Y11.933 Z-2.575 B5. C=DC(0.)
X-31.674 Y11.074 Z-2.444 B5. C=DC(0.)
X-31.674 Y10.641 Z-2.386 B5. C=DC(0.)
X-31.674 Y9.774 Z-2.282 B5. C=DC(0.)
X-31.674 Y9.341 Z-2.238 B5. C=DC(0.)
X-31.674 Y8.908 Z-2.196 B5. C=DC(0.)
X-31.674 Y8.041 Z-2.126 B5. C=DC(0.)
X-31.674 Y7.175 Z-2.07 B5. C=DC(0.)
X-31.674 Y6.742 Z-2.048 B5. C=DC(0.)
X-31.674 Y6.308 Z-2.029 B5. C=DC(0.)
X-31.674 Y5.442 Z-2.002 B5. C=DC(0.)
X-31.674 Y5.009 Z-1.993 B5. C=DC(0.)
X-31.674 Y4.142 Z-1.984 B5. C=DC(0.)
X-31.674 Y3.276 Z-1.988 B5. C=DC(0.)
X-31.674 Y2.843 Z-1.995 B5. C=DC(0.)
X-31.674 Y1.976 Z-2.021 B5. C=DC(0.)
X-31.674 Y1.543 Z-2.04 B5. C=DC(0.)
X-31.674 Y1.11 Z-2.062 B5. C=DC(0.)
X-31.674 Y.243 Z-2.118 B5. C=DC(0.)
X-31.674 Y-.623 Z-2.186 B5. C=DC(0.)
X-31.674 Y-1.49 Z-2.266 B5. C=DC(0.)
X-31.674 Y-2.356 Z-2.358 B5. C=DC(0.)
X-31.674 Y-2.789 Z-2.411 B5. C=DC(0.)
X-31.674 Y-3.222 Z-2.465 B5. C=DC(0.)
X-31.674 Y-3.651 Z-2.529 B5. C=DC(0.)
X-31.674 Y-4.08 Z-2.596 B5. C=DC(0.)
X-31.674 Y-4.937 Z-2.745 B5. C=DC(0.)
X-31.674 Y-5.794 Z-2.907 B5. C=DC(0.)
X-31.674 Y-6.219 Z-2.992 B5. C=DC(0.),8
X-31.674 Y-6.22 Z-2.992 B5. C=DC(0.),3
X-31.674 Y-37.5 Z-2.992 B5. C=DC(0.),7
X-30.674 Y-37.5 Z-2.992 B5. C=DC(0.),7
X-30.674 Y-10.584 Z-2.992 B5. C=DC(0.)
X-30.674 Y-10.165 Z-2.866 B5. C=DC(0.)
X-30.674 Y-9.325 Z-2.649 B5. C=DC(0.)
X-30.674 Y-8.473 Z-2.448 B5. C=DC(0.)
X-30.674 Y-7.622 Z-2.262 B5. C=DC(0.)
X-30.674 Y-7.196 Z-2.179 B5. C=DC(0.)
X-30.674 Y-6.766 Z-2.1 B5. C=DC(0.),6
X-30.674 Y-4.188 Z-1.712 B5. C=DC(0.)
X-30.674 Y-3.324 Z-1.608 B5. C=DC(0.)
X-30.674 Y-2.455 Z-1.522 B5. C=DC(0.)
X-30.674 Y-2.021 Z-1.485 B5. C=DC(0.)
X-30.674 Y-1.152 Z-1.419 B5. C=DC(0.)
X-30.674 Y-.284 Z-1.364 B5. C=DC(0.)
X-30.674 Y.585 Z-1.32 B5. C=DC(0.)
X-30.674 Y1.454 Z-1.286 B5. C=DC(0.)
X-30.674 Y2.322 Z-1.264 B5. C=DC(0.)
X-30.674 Y3.191 Z-1.254 B5. C=DC(0.)
X-30.674 Y4.059 Z-1.257 B5. C=DC(0.)
X-30.674 Y4.928 Z-1.274 B5. C=DC(0.)
X-30.674 Y5.796 Z-1.303 B5. C=DC(0.)
X-30.674 Y6.665 Z-1.343 B5. C=DC(0.)
X-30.674 Y7.534 Z-1.397 B5. C=DC(0.)
X-30.674 Y8.402 Z-1.463 B5. C=DC(0.)
X-30.674 Y8.837 Z-1.501 B5. C=DC(0.)
X-30.674 Y9.705 Z-1.587 B5. C=DC(0.)
X-30.674 Y10.574 Z-1.689 B5. C=DC(0.)
X-30.674 Y11.429 Z-1.806 B5. C=DC(0.)
X-30.674 Y11.856 Z-1.87 B5. C=DC(0.)
X-30.674 Y12.283 Z-1.939 B5. C=DC(0.)
X-30.674 Y12.711 Z-2.013 B5. C=DC(0.)
X-30.674 Y13.138 Z-2.091 B5. C=DC(0.)
X-30.674 Y13.566 Z-2.176 B5. C=DC(0.)
X-30.674 Y13.993 Z-2.266 B5. C=DC(0.)
X-30.674 Y14.413 Z-2.359 B5. C=DC(0.)
X-30.674 Y14.832 Z-2.461 B5. C=DC(0.)
X-30.674 Y15.252 Z-2.568 B5. C=DC(0.)
X-30.674 Y15.672 Z-2.683 B5. C=DC(0.)
X-30.674 Y16.092 Z-2.805 B5. C=DC(0.)
X-30.674 Y16.503 Z-2.934 B5. C=DC(0.)
X-30.674 Y16.679 Z-2.992 B5. C=DC(0.),8
X-30.674 Y16.68 Z-2.992 B5. C=DC(0.),3
X-30.674 Y37.5 Z-2.992 B5. C=DC(0.),7
X-29.674 Y37.5 Z-2.992 B5. C=DC(0.),7
X-29.674 Y18.071 Z-2.992 B5. C=DC(0.),8
X-29.674 Y17.729 Z-2.858 B5. C=DC(0.)
X-29.674 Y17.317 Z-2.705 B5. C=DC(0.)
X-29.674 Y16.905 Z-2.564 B5. C=DC(0.)
X-29.674 Y16.493 Z-2.432 B5. C=DC(0.)
X-29.674 Y16.073 Z-2.305 B5. C=DC(0.)
X-29.674 Y15.653 Z-2.187 B5. C=DC(0.)
X-29.674 Y15.232 Z-2.077 B5. C=DC(0.)
X-29.674 Y14.812 Z-1.974 B5. C=DC(0.)
X-29.674 Y14.392 Z-1.876 B5. C=DC(0.)
X-29.674 Y13.972 Z-1.783 B5. C=DC(0.)
X-29.674 Y13.544 Z-1.696 B5. C=DC(0.)
X-29.674 Y12.689 Z-1.534 B5. C=DC(0.)
X-29.674 Y11.833 Z-1.393 B5. C=DC(0.)
X-29.674 Y11.405 Z-1.327 B5. C=DC(0.)
X-29.674 Y10.55 Z-1.209 B5. C=DC(0.)
X-29.674 Y9.687 Z-1.106 B5. C=DC(0.)
X-29.674 Y9.253 Z-1.058 B5. C=DC(0.)
X-29.674 Y8.384 Z-.973 B5. C=DC(0.)
X-29.674 Y7.949 Z-.937 B5. C=DC(0.)
X-29.674 Y7.515 Z-.901 B5. C=DC(0.)
X-29.674 Y6.645 Z-.843 B5. C=DC(0.)
X-29.674 Y5.776 Z-.798 B5. C=DC(0.)
X-29.674 Y4.907 Z-.765 B5. C=DC(0.)
X-29.674 Y4.473 Z-.754 B5. C=DC(0.)
X-29.674 Y4.038 Z-.744 B5. C=DC(0.)
X-29.674 Y3.169 Z-.732 B5. C=DC(0.)
X-29.674 Y2.3 Z-.731 B5. C=DC(0.)
X-29.674 Y1.431 Z-.741 B5. C=DC(0.)
X-29.674 Y.561 Z-.76 B5. C=DC(0.)
X-29.674 Y-.308 Z-.789 B5. C=DC(0.)
X-29.674 Y-1.177 Z-.829 B5. C=DC(0.)
X-29.674 Y-2.046 Z-.883 B5. C=DC(0.)
X-29.674 Y-2.915 Z-.951 B5. C=DC(0.)
X-29.674 Y-5.514 Z-1.219 B5. C=DC(0.),6
X-29.674 Y-5.944 Z-1.272 B5. C=DC(0.)
X-29.674 Y-6.804 Z-1.39 B5. C=DC(0.)
X-29.674 Y-7.664 Z-1.529 B5. C=DC(0.)
X-29.674 Y-8.521 Z-1.682 B5. C=DC(0.)
X-29.674 Y-9.373 Z-1.849 B5. C=DC(0.)
X-29.674 Y-9.799 Z-1.938 B5. C=DC(0.)
X-29.674 Y-10.225 Z-2.03 B5. C=DC(0.)
X-29.674 Y-10.647 Z-2.129 B5. C=DC(0.)
X-29.674 Y-11.492 Z-2.349 B5. C=DC(0.)
X-29.674 Y-12.33 Z-2.585 B5. C=DC(0.)
X-29.674 Y-12.745 Z-2.711 B5. C=DC(0.)
X-29.674 Y-13.157 Z-2.845 B5. C=DC(0.)
X-29.674 Y-13.57 Z-2.992 B5. C=DC(0.),8
X-29.674 Y-37.5 Z-2.992 B5. C=DC(0.),7
X-28.674 Y-37.5 Z-2.992 B5. C=DC(0.),7
X-28.674 Y-15.722 Z-2.992 B5. C=DC(0.),8
X-28.674 Y-15.317 Z-2.831 B5. C=DC(0.)
X-28.674 Y-14.907 Z-2.682 B5. C=DC(0.)
X-28.674 Y-14.498 Z-2.543 B5. C=DC(0.)
X-28.674 Y-14.085 Z-2.408 B5. C=DC(0.)
X-28.674 Y-13.669 Z-2.276 B5. C=DC(0.)
X-28.674 Y-13.253 Z-2.153 B5. C=DC(0.)
X-28.674 Y-12.834 Z-2.036 B5. C=DC(0.)
X-28.674 Y-12.411 Z-1.928 B5. C=DC(0.)
X-28.674 Y-11.565 Z-1.723 B5. C=DC(0.)
X-28.674 Y-10.715 Z-1.534 B5. C=DC(0.)
X-28.674 Y-10.288 Z-1.446 B5. C=DC(0.)
X-28.674 Y-9.862 Z-1.362 B5. C=DC(0.)
X-28.674 Y-9.435 Z-1.286 B5. C=DC(0.)
X-28.674 Y-9.004 Z-1.212 B5. C=DC(0.)
X-28.674 Y-8.143 Z-1.076 B5. C=DC(0.)
X-28.674 Y-7.713 Z-1.013 B5. C=DC(0.)
X-28.674 Y-6.851 Z-.894 B5. C=DC(0.)
X-28.674 Y-5.99 Z-.787 B5. C=DC(0.)
X-28.674 Y-5.56 Z-.738 B5. C=DC(0.)
X-28.674 Y-4.69 Z-.653 B5. C=DC(0.)
X-28.674 Y-3.82 Z-.58 B5. C=DC(0.)
X-28.674 Y-3.385 Z-.549 B5. C=DC(0.)
X-28.674 Y-.775 Z-.407 B5. C=DC(0.),6
X-28.674 Y-.34 Z-.391 B5. C=DC(0.)
X-28.674 Y.53 Z-.367 B5. C=DC(0.)
X-28.674 Y1.399 Z-.356 B5. C=DC(0.)
X-28.674 Y1.834 Z-.355 B5. C=DC(0.)
X-28.674 Y2.269 Z-.357 B5. C=DC(0.)
X-28.674 Y3.139 Z-.369 B5. C=DC(0.)
X-28.674 Y4.009 Z-.39 B5. C=DC(0.)
X-28.674 Y4.879 Z-.422 B5. C=DC(0.)
X-28.674 Y5.314 Z-.442 B5. C=DC(0.)
X-28.674 Y5.749 Z-.464 B5. C=DC(0.)
X-28.674 Y6.619 Z-.516 B5. C=DC(0.)
X-28.674 Y7.489 Z-.579 B5. C=DC(0.)
X-28.674 Y7.924 Z-.616 B5. C=DC(0.)
X-28.674 Y8.359 Z-.654 B5. C=DC(0.)
X-28.674 Y9.229 Z-.741 B5. C=DC(0.)
X-28.674 Y10.085 Z-.841 B5. C=DC(0.)
X-28.674 Y10.514 Z-.896 B5. C=DC(0.)
X-28.674 Y11.37 Z-1.017 B5. C=DC(0.)
X-28.674 Y12.227 Z-1.155 B5. C=DC(0.)
X-28.674 Y12.655 Z-1.231 B5. C=DC(0.)
X-28.674 Y13.512 Z-1.394 B5. C=DC(0.)
X-28.674 Y13.94 Z-1.484 B5. C=DC(0.)
X-28.674 Y14.369 Z-1.579 B5. C=DC(0.)
X-28.674 Y14.789 Z-1.676 B5. C=DC(0.)
X-28.674 Y15.21 Z-1.78 B5. C=DC(0.)
X-28.674 Y15.63 Z-1.89 B5. C=DC(0.)
X-28.674 Y16.051 Z-2.008 B5. C=DC(0.)
X-28.674 Y16.472 Z-2.133 B5. C=DC(0.)
X-28.674 Y16.884 Z-2.263 B5. C=DC(0.)
X-28.674 Y17.296 Z-2.402 B5. C=DC(0.)
X-28.674 Y17.709 Z-2.55 B5. C=DC(0.)
X-28.674 Y18.112 Z-2.707 B5. C=DC(0.)
X-28.674 Y18.516 Z-2.876 B5. C=DC(0.)
X-28.674 Y18.779 Z-2.992 B5. C=DC(0.),8
X-28.674 Y37.5 Z-2.992 B5. C=DC(0.),7
X-27.674 Y37.5 Z-2.992 B5. C=DC(0.),7
X-27.674 Y19.001 Z-2.992 B5. C=DC(0.),8
X-27.674 Y18.614 Z-2.813 B5. C=DC(0.)
X-27.674 Y18.212 Z-2.641 B5. C=DC(0.)
X-27.674 Y17.81 Z-2.481 B5. C=DC(0.)
X-27.674 Y17.4 Z-2.328 B5. C=DC(0.)
X-27.674 Y16.99 Z-2.186 B5. C=DC(0.)
X-27.674 Y16.58 Z-2.052 B5. C=DC(0.)
X-27.674 Y16.161 Z-1.923 B5. C=DC(0.)
X-27.674 Y15.743 Z-1.801 B5. C=DC(0.)
X-27.674 Y15.324 Z-1.686 B5. C=DC(0.)
X-27.674 Y14.906 Z-1.578 B5. C=DC(0.)
X-27.674 Y14.488 Z-1.476 B5. C=DC(0.)
X-27.674 Y14.062 Z-1.376 B5. C=DC(0.)
X-27.674 Y13.635 Z-1.283 B5. C=DC(0.)
X-27.674 Y12.783 Z-1.112 B5. C=DC(0.)
X-27.674 Y12.357 Z-1.035 B5. C=DC(0.)
X-27.674 Y11.505 Z-.891 B5. C=DC(0.)
X-27.674 Y10.645 Z-.762 B5. C=DC(0.)
X-27.674 Y10.212 Z-.702 B5. C=DC(0.)
X-27.674 Y9.346 Z-.592 B5. C=DC(0.)
X-27.674 Y8.48 Z-.494 B5. C=DC(0.)
X-27.674 Y7.613 Z-.409 B5. C=DC(0.)
X-27.674 Y7.18 Z-.371 B5. C=DC(0.)
X-27.674 Y6.747 Z-.334 B5. C=DC(0.)
X-27.674 Y6.181 Z-.5271 B5. C=DC(0.),1
X-27.674 Y5.014 Z-.22 B5. C=DC(0.)
X-27.674 Y4.581 Z-.2 B5. C=DC(0.)
X-27.674 Y4.148 Z-.181 B5. C=DC(0.)
X-27.674 Y3.282 Z-.153 B5. C=DC(0.)
X-27.674 Y2.416 Z-.134 B5. C=DC(0.)
X-27.674 Y1.982 Z-.129 B5. C=DC(0.)
X-27.674 Y1.549 Z-.125 B5. C=DC(0.)
X-27.674 Y.683 Z-.124 B5. C=DC(0.)
X-27.674 Y-.183 Z-.134 B5. C=DC(0.)
X-27.674 Y-1.049 Z-.151 B5. C=DC(0.)
X-27.674 Y-1.916 Z-.179 B5. C=DC(0.)
X-27.674 Y-2.782 Z-.219 B5. C=DC(0.)
X-27.674 Y-3.648 Z-.271 B5. C=DC(0.)
X-27.674 Y-4.081 Z-.301 B5. C=DC(0.)
X-27.674 Y-4.948 Z-.369 B5. C=DC(0.)
X-27.674 Y-5.381 Z-.406 B5. C=DC(0.)
X-27.674 Y-5.814 Z-.446 B5. C=DC(0.)
X-27.674 Y-6.68 Z-.534 B5. C=DC(0.)
X-27.674 Y-7.547 Z-.633 B5. C=DC(0.)
X-27.674 Y-7.98 Z-.687 B5. C=DC(0.)
X-27.674 Y-8.413 Z-.744 B5. C=DC(0.)
X-27.674 Y-8.842 Z-.805 B5. C=DC(0.)
X-27.674 Y-9.271 Z-.871 B5. C=DC(0.)
X-27.674 Y-9.7 Z-.941 B5. C=DC(0.)
X-27.674 Y-10.558 Z-1.09 B5. C=DC(0.)
X-27.674 Y-11.417 Z-1.253 B5. C=DC(0.)
X-27.674 Y-12.267 Z-1.431 B5. C=DC(0.)
X-27.674 Y-12.693 Z-1.527 B5. C=DC(0.)
X-27.674 Y-13.114 Z-1.629 B5. C=DC(0.)
X-27.674 Y-13.536 Z-1.737 B5. C=DC(0.)
X-27.674 Y-14.376 Z-1.971 B5. C=DC(0.)
X-27.674 Y-14.795 Z-2.094 B5. C=DC(0.)
X-27.674 Y-15.21 Z-2.224 B5. C=DC(0.)
X-27.674 Y-15.622 Z-2.359 B5. C=DC(0.)
X-27.674 Y-16.03 Z-2.504 B5. C=DC(0.)
X-27.674 Y-16.439 Z-2.66 B5. C=DC(0.)
X-27.674 Y-16.841 Z-2.823 B5. C=DC(0.)
X-27.674 Y-17.243 Z-2.992 B5. C=DC(0.),8
X-27.674 Y-37.5 Z-2.992 B5. C=DC(0.),7
X-26.674 Y-37.5 Z-2.992 B5. C=DC(0.),7
X-26.674 Y-18.261 Z-2.992 B5. C=DC(0.),8
X-26.674 Y-17.864 Z-2.812 B5. C=DC(0.)
X-26.674 Y-17.466 Z-2.646 B5. C=DC(0.)
X-26.674 Y-17.064 Z-2.488 B5. C=DC(0.)
X-26.674 Y-16.657 Z-2.337 B5. C=DC(0.)
X-26.674 Y-16.247 Z-2.192 B5. C=DC(0.)
X-26.674 Y-15.834 Z-2.054 B5. C=DC(0.)
X-26.674 Y-15.417 Z-1.925 B5. C=DC(0.)
X-26.674 Y-15. Z-1.805 B5. C=DC(0.)
X-26.674 Y-14.58 Z-1.69 B5. C=DC(0.)
X-26.674 Y-14.16 Z-1.58 B5. C=DC(0.)
X-26.674 Y-13.317 Z-1.375 B5. C=DC(0.)
X-26.674 Y-12.893 Z-1.279 B5. C=DC(0.)
X-26.674 Y-12.043 Z-1.099 B5. C=DC(0.)
X-26.674 Y-11.616 Z-1.018 B5. C=DC(0.)
X-26.674 Y-9.034 Z-.609 B5. C=DC(0.),6
X-26.674 Y-8.172 Z-.499 B5. C=DC(0.)
X-26.674 Y-7.311 Z-.4 B5. C=DC(0.)
X-26.674 Y-6.441 Z-.311 B5. C=DC(0.)
X-26.674 Y-5.57 Z-.236 B5. C=DC(0.)
X-26.674 Y-4.7 Z-.175 B5. C=DC(0.)
X-26.674 Y-3.83 Z-.123 B5. C=DC(0.)
X-26.674 Y-2.96 Z-.082 B5. C=DC(0.)
X-26.674 Y-2.525 Z-.065 B5. C=DC(0.)
X-26.674 Y-1.655 Z-.037 B5. C=DC(0.)
X-26.674 Y-.785 Z-.018 B5. C=DC(0.)
X-26.674 Y.085 Z-.008 B5. C=DC(0.)
X-26.674 Y.52 Z-.007 B5. C=DC(0.)
X-26.674 Y.955 Z-.008 B5. C=DC(0.)
X-26.674 Y1.825 Z-.02 B5. C=DC(0.)
X-26.674 Y2.696 Z-.043 B5. C=DC(0.)
X-26.674 Y3.566 Z-.076 B5. C=DC(0.)
X-26.674 Y4.436 Z-.119 B5. C=DC(0.)
X-26.674 Y4.871 Z-.145 B5. C=DC(0.)
X-26.674 Y5.306 Z-.172 B5. C=DC(0.)
X-26.674 Y6.176 Z-.634 B5. C=DC(0.),1
X-26.674 Y7.046 Z-.307 B5. C=DC(0.)
X-26.674 Y7.481 Z-.348 B5. C=DC(0.)
X-26.674 Y7.916 Z-.391 B5. C=DC(0.)
X-26.674 Y8.786 Z-.487 B5. C=DC(0.)
X-26.674 Y9.215 Z-.54 B5. C=DC(0.)
X-26.674 Y10.072 Z-.657 B5. C=DC(0.)
X-26.674 Y10.929 Z-.788 B5. C=DC(0.)
X-26.674 Y11.786 Z-.934 B5. C=DC(0.)
X-26.674 Y12.215 Z-1.012 B5. C=DC(0.)
X-26.674 Y13.072 Z-1.181 B5. C=DC(0.)
X-26.674 Y13.493 Z-1.27 B5. C=DC(0.)
X-26.674 Y13.914 Z-1.364 B5. C=DC(0.)
X-26.674 Y14.335 Z-1.463 B5. C=DC(0.)
X-26.674 Y14.757 Z-1.568 B5. C=DC(0.)
X-26.674 Y15.178 Z-1.681 B5. C=DC(0.)
X-26.674 Y15.599 Z-1.801 B5. C=DC(0.)
X-26.674 Y16.012 Z-1.924 B5. C=DC(0.)
X-26.674 Y16.425 Z-2.054 B5. C=DC(0.)
X-26.674 Y16.839 Z-2.193 B5. C=DC(0.)
X-26.674 Y17.252 Z-2.34 B5. C=DC(0.)
X-26.674 Y17.657 Z-2.494 B5. C=DC(0.)
X-26.674 Y18.062 Z-2.657 B5. C=DC(0.)
X-26.674 Y18.459 Z-2.831 B5. C=DC(0.)
X-26.674 Y18.798 Z-2.992 B5. C=DC(0.),8
X-26.674 Y18.799 Z-2.992 B5. C=DC(0.),3
X-26.674 Y37.5 Z-2.992 B5. C=DC(0.),7
X-25.674 Y37.5 Z-2.992 B5. C=DC(0.),7
X-25.674 Y18.193 Z-2.992 B5. C=DC(0.),8
X-25.674 Y17.897 Z-2.855 B5. C=DC(0.)
X-25.674 Y17.497 Z-2.684 B5. C=DC(0.)
X-25.674 Y17.097 Z-2.526 B5. C=DC(0.)
X-25.674 Y16.689 Z-2.374 B5. C=DC(0.)
X-25.674 Y16.281 Z-2.229 B5. C=DC(0.)
X-25.674 Y15.865 Z-2.089 B5. C=DC(0.)
X-25.674 Y15.449 Z-1.956 B5. C=DC(0.)
X-25.674 Y15.033 Z-1.833 B5. C=DC(0.)
X-25.674 Y14.617 Z-1.719 B5. C=DC(0.)
X-25.674 Y14.193 Z-1.607 B5. C=DC(0.)
X-25.674 Y13.769 Z-1.501 B5. C=DC(0.)
X-25.674 Y12.922 Z-1.304 B5. C=DC(0.)
X-25.674 Y12.498 Z-1.212 B5. C=DC(0.)
X-25.674 Y11.65 Z-1.04 B5. C=DC(0.)
X-25.674 Y10.796 Z-.887 B5. C=DC(0.)
X-25.674 Y10.365 Z-.817 B5. C=DC(0.)
X-25.674 Y9.504 Z-.687 B5. C=DC(0.)
X-25.674 Y9.073 Z-.628 B5. C=DC(0.)
X-25.674 Y8.642 Z-.57 B5. C=DC(0.)
X-25.674 Y7.781 Z-.465 B5. C=DC(0.)
X-25.674 Y6.919 Z-.371 B5. C=DC(0.)
X-25.674 Y6.489 Z-.329 B5. C=DC(0.)
X-25.674 Y6.058 Z-.688 B5. C=DC(0.),1
X-25.674 Y5.196 Z-.217 B5. C=DC(0.)
X-25.674 Y2.141 Z-.058 B5. C=DC(0.),6
X-25.674 Y1.704 Z-.044 B5. C=DC(0.)
X-25.674 Y.831 Z-.025 B5. C=DC(0.)
X-25.674 Y-.042 Z-.015 B5. C=DC(0.)
X-25.674 Y-.915 Z-.014 B5. C=DC(0.)
X-25.674 Y-1.788 Z-.022 B5. C=DC(0.)
X-25.674 Y-2.225 Z-.032 B5. C=DC(0.)
X-25.674 Y-2.661 Z-.043 B5. C=DC(0.)
X-25.674 Y-3.534 Z-.076 B5. C=DC(0.)
X-25.674 Y-4.407 Z-.118 B5. C=DC(0.)
X-25.674 Y-4.844 Z-.144 B5. C=DC(0.)
X-25.674 Y-5.28 Z-.171 B5. C=DC(0.)
X-25.674 Y-6.145 Z-.233 B5. C=DC(0.)
X-25.674 Y-6.577 Z-.267 B5. C=DC(0.)
X-25.674 Y-7.441 Z-.345 B5. C=DC(0.)
X-25.674 Y-7.873 Z-.387 B5. C=DC(0.)
X-25.674 Y-7.841 Z-.345 B5. C=DC(0.),2
X-25.674 Y-8.737 Z-.481 B5. C=DC(0.)
X-25.674 Y-9.602 Z-.588 B5. C=DC(0.)
X-25.674 Y-10.034 Z-.648 B5. C=DC(0.)
X-25.674 Y-10.466 Z-.71 B5. C=DC(0.)
X-25.674 Y-11.322 Z-.848 B5. C=DC(0.)
X-25.674 Y-12.179 Z-1. B5. C=DC(0.)
X-25.674 Y-12.607 Z-1.081 B5. C=DC(0.)
X-25.674 Y-13.46 Z-1.257 B5. C=DC(0.)
X-25.674 Y-13.885 Z-1.352 B5. C=DC(0.)
X-25.674 Y-14.731 Z-1.555 B5. C=DC(0.)
X-25.674 Y-15.152 Z-1.664 B5. C=DC(0.)
X-25.674 Y-15.57 Z-1.782 B5. C=DC(0.)
X-25.674 Y-15.988 Z-1.906 B5. C=DC(0.)
X-25.674 Y-16.402 Z-2.036 B5. C=DC(0.)
X-25.674 Y-16.817 Z-2.174 B5. C=DC(0.)
X-25.674 Y-17.228 Z-2.321 B5. C=DC(0.)
X-25.674 Y-17.637 Z-2.475 B5. C=DC(0.)
X-25.674 Y-18.039 Z-2.637 B5. C=DC(0.)
X-25.674 Y-18.439 Z-2.809 B5. C=DC(0.)
X-25.674 Y-18.832 Z-2.992 B5. C=DC(0.),8
X-25.674 Y-37.5 Z-2.992 B5. C=DC(0.),7
X-24.674 Y-37.5 Z-2.992 B5. C=DC(0.),7
X-24.674 Y-18.997 Z-2.992 B5. C=DC(0.),8
X-24.674 Y-18.603 Z-2.811 B5. C=DC(0.)
X-24.674 Y-18.205 Z-2.641 B5. C=DC(0.)
X-24.674 Y-17.804 Z-2.481 B5. C=DC(0.)
X-24.674 Y-17.398 Z-2.33 B5. C=DC(0.)
X-24.674 Y-16.988 Z-2.188 B5. C=DC(0.)
X-24.674 Y-16.575 Z-2.053 B5. C=DC(0.)
X-24.674 Y-16.159 Z-1.924 B5. C=DC(0.)
X-24.674 Y-15.74 Z-1.802 B5. C=DC(0.)
X-24.674 Y-15.321 Z-1.688 B5. C=DC(0.)
X-24.674 Y-14.902 Z-1.58 B5. C=DC(0.)
X-24.674 Y-14.479 Z-1.476 B5. C=DC(0.)
X-24.674 Y-14.053 Z-1.379 B5. C=DC(0.)
X-24.674 Y-13.627 Z-1.288 B5. C=DC(0.)
X-24.674 Y-13.201 Z-1.2 B5. C=DC(0.)
X-24.674 Y-12.771 Z-1.118 B5. C=DC(0.)
X-24.674 Y-11.912 Z-.965 B5. C=DC(0.)
X-24.674 Y-11.482 Z-.896 B5. C=DC(0.)
X-24.674 Y-8.892 Z-.547 B5. C=DC(0.),6
X-24.674 Y-8.025 Z-.455 B5. C=DC(0.)
X-24.674 Y-7.592 Z-.415 B5. C=DC(0.)
X-24.674 Y-7.158 Z-.375 B5. C=DC(0.)
X-24.674 Y-6.291 Z-.308 B5. C=DC(0.)
X-24.674 Y-7.958 Z-.375 B5. C=DC(0.),2
X-24.674 Y-5.424 Z-.254 B5. C=DC(0.)
X-24.674 Y-4.557 Z-.211 B5. C=DC(0.)
X-24.674 Y-3.69 Z-.179 B5. C=DC(0.)
X-24.674 Y-2.822 Z-.156 B5. C=DC(0.)
X-24.674 Y-2.389 Z-.148 B5. C=DC(0.)
X-24.674 Y-1.522 Z-.139 B5. C=DC(0.)
X-24.674 Y-1.088 Z-.138 B5. C=DC(0.)
X-24.674 Y-.655 Z-.139 B5. C=DC(0.)
X-24.674 Y.213 Z-.147 B5. C=DC(0.)
X-24.674 Y1.08 Z-.166 B5. C=DC(0.)
X-24.674 Y1.947 Z-.196 B5. C=DC(0.)
X-24.674 Y2.381 Z-.217 B5. C=DC(0.)
X-24.674 Y2.814 Z-.239 B5. C=DC(0.)
X-24.674 Y3.681 Z-.292 B5. C=DC(0.)
X-24.674 Y4.548 Z-.355 B5. C=DC(0.)
X-24.674 Y5.416 Z-.628 B5. C=DC(0.),1
X-24.674 Y6.283 Z-.511 B5. C=DC(0.)
X-24.674 Y7.15 Z-.605 B5. C=DC(0.)
X-24.674 Y7.583 Z-.658 B5. C=DC(0.)
X-24.674 Y8.017 Z-.713 B5. C=DC(0.)
X-24.674 Y8.872 Z-.835 B5. C=DC(0.)
X-24.674 Y9.726 Z-.972 B5. C=DC(0.)
X-24.674 Y10.153 Z-1.045 B5. C=DC(0.)
X-24.674 Y10.53 Z-1.045 B5. C=DC(0.),1
X-24.674 Y11.008 Z-1.2 B5. C=DC(0.)
X-24.674 Y11.863 Z-1.371 B5. C=DC(0.)
X-24.674 Y12.29 Z-1.464 B5. C=DC(0.)
X-24.674 Y12.71 Z-1.562 B5. C=DC(0.)
X-24.674 Y13.13 Z-1.665 B5. C=DC(0.)
X-24.674 Y13.971 Z-1.889 B5. C=DC(0.)
X-24.674 Y14.391 Z-2.007 B5. C=DC(0.)
X-24.674 Y14.811 Z-2.133 B5. C=DC(0.)
X-24.674 Y15.223 Z-2.263 B5. C=DC(0.)
X-24.674 Y15.636 Z-2.403 B5. C=DC(0.)
X-24.674 Y16.041 Z-2.55 B5. C=DC(0.)
X-24.674 Y16.446 Z-2.705 B5. C=DC(0.)
X-24.674 Y16.851 Z-2.868 B5. C=DC(0.)
X-24.674 Y17.148 Z-2.992 B5. C=DC(0.),8
X-24.674 Y37.5 Z-2.992 B5. C=DC(0.),7
X-23.674 Y37.5 Z-2.992 B5. C=DC(0.),7
X-23.674 Y15.576 Z-2.992 B5. C=DC(0.),8
X-23.674 Y15.098 Z-2.804 B5. C=DC(0.)
X-23.674 Y14.691 Z-2.66 B5. C=DC(0.)
X-23.674 Y14.276 Z-2.521 B5. C=DC(0.)
X-23.674 Y13.862 Z-2.387 B5. C=DC(0.)
X-23.674 Y13.032 Z-2.138 B5. C=DC(0.)
X-23.674 Y12.611 Z-2.021 B5. C=DC(0.)
X-23.674 Y12.189 Z-1.915 B5. C=DC(0.)
X-23.674 Y11.767 Z-1.813 B5. C=DC(0.)
X-23.674 Y11.989 Z-1.915 B5. C=DC(0.),2
X-23.674 Y10.923 Z-1.622 B5. C=DC(0.)
X-23.674 Y10.501 Z-1.531 B5. C=DC(0.)
X-23.674 Y9.644 Z-1.36 B5. C=DC(0.)
X-23.674 Y8.787 Z-1.211 B5. C=DC(0.)
X-23.674 Y7.93 Z-1.078 B5. C=DC(0.)
X-23.674 Y5.341 Z-.748 B5. C=DC(0.),6
X-23.674 Y4.471 Z-.662 B5. C=DC(0.)
X-23.674 Y3.602 Z-.591 B5. C=DC(0.)
X-23.674 Y2.733 Z-.532 B5. C=DC(0.)
X-23.674 Y2.298 Z-.506 B5. C=DC(0.)
X-23.674 Y1.864 Z-.482 B5. C=DC(0.)
X-23.674 Y.995 Z-.442 B5. C=DC(0.)
X-23.674 Y.125 Z-.412 B5. C=DC(0.)
X-23.674 Y-.744 Z-.391 B5. C=DC(0.)
X-23.674 Y-1.613 Z-.38 B5. C=DC(0.)
X-23.674 Y-2.047 Z-.38 B5. C=DC(0.)
X-23.674 Y-2.482 Z-.381 B5. C=DC(0.)
X-23.674 Y-3.351 Z-.394 B5. C=DC(0.)
X-23.674 Y-4.22 Z-.418 B5. C=DC(0.)
X-23.674 Y-5.09 Z-.452 B5. C=DC(0.)
X-23.674 Y-5.524 Z-.473 B5. C=DC(0.)
X-23.674 Y-6.393 Z-.523 B5. C=DC(0.)
X-23.674 Y-6.828 Z-.552 B5. C=DC(0.)
X-23.674 Y-7.263 Z-.583 B5. C=DC(0.)
X-23.674 Y-8.132 Z-.655 B5. C=DC(0.)
X-23.674 Y-8.566 Z-.696 B5. C=DC(0.)
X-23.674 Y-9.435 Z-.786 B5. C=DC(0.)
X-23.674 Y-10.297 Z-.887 B5. C=DC(0.)
X-23.674 Y-11.158 Z-1.004 B5. C=DC(0.)
X-23.674 Y-11.588 Z-1.069 B5. C=DC(0.)
X-23.674 Y-12.45 Z-1.21 B5. C=DC(0.)
X-23.674 Y-13.304 Z-1.368 B5. C=DC(0.)
X-23.674 Y-13.73 Z-1.454 B5. C=DC(0.)
X-23.674 Y-14.157 Z-1.546 B5. C=DC(0.)
X-23.674 Y-14.581 Z-1.642 B5. C=DC(0.)
X-23.674 Y-15.004 Z-1.743 B5. C=DC(0.)
X-23.674 Y-15.428 Z-1.852 B5. C=DC(0.)
X-23.674 Y-15.848 Z-1.966 B5. C=DC(0.)
X-23.674 Y-16.264 Z-2.086 B5. C=DC(0.)
X-23.674 Y-16.678 Z-2.211 B5. C=DC(0.)
X-23.674 Y-17.092 Z-2.347 B5. C=DC(0.)
X-23.674 Y-17.502 Z-2.491 B5. C=DC(0.)
X-23.674 Y-17.91 Z-2.643 B5. C=DC(0.)
X-23.674 Y-18.314 Z-2.807 B5. C=DC(0.)
X-23.674 Y-18.741 Z-2.992 B5. C=DC(0.),8
X-23.674 Y-37.5 Z-2.992 B5. C=DC(0.),7
X-22.674 Y-37.5 Z-2.992 B5. C=DC(0.),7
X-22.674 Y-17.995 Z-2.992 B5. C=DC(0.),8
X-22.674 Y-17.592 Z-2.836 B5. C=DC(0.)
X-22.674 Y-17.184 Z-2.689 B5. C=DC(0.)
X-22.674 Y-16.772 Z-2.551 B5. C=DC(0.)
X-22.674 Y-16.358 Z-2.421 B5. C=DC(0.)
X-22.674 Y-15.941 Z-2.298 B5. C=DC(0.)
X-22.674 Y-15.52 Z-2.181 B5. C=DC(0.)
X-22.674 Y-15.099 Z-2.073 B5. C=DC(0.)
X-22.674 Y-14.678 Z-1.971 B5. C=DC(0.)
X-22.674 Y-14.254 Z-1.874 B5. C=DC(0.)
X-22.674 Y-14.654 Z-1.874 B5. C=DC(0.),2
X-22.674 Y-13.826 Z-1.782 B5. C=DC(0.),6
X-22.674 Y-13.399 Z-1.697 B5. C=DC(0.)
X-22.674 Y-12.971 Z-1.615 B5. C=DC(0.)
X-22.674 Y-12.543 Z-1.538 B5. C=DC(0.)
X-22.674 Y-11.684 Z-1.398 B5. C=DC(0.)
X-22.674 Y-11.253 Z-1.335 B5. C=DC(0.)
X-22.674 Y-10.39 Z-1.218 B5. C=DC(0.)
X-22.674 Y-9.527 Z-1.116 B5. C=DC(0.)
X-22.674 Y-9.095 Z-1.072 B5. C=DC(0.)
X-22.674 Y-8.664 Z-1.029 B5. C=DC(0.)
X-22.674 Y-7.797 Z-.955 B5. C=DC(0.)
X-22.674 Y-4.313 Z-.785 B5. C=DC(0.),6
X-22.674 Y-3.441 Z-.77 B5. C=DC(0.)
X-22.674 Y-2.57 Z-.767 B5. C=DC(0.)
X-22.674 Y-1.699 Z-.773 B5. C=DC(0.)
X-22.674 Y-.828 Z-.789 B5. C=DC(0.)
X-22.674 Y-.393 Z-.801 B5. C=DC(0.)
X-22.674 Y.479 Z-.833 B5. C=DC(0.)
X-22.674 Y1.35 Z-.879 B5. C=DC(0.)
X-22.674 Y1.785 Z-.908 B5. C=DC(0.)
X-22.674 Y2.221 Z-.939 B5. C=DC(0.)
X-22.674 Y3.092 Z-1.009 B5. C=DC(0.)
X-22.674 Y3.963 Z-1.09 B5. C=DC(0.)
X-22.674 Y4.823 Z-1.181 B5. C=DC(0.)
X-22.674 Y5.683 Z-1.282 B5. C=DC(0.)
X-22.674 Y6.113 Z-1.339 B5. C=DC(0.)
X-22.674 Y6.543 Z-1.4 B5. C=DC(0.)
X-22.674 Y7.403 Z-1.537 B5. C=DC(0.)
X-22.674 Y8.263 Z-1.687 B5. C=DC(0.)
X-22.674 Y9.122 Z-1.851 B5. C=DC(0.)
X-22.674 Y9.546 Z-1.936 B5. C=DC(0.)
X-22.674 Y9.97 Z-2.028 B5. C=DC(0.)
X-22.674 Y10.393 Z-2.127 B5. C=DC(0.)
X-22.674 Y11.24 Z-2.343 B5. C=DC(0.)
X-22.674 Y12.074 Z-2.573 B5. C=DC(0.)
X-22.674 Y12.491 Z-2.697 B5. C=DC(0.)
X-22.674 Y12.907 Z-2.833 B5. C=DC(0.)
X-22.674 Y13.369 Z-2.992 B5. C=DC(0.),8
X-22.674 Y37.5 Z-2.992 B5. C=DC(0.),7
X-21.674 Y37.5 Z-2.992 B5. C=DC(0.),7
X-21.674 Y10.298 Z-2.992 B5. C=DC(0.),8
X-21.674 Y9.693 Z-2.818 B5. C=DC(0.)
X-21.674 Y9.272 Z-2.711 B5. C=DC(0.)
X-21.674 Y8.851 Z-2.61 B5. C=DC(0.)
X-21.674 Y8.002 Z-2.418 B5. C=DC(0.)
X-21.674 Y7.147 Z-2.239 B5. C=DC(0.)
X-21.674 Y6.719 Z-2.158 B5. C=DC(0.)
X-21.674 Y6.292 Z-2.084 B5. C=DC(0.)
X-21.674 Y5.437 Z-1.95 B5. C=DC(0.)
X-21.674 Y4.576 Z-1.827 B5. C=DC(0.)
X-21.674 Y3.71 Z-1.716 B5. C=DC(0.)
X-21.674 Y2.843 Z-1.617 B5. C=DC(0.)
X-21.674 Y1.977 Z-1.534 B5. C=DC(0.)
X-21.674 Y1.11 Z-1.469 B5. C=DC(0.)
X-21.674 Y.244 Z-1.415 B5. C=DC(0.)
X-21.674 Y-.623 Z-1.371 B5. C=DC(0.)
X-21.674 Y-1.489 Z-1.338 B5. C=DC(0.)
X-21.674 Y-2.355 Z-1.316 B5. C=DC(0.)
X-21.674 Y-3.222 Z-1.306 B5. C=DC(0.)
X-21.674 Y-3.655 Z-1.306 B5. C=DC(0.)
X-21.674 Y-4.088 Z-1.307 B5. C=DC(0.)
X-21.674 Y-4.955 Z-1.321 B5. C=DC(0.)
X-21.674 Y-5.821 Z-1.349 B5. C=DC(0.)
X-21.674 Y-6.688 Z-1.39 B5. C=DC(0.)
X-21.674 Y-7.554 Z-1.443 B5. C=DC(0.)
X-21.674 Y-8.42 Z-1.509 B5. C=DC(0.)
X-21.674 Y-9.287 Z-1.588 B5. C=DC(0.)
X-21.674 Y-10.153 Z-1.682 B5. C=DC(0.)
X-21.674 Y-11.02 Z-1.793 B5. C=DC(0.)
X-21.674 Y-11.453 Z-1.854 B5. C=DC(0.)
X-21.674 Y-12.312 Z-1.988 B5. C=DC(0.)
X-21.674 Y-13.167 Z-2.143 B5. C=DC(0.)
X-21.674 Y-13.593 Z-2.226 B5. C=DC(0.)
X-21.674 Y-14.018 Z-2.317 B5. C=DC(0.)
X-21.674 Y-14.441 Z-2.412 B5. C=DC(0.)
X-21.674 Y-14.863 Z-2.513 B5. C=DC(0.)
X-21.674 Y-15.285 Z-2.623 B5. C=DC(0.)
X-21.674 Y-15.704 Z-2.738 B5. C=DC(0.)
X-21.674 Y-16.12 Z-2.861 B5. C=DC(0.)
X-21.674 Y-16.534 Z-2.992 B5. C=DC(0.),8
X-21.674 Y-37.5 Z-2.992 B5. C=DC(0.),7
X-20.674 Y-37.5 Z-2.992 B5. C=DC(0.),7
X-20.674 Y-13.761 Z-2.992 B5. C=DC(0.),8
X-20.674 Y-13.336 Z-2.901 B5. C=DC(0.)
X-20.674 Y-12.908 Z-2.814 B5. C=DC(0.)
X-20.674 Y-12.054 Z-2.661 B5. C=DC(0.)
X-20.674 Y-11.623 Z-2.59 B5. C=DC(0.)
X-20.674 Y-10.761 Z-2.466 B5. C=DC(0.)
X-20.674 Y-9.9 Z-2.361 B5. C=DC(0.)
X-20.674 Y-9.465 Z-2.315 B5. C=DC(0.)
X-20.674 Y-8.595 Z-2.233 B5. C=DC(0.)
X-20.674 Y-8.16 Z-2.199 B5. C=DC(0.)
X-20.674 Y-7.725 Z-2.168 B5. C=DC(0.)
X-20.674 Y-6.856 Z-2.117 B5. C=DC(0.)
X-20.674 Y-5.986 Z-2.081 B5. C=DC(0.)
X-20.674 Y-5.551 Z-2.069 B5. C=DC(0.)
X-20.674 Y-5.116 Z-2.058 B5. C=DC(0.)
X-20.674 Y-4.246 Z-2.048 B5. C=DC(0.)
X-20.674 Y-3.377 Z-2.054 B5. C=DC(0.)
X-20.674 Y-2.942 Z-2.063 B5. C=DC(0.)
X-20.674 Y-2.507 Z-2.075 B5. C=DC(0.)
X-20.674 Y-1.637 Z-2.11 B5. C=DC(0.)
X-20.674 Y-1.202 Z-2.132 B5. C=DC(0.)
X-20.674 Y-.333 Z-2.186 B5. C=DC(0.)
X-20.674 Y.537 Z-2.253 B5. C=DC(0.)
X-20.674 Y1.407 Z-2.332 B5. C=DC(0.)
X-20.674 Y2.276 Z-2.424 B5. C=DC(0.)
X-20.674 Y3.136 Z-2.537 B5. C=DC(0.)
X-20.674 Y3.995 Z-2.67 B5. C=DC(0.)
X-20.674 Y4.854 Z-2.817 B5. C=DC(0.)
X-20.674 Y5.713 Z-2.978 B5. C=DC(0.)
X-20.674 Y5.788 Z-2.992 B5. C=DC(0.),8
X-20.674 Y37.5 Z-2.992 B5. C=DC(0.),7
X-19.674 Y37.5 Z-2.992 B5. C=DC(0.),7
X-19.674 Y-37.5 Z-2.992 B5. C=DC(0.),7
X-18.674 Y-37.5 Z-2.992 B5. C=DC(0.),7
X-18.674 Y37.5 Z-2.992 B5. C=DC(0.),7
X-17.674 Y37.5 Z-2.992 B5. C=DC(0.),7
X-17.674 Y-37.5 Z-2.992 B5. C=DC(0.),7
X-16.674 Y-37.5 Z-2.992 B5. C=DC(0.),7
X-16.674 Y37.5 Z-2.992 B5. C=DC(0.),7
X-15.924 Y37.5 Z-2.993 B5. C=DC(0.),3
X-15.674 Y37.5 Z-2.996 B5. C=DC(0.),7
X-15.674 Y22.674 Z-2.992 B5. C=DC(0.)
X-15.674 Y-37.5 Z-2.992 B5. C=DC(0.),7
X-14.924 Y-37.5 Z-2.993 B5. C=DC(0.),7
X-14.674 Y-37.5 Z-2.994 B5. C=DC(0.),7
X-14.674 Y-15.262 Z-3.001 B5. C=DC(0.)
X-14.674 Y37.5 Z-3.029 B5. C=DC(0.),7
X-14.424 Y37.5 Z-3.046 B5. C=DC(0.),3
X-14.174 Y37.5 Z-3.065 B5. C=DC(0.),3
X-13.924 Y37.5 Z-3.084 B5. C=DC(0.),3
X-13.674 Y37.5 Z-3.11 B5. C=DC(0.),7
X-13.674 Y-3.924 Z-3.087 B5. C=DC(0.)
X-13.674 Y-37.5 Z-3.077 B5. C=DC(0.),7
X-13.424 Y-37.5 Z-3.123 B5. C=DC(0.),3
X-13.174 Y-37.5 Z-3.176 B5. C=DC(0.),3
X-12.924 Y-37.5 Z-3.237 B5. C=DC(0.),3
X-12.674 Y-37.5 Z-3.311 B5. C=DC(0.),7
X-12.674 Y-30.959 Z-3.285 B5. C=DC(0.)
X-12.674 Y-21.366 Z-3.264 B5. C=DC(0.)
X-12.674 Y-13.081 Z-3.251 B5. C=DC(0.)
X-12.674 Y5.233 Z-3.239 B5. C=DC(0.)
X-12.674 Y37.5 Z-3.235 B5. C=DC(0.),7
X-12.424 Y37.5 Z-3.277 B5. C=DC(0.),3
X-12.174 Y37.5 Z-3.319 B5. C=DC(0.),3
X-11.924 Y37.5 Z-3.363 B5. C=DC(0.),3
X-11.674 Y37.5 Z-3.412 B5. C=DC(0.),7
X-11.674 Y24.855 Z-3.422 B5. C=DC(0.)
X-11.674 Y8.721 Z-3.447 B5. C=DC(0.)
X-11.674 Y-4.797 Z-3.48 B5. C=DC(0.)
X-11.674 Y-13.081 Z-3.512 B5. C=DC(0.)
X-11.674 Y-20.93 Z-3.55 B5. C=DC(0.)
X-11.674 Y-27.471 Z-3.597 B5. C=DC(0.)
X-11.674 Y-30.959 Z-3.627 B5. C=DC(0.)
X-11.674 Y-35.756 Z-3.683 B5. C=DC(0.)
X-11.674 Y-37.5 Z-3.706 B5. C=DC(0.),7
X-11.549 Y-37.5 Z-3.77 B5. C=DC(0.),3
X-11.174 Y-37.5 Z-3.978 B5. C=DC(0.),3
X-10.799 Y-37.5 Z-4.216 B5. C=DC(0.),3
X-10.721 Y-37.5 Z-4.269 B5. C=DC(0.),3
X-10.674 Y-37.5 Z-4.302 B5. C=DC(0.),7
X-10.674 Y-36.628 Z-4.272 B5. C=DC(0.)
X-10.674 Y-32.703 Z-4.162 B5. C=DC(0.)
X-10.674 Y-29.215 Z-4.087 B5. C=DC(0.)
X-10.674 Y-27.471 Z-4.053 B5. C=DC(0.)
X-10.674 Y-23.547 Z-3.989 B5. C=DC(0.)
X-10.674 Y-20.93 Z-3.953 B5. C=DC(0.)
X-10.674 Y-15.262 Z-3.887 B5. C=DC(0.)
X-10.674 Y-13.517 Z-3.87 B5. C=DC(0.)
X-10.674 Y-9.157 Z-3.132 B5. C=DC(0.),1
X-10.674 Y-1.744 Z-3.778 B5. C=DC(0.)
X-10.674 Y8.285 Z-3.725 B5. C=DC(0.)
X-10.674 Y21.802 Z-3.673 B5. C=DC(0.)
X-10.674 Y37.5 Z-3.633 B5. C=DC(0.),7
X-10.174 Y37.5 Z-3.765 B5. C=DC(0.),7
X-9.924 Y37.5 Z-3.835 B5. C=DC(0.),3
X-9.674 Y37.5 Z-3.908 B5. C=DC(0.),7
X-9.674 Y32.267 Z-3.928 B5. C=DC(0.)
X-9.674 Y20.494 Z-3.988 B5. C=DC(0.)
X-9.674 Y17.878 Z-4.005 B5. C=DC(0.)
X-9.674 Y8.721 Z-4.071 B5. C=DC(0.)
X-9.674 Y1.308 Z-4.138 B5. C=DC(0.)
X-9.674 Y-5.233 Z-4.213 B5. C=DC(0.)
X-9.674 Y-9.593 Z-4.271 B5. C=DC(0.)
X-9.674 Y-13.953 Z-4.342 B5. C=DC(0.)
X-9.674 Y-14.39 Z-4.349 B5. C=DC(0.),6
X-9.674 Y-17.006 Z-4.4 B5. C=DC(0.)
X-9.674 Y-20.93 Z-4.485 B5. C=DC(0.)
X-9.674 Y-21.366 Z-4.495 B5. C=DC(0.)
X-9.674 Y-24.419 Z-4.578 B5. C=DC(0.)
X-9.674 Y-26.163 Z-4.629 B5. C=DC(0.)
X-9.674 Y-27.035 Z-4.657 B5. C=DC(0.)
X-9.674 Y-27.907 Z-4.688 B5. C=DC(0.)
X-9.674 Y-30.523 Z-4.786 B5. C=DC(0.)
X-9.674 Y-31.395 Z-4.824 B5. C=DC(0.)
X-9.674 Y-33.14 Z-4.906 B5. C=DC(0.)
X-9.674 Y-34.012 Z-4.948 B5. C=DC(0.)
X-9.674 Y-34.448 Z-4.973 B5. C=DC(0.),6
X-9.674 Y-36.628 Z-5.103 B5. C=DC(0.)
X-9.674 Y-37.5 Z-5.161 B5. C=DC(0.),7
X-8.674 Y-37.5 Z-6.161 B5. C=DC(0.),7
X-8.674 Y-28.779 Z-5.579 B5. C=DC(0.),6
X-8.674 Y-28.343 Z-5.551 B5. C=DC(0.)
X-8.674 Y-25.727 Z-5.397 B5. C=DC(0.)
X-8.674 Y-23.983 Z-5.309 B5. C=DC(0.)
X-8.674 Y-21.802 Z-5.209 B5. C=DC(0.)
X-8.674 Y-21.366 Z-5.19 B5. C=DC(0.)
X-8.674 Y-20.058 Z-5.139 B5. C=DC(0.)
X-8.674 Y-19.186 Z-5.106 B5. C=DC(0.)
X-8.674 Y-18.314 Z-5.074 B5. C=DC(0.)
X-8.674 Y-17.006 Z-5.028 B5. C=DC(0.)
X-8.674 Y-16.134 Z-4.999 B5. C=DC(0.)
X-8.674 Y-13.517 Z-4.922 B5. C=DC(0.)
X-8.674 Y-12.209 Z-4.886 B5. C=DC(0.)
X-8.674 Y-10.029 Z-4.828 B5. C=DC(0.),6
X-8.674 Y-9.593 Z-4.818 B5. C=DC(0.)
X-8.674 Y-5.233 Z-4.722 B5. C=DC(0.)
X-8.674 Y-1.308 Z-4.646 B5. C=DC(0.)
X-8.674 Y4.36 Z-4.554 B5. C=DC(0.)
X-8.674 Y9.593 Z-4.483 B5. C=DC(0.)
X-8.674 Y17.878 Z-4.389 B5. C=DC(0.)
X-8.674 Y26.163 Z-4.314 B5. C=DC(0.)
X-8.674 Y37.5 Z-4.231 B5. C=DC(0.),7
X-8.174 Y37.5 Z-4.415 B5. C=DC(0.),7
X-7.924 Y37.5 Z-4.512 B5. C=DC(0.),3
X-7.674 Y37.5 Z-4.612 B5. C=DC(0.),7
X-7.674 Y34.012 Z-4.644 B5. C=DC(0.)
X-7.674 Y24.855 Z-4.748 B5. C=DC(0.)
X-7.674 Y17.878 Z-4.843 B5. C=DC(0.)
X-7.674 Y11.773 Z-4.943 B5. C=DC(0.)
X-7.674 Y6.977 Z-5.035 B5. C=DC(0.)
X-7.674 Y1.744 Z-5.15 B5. C=DC(0.)
X-7.674 Y-1.308 Z-5.23 B5. C=DC(0.)
X-7.674 Y-2.18 Z-5.253 B5. C=DC(0.)
X-7.674 Y-5.669 Z-5.356 B5. C=DC(0.)
X-7.674 Y-6.105 Z-5.37 B5. C=DC(0.)
X-7.674 Y-8.721 Z-5.46 B5. C=DC(0.)
X-7.674 Y-11.773 Z-5.576 B5. C=DC(0.)
X-7.674 Y-12.209 Z-5.594 B5. C=DC(0.)
X-7.674 Y-13.517 Z-5.652 B5. C=DC(0.)
X-7.674 Y-15.262 Z-5.734 B5. C=DC(0.)
X-7.674 Y-17.006 Z-5.821 B5. C=DC(0.)
X-7.674 Y-17.442 Z-5.846 B5. C=DC(0.)
X-7.674 Y-19.622 Z-5.973 B5. C=DC(0.)
X-7.674 Y-20.058 Z-6. B5. C=DC(0.)
X-7.674 Y-20.93 Z-6.056 B5. C=DC(0.)
X-7.674 Y-37.5 Z-7.161 B5. C=DC(0.),7
X-6.674 Y-37.5 Z-8.161 B5. C=DC(0.),7
X-6.674 Y-13.081 Z-6.533 B5. C=DC(0.)
X-6.674 Y-12.645 Z-6.504 B5. C=DC(0.)
X-6.674 Y-11.773 Z-6.449 B5. C=DC(0.)
X-6.674 Y-10.465 Z-6.37 B5. C=DC(0.)
X-6.674 Y-8.721 Z-6.27 B5. C=DC(0.)
X-6.674 Y-8.285 Z-6.246 B5. C=DC(0.),6
X-6.674 Y-7.849 Z-6.225 B5. C=DC(0.)
X-6.674 Y-6.541 Z-6.159 B5. C=DC(0.)
X-6.674 Y-5.669 Z-6.117 B5. C=DC(0.)
X-6.674 Y-3.052 Z-5.998 B5. C=DC(0.)
X-6.674 Y-2.616 Z-5.98 B5. C=DC(0.)
X-6.674 Y-.436 Z-5.895 B5. C=DC(0.)
X-6.674 Y.872 Z-5.846 B5. C=DC(0.)
X-6.674 Y4.36 Z-5.726 B5. C=DC(0.)
X-6.674 Y8.721 Z-5.597 B5. C=DC(0.)
X-6.674 Y13.081 Z-5.483 B5. C=DC(0.)
X-6.674 Y18.75 Z-5.357 B5. C=DC(0.)
X-6.674 Y24.419 Z-5.247 B5. C=DC(0.)
X-6.674 Y31.831 Z-5.126 B5. C=DC(0.)
X-6.674 Y37.5 Z-5.049 B5. C=DC(0.),7
X-6.424 Y37.5 Z-5.168 B5. C=DC(0.),3
X-6.174 Y37.5 Z-5.29 B5. C=DC(0.),7
X-5.674 Y37.5 Z-5.544 B5. C=DC(0.),7
X-5.674 Y30.959 Z-5.67 B5. C=DC(0.)
X-5.674 Y29.651 Z-5.698 B5. C=DC(0.)
X-5.674 Y24.419 Z-5.816 B5. C=DC(0.)
X-5.674 Y18.75 Z-5.966 B5. C=DC(0.)
X-5.674 Y14.826 Z-6.083 B5. C=DC(0.)
X-5.674 Y14.39 Z-6.097 B5. C=DC(0.)
X-5.674 Y10.901 Z-6.217 B5. C=DC(0.)
X-5.674 Y10.465 Z-6.232 B5. C=DC(0.)
X-5.674 Y6.541 Z-6.385 B5. C=DC(0.)
X-5.674 Y6.105 Z-6.403 B5. C=DC(0.)
X-5.674 Y2.616 Z-6.562 B5. C=DC(0.)
X-5.674 Y0. Z-6.694 B5. C=DC(0.)
X-5.674 Y-.436 Z-6.718 B5. C=DC(0.)
X-5.674 Y-2.18 Z-6.818 B5. C=DC(0.)
X-5.674 Y-2.616 Z-6.844 B5. C=DC(0.)
X-5.674 Y-3.488 Z-6.897 B5. C=DC(0.)
X-5.674 Y-4.797 Z-6.981 B5. C=DC(0.)
X-5.674 Y-37.5 Z-9.161 B5. C=DC(0.),7
X-4.674 Y-37.5 Z-10.161 B5. C=DC(0.),7
X-4.674 Y3.052 Z-7.457 B5. C=DC(0.)
X-4.674 Y4.797 Z-7.346 B5. C=DC(0.)
X-4.674 Y5.669 Z-7.293 B5. C=DC(0.)
X-4.674 Y8.285 Z-7.143 B5. C=DC(0.)
X-4.674 Y8.721 Z-7.119 B5. C=DC(0.)
X-4.674 Y11.337 Z-6.987 B5. C=DC(0.)
X-4.674 Y11.773 Z-6.965 B5. C=DC(0.)
X-4.674 Y15.262 Z-6.807 B5. C=DC(0.)
X-4.674 Y16.134 Z-6.771 B5. C=DC(0.)
X-4.674 Y20.058 Z-6.618 B5. C=DC(0.)
X-4.674 Y20.494 Z-6.603 B5. C=DC(0.)
X-4.674 Y24.855 Z-6.453 B5. C=DC(0.)
X-4.674 Y29.651 Z-6.31 B5. C=DC(0.)
X-4.674 Y30.087 Z-6.297 B5. C=DC(0.)
X-4.674 Y35.756 Z-6.149 B5. C=DC(0.)
X-4.674 Y37.5 Z-6.11 B5. C=DC(0.),7
X-4.557 Y37.5 Z-6.179 B5. C=DC(0.),3
X-4.424 Y37.5 Z-6.262 B5. C=DC(0.),3
X-4.174 Y37.5 Z-6.419 B5. C=DC(0.),3
X-3.924 Y37.5 Z-6.579 B5. C=DC(0.),3
X-3.674 Y37.5 Z-6.746 B5. C=DC(0.),7
X-3.674 Y34.884 Z-6.824 B5. C=DC(0.)
X-3.674 Y30.087 Z-6.988 B5. C=DC(0.)
X-3.674 Y25.291 Z-7.175 B5. C=DC(0.)
X-3.674 Y24.855 Z-7.193 B5. C=DC(0.)
X-3.674 Y24.419 Z-7.212 B5. C=DC(0.)
X-3.674 Y20.93 Z-7.369 B5. C=DC(0.)
X-3.674 Y20.494 Z-7.39 B5. C=DC(0.)
X-3.674 Y17.006 Z-7.567 B5. C=DC(0.)
X-3.674 Y13.953 Z-7.741 B5. C=DC(0.)
X-3.674 Y13.081 Z-7.795 B5. C=DC(0.)
X-3.674 Y11.337 Z-7.905 B5. C=DC(0.)
X-3.674 Y10.901 Z-7.934 B5. C=DC(0.)
X-3.674 Y-37.5 Z-11.161 B5. C=DC(0.),7
X-2.674 Y-37.5 Z-12.161 B5. C=DC(0.),7
X-2.674 Y19.186 Z-8.382 B5. C=DC(0.)
X-2.674 Y21.366 Z-8.243 B5. C=DC(0.)
X-2.674 Y22.238 Z-8.19 B5. C=DC(0.)
X-2.674 Y25.291 Z-8.016 B5. C=DC(0.)
X-2.674 Y25.727 Z-7.992 B5. C=DC(0.)
X-2.674 Y29.215 Z-7.815 B5. C=DC(0.)
X-2.674 Y29.651 Z-7.794 B5. C=DC(0.)
X-2.674 Y34.012 Z-7.598 B5. C=DC(0.)
X-2.674 Y34.884 Z-7.561 B5. C=DC(0.)
X-2.674 Y37.064 Z-7.476 B5. C=DC(0.)
X-2.674 Y37.5 Z-7.46 B5. C=DC(0.),7
X-2.424 Y37.5 Z-7.652 B5. C=DC(0.),3
X-2.174 Y37.5 Z-7.851 B5. C=DC(0.),3
X-1.924 Y37.5 Z-8.055 B5. C=DC(0.),3
X-1.768 Y37.5 Z-8.184 B5. C=DC(0.),3
X-1.674 Y37.5 Z-8.264 B5. C=DC(0.),7
X-1.674 Y37.064 Z-8.284 B5. C=DC(0.)
X-1.674 Y34.012 Z-8.44 B5. C=DC(0.)
X-1.674 Y30.523 Z-8.639 B5. C=DC(0.)
X-1.674 Y30.087 Z-8.665 B5. C=DC(0.)
X-1.674 Y27.035 Z-8.858 B5. C=DC(0.)
X-1.674 Y-37.5 Z-13.161 B5. C=DC(0.),7
X-.674 Y-37.5 Z-14.161 B5. C=DC(0.),7
X-.674 Y34.884 Z-9.335 B5. C=DC(0.)
X-.674 Y35.32 Z-9.307 B5. C=DC(0.)
X-.674 Y37.064 Z-9.196 B5. C=DC(0.)
X-.674 Y37.5 Z-9.171 B5. C=DC(0.),7
X-.424 Y37.5 Z-9.416 B5. C=DC(0.),3
X-.174 Y37.5 Z-9.665 B5. C=DC(0.),7
X.326 Y37.5 Z-10.164 B5. C=DC(0.),7
X.326 Y37.064 Z-10.19 B5. C=DC(0.)
X.326 Y-37.5 Z-15.161 B5. C=DC(0.),7
X1.326 Y-37.5 Z-16.161 B5. C=DC(0.),7
X1.326 Y37.064 Z-11.19 B5. C=DC(0.)
X1.326 Y37.5 Z-11.164 B5. C=DC(0.),7
X2.326 Y37.5 Z-12.164 B5. C=DC(0.),7
X2.326 Y37.064 Z-12.19 B5. C=DC(0.)
X2.326 Y-37.5 Z-17.161 B5. C=DC(0.),7
X3.326 Y-37.5 Z-18.161 B5. C=DC(0.),7
X3.326 Y37.064 Z-13.19 B5. C=DC(0.)
X3.326 Y37.5 Z-13.164 B5. C=DC(0.),7
X4.326 Y37.5 Z-14.164 B5. C=DC(0.),7
X4.326 Y37.064 Z-14.19 B5. C=DC(0.)
X4.326 Y-37.5 Z-19.161 B5. C=DC(0.),7
X5.326 Y-37.5 Z-20.161 B5. C=DC(0.),7
X5.326 Y37.064 Z-15.19 B5. C=DC(0.)
X5.326 Y37.5 Z-15.164 B5. C=DC(0.),7
X6.326 Y37.5 Z-16.164 B5. C=DC(0.),7
X6.326 Y37.064 Z-16.19 B5. C=DC(0.)
X6.326 Y-37.5 Z-21.161 B5. C=DC(0.),7
X7.326 Y-37.5 Z-22.161 B5. C=DC(0.),7
X7.326 Y37.064 Z-17.19 B5. C=DC(0.)
X7.326 Y37.5 Z-17.164 B5. C=DC(0.),7
X8.326 Y37.5 Z-18.164 B5. C=DC(0.),7
X8.326 Y37.063 Z-18.19 B5. C=DC(0.)
X8.326 Y-34.972 Z-22.992 B5. C=DC(0.),8
X8.326 Y-34.974 Z-22.992 B5. C=DC(0.)
X8.326 Y-37.5 Z-22.992 B5. C=DC(0.),7
X9.326 Y-37.5 Z-22.992 B5. C=DC(0.),7
X9.326 Y-19.975 Z-22.992 B5. C=DC(0.),8
X9.326 Y-19.973 Z-22.992 B5. C=DC(0.),3
X9.326 Y37.065 Z-19.19 B5. C=DC(0.)
X9.326 Y37.5 Z-19.164 B5. C=DC(0.),7
X10.326 Y37.5 Z-20.164 B5. C=DC(0.),7
X10.326 Y37.067 Z-20.19 B5. C=DC(0.)
X10.326 Y-4.972 Z-22.992 B5. C=DC(0.),8
X10.326 Y-4.974 Z-22.992 B5. C=DC(0.),3
X10.326 Y-37.5 Z-22.992 B5. C=DC(0.),7
X11.326 Y-37.5 Z-22.992 B5. C=DC(0.),7
X11.326 Y10.026 Z-22.992 B5. C=DC(0.),8
X11.326 Y10.027 Z-22.992 B5. C=DC(0.),3
X11.326 Y37.064 Z-21.19 B5. C=DC(0.)
X11.326 Y37.5 Z-21.164 B5. C=DC(0.),7
X12.326 Y37.5 Z-22.164 B5. C=DC(0.),7
X12.326 Y37.07 Z-22.189 B5. C=DC(0.)
X12.326 Y25.027 Z-22.992 B5. C=DC(0.),8
X12.326 Y25.025 Z-22.992 B5. C=DC(0.),3
X12.326 Y-37.5 Z-22.992 B5. C=DC(0.),7
X13.326 Y-37.5 Z-22.992 B5. C=DC(0.),7
X13.326 Y37.5 Z-22.992 B5. C=DC(0.),7
X14.326 Y37.5 Z-22.992 B5. C=DC(0.),7
X14.326 Y-37.5 Z-22.992 B5. C=DC(0.),7
X15.326 Y-37.5 Z-22.992 B5. C=DC(0.),7
X15.326 Y37.5 Z-22.992 B5. C=DC(0.),7
X16.326 Y37.5 Z-22.992 B5. C=DC(0.),7
X16.326 Y-37.5 Z-22.992 B5. C=DC(0.),7
X17.326 Y-37.5 Z-22.992 B5. C=DC(0.),7
X17.326 Y37.5 Z-22.992 B5. C=DC(0.),7
X18.326 Y37.5 Z-22.992 B5. C=DC(0.),7
X18.326 Y6.982 Z-22.992 B5. C=DC(0.)
X18.326 Y6.98 Z-22.992 B5. C=DC(0.),8
X18.326 Y-22.102 Z-21.873 B5. C=DC(0.)
X18.326 Y-22.537 Z-21.859 B5. C=DC(0.)
X18.326 Y-22.935 Z-21.954 B5. C=DC(0.)
X18.326 Y-23.27 Z-22.167 B5. C=DC(0.)
X18.326 Y-23.547 Z-22.45 B5. C=DC(0.)
X18.326 Y-23.765 Z-22.759 B5. C=DC(0.)
X18.326 Y-23.896 Z-22.992 B5. C=DC(0.),8
X18.326 Y-37.5 Z-22.992 B5. C=DC(0.),7
X19.326 Y-37.5 Z-22.992 B5. C=DC(0.),7
X19.326 Y-24.419 Z-22.992 B5. C=DC(0.),8
X19.326 Y-24.364 Z-22.677 B5. C=DC(0.)
X19.326 Y-24.31 Z-22.424 B5. C=DC(0.)
X19.326 Y-24.201 Z-22.061 B5. C=DC(0.)
X19.326 Y-24.092 Z-21.804 B5. C=DC(0.)
X19.326 Y-23.983 Z-21.609 B5. C=DC(0.)
X19.326 Y-23.753 Z-21.298 B5. C=DC(0.)
X19.326 Y-23.459 Z-21.035 B5. C=DC(0.)
X19.326 Y-23.106 Z-20.836 B5. C=DC(0.)
X19.326 Y-22.702 Z-20.73 B5. C=DC(0.)
X19.326 Y-22.269 Z-20.724 B5. C=DC(0.)
X19.326 Y-.019 Z-21.52 B5. C=DC(0.),6
X19.326 Y19.613 Z-22.209 B5. C=DC(0.)
X19.326 Y20.049 Z-22.224 B5. C=DC(0.)
X19.326 Y22.231 Z-22.297 B5. C=DC(0.)
X19.326 Y22.667 Z-22.316 B5. C=DC(0.)
X19.326 Y23.091 Z-22.426 B5. C=DC(0.)
X19.326 Y23.291 Z-22.526 B5. C=DC(0.)
X19.326 Y23.491 Z-22.663 B5. C=DC(0.)
X19.326 Y23.783 Z-22.956 B5. C=DC(0.)
X19.326 Y23.814 Z-22.992 B5. C=DC(0.),8
X19.326 Y37.5 Z-22.992 B5. C=DC(0.),7
X20.326 Y37.5 Z-22.992 B5. C=DC(0.),7
X20.326 Y24.314 Z-22.992 B5. C=DC(0.),8
X20.326 Y24.191 Z-22.727 B5. C=DC(0.)
X20.326 Y24.046 Z-22.493 B5. C=DC(0.)
X20.326 Y23.901 Z-22.314 B5. C=DC(0.)
X20.326 Y23.722 Z-22.139 B5. C=DC(0.)
X20.326 Y23.543 Z-22.001 B5. C=DC(0.)
X20.326 Y23.344 Z-21.881 B5. C=DC(0.)
X20.326 Y23.145 Z-21.793 B5. C=DC(0.)
X20.326 Y22.722 Z-21.69 B5. C=DC(0.)
X20.326 Y22.288 Z-21.669 B5. C=DC(0.)
X20.326 Y20.115 Z-21.605 B5. C=DC(0.)
X20.326 Y19.68 Z-21.591 B5. C=DC(0.)
X20.326 Y7.076 Z-21.172 B5. C=DC(0.)
X20.326 Y.121 Z-20.937 B5. C=DC(0.)
X20.326 Y-10.31 Z-20.58 B5. C=DC(0.)
X20.326 Y-18.568 Z-20.291 B5. C=DC(0.),6
X20.326 Y-22.48 Z-20.15 B5. C=DC(0.)
X20.326 Y-22.905 Z-20.195 B5. C=DC(0.)
X20.326 Y-23.3 Z-20.331 B5. C=DC(0.)
X20.326 Y-23.647 Z-20.541 B5. C=DC(0.)
X20.326 Y-23.934 Z-20.808 B5. C=DC(0.)
X20.326 Y-24.159 Z-21.12 B5. C=DC(0.)
X20.326 Y-24.317 Z-21.442 B5. C=DC(0.)
X20.326 Y-24.419 Z-21.764 B5. C=DC(0.)
X20.326 Y-24.487 Z-22.187 B5. C=DC(0.)
X20.326 Y-24.499 Z-22.398 B5. C=DC(0.)
X20.326 Y-24.5 Z-22.992 B5. C=DC(0.),8
X20.326 Y-37.5 Z-22.992 B5. C=DC(0.),7
X21.326 Y-37.5 Z-22.992 B5. C=DC(0.),7
X21.326 Y-24.5 Z-22.992 B5. C=DC(0.),8
X21.326 Y-24.499 Z-21.853 B5. C=DC(0.)
X21.326 Y-24.494 Z-21.763 B5. C=DC(0.)
X21.326 Y-24.419 Z-21.351 B5. C=DC(0.)
X21.326 Y-24.296 Z-21.034 B5. C=DC(0.)
X21.326 Y-24.106 Z-20.718 B5. C=DC(0.)
X21.326 Y-23.847 Z-20.428 B5. C=DC(0.)
X21.326 Y-23.526 Z-20.187 B5. C=DC(0.)
X21.326 Y-23.152 Z-20.011 B5. C=DC(0.)
X21.326 Y-22.739 Z-19.916 B5. C=DC(0.)
X21.326 Y-22.306 Z-19.907 B5. C=DC(0.)
X21.326 Y-10.083 Z-20.329 B5. C=DC(0.)
X21.326 Y-.042 Z-20.664 B5. C=DC(0.)
X21.326 Y7.379 Z-20.906 B5. C=DC(0.)
X21.326 Y20.038 Z-21.31 B5. C=DC(0.)
X21.326 Y22.221 Z-21.376 B5. C=DC(0.)
X21.326 Y22.658 Z-21.392 B5. C=DC(0.)
X21.326 Y23.082 Z-21.473 B5. C=DC(0.)
X21.326 Y23.288 Z-21.549 B5. C=DC(0.)
X21.326 Y23.494 Z-21.653 B5. C=DC(0.)
X21.326 Y23.683 Z-21.777 B5. C=DC(0.)
X21.326 Y23.872 Z-21.937 B5. C=DC(0.)
X21.326 Y24.027 Z-22.103 B5. C=DC(0.)
X21.326 Y24.182 Z-22.317 B5. C=DC(0.)
X21.326 Y24.297 Z-22.526 B5. C=DC(0.)
X21.326 Y24.412 Z-22.825 B5. C=DC(0.)
X21.326 Y24.454 Z-22.992 B5. C=DC(0.),8
X21.326 Y37.5 Z-22.992 B5. C=DC(0.),7
X22.326 Y37.5 Z-22.992 B5. C=DC(0.),7
X22.326 Y24.464 Z-22.992 B5. C=DC(0.),8
X22.326 Y24.421 Z-22.811 B5. C=DC(0.)
X22.326 Y24.304 Z-22.502 B5. C=DC(0.)
X22.326 Y24.187 Z-22.29 B5. C=DC(0.)
X22.326 Y24.029 Z-22.073 B5. C=DC(0.)
X22.326 Y23.87 Z-21.905 B5. C=DC(0.)
X22.326 Y23.681 Z-21.747 B5. C=DC(0.)
X22.326 Y23.492 Z-21.624 B5. C=DC(0.)
X22.326 Y23.286 Z-21.521 B5. C=DC(0.)
X22.326 Y23.08 Z-21.445 B5. C=DC(0.)
X22.326 Y22.656 Z-21.365 B5. C=DC(0.)
X22.326 Y22.219 Z-21.349 B5. C=DC(0.)
X22.326 Y7.375 Z-20.888 B5. C=DC(0.)
X22.326 Y-.047 Z-20.651 B5. C=DC(0.)
X22.326 Y-10.089 Z-20.325 B5. C=DC(0.)
X22.326 Y-22.314 Z-19.917 B5. C=DC(0.)
X22.326 Y-22.747 Z-19.928 B5. C=DC(0.)
X22.326 Y-23.16 Z-20.025 B5. C=DC(0.)
X22.326 Y-23.532 Z-20.202 B5. C=DC(0.)
X22.326 Y-23.852 Z-20.444 B5. C=DC(0.)
X22.326 Y-24.108 Z-20.734 B5. C=DC(0.)
X22.326 Y-24.297 Z-21.052 B5. C=DC(0.)
X22.326 Y-24.419 Z-21.37 B5. C=DC(0.)
X22.326 Y-24.494 Z-21.786 B5. C=DC(0.)
X22.326 Y-24.499 Z-21.877 B5. C=DC(0.)
X22.326 Y-24.5 Z-22.992 B5. C=DC(0.),8
X22.326 Y-37.5 Z-22.992 B5. C=DC(0.),7
X23.326 Y-37.5 Z-22.992 B5. C=DC(0.),7
X23.326 Y-24.5 Z-22.992 B5. C=DC(0.),8
X23.326 Y-24.499 Z-22.485 B5. C=DC(0.)
X23.326 Y-24.487 Z-22.268 B5. C=DC(0.)
X23.326 Y-24.419 Z-21.83 B5. C=DC(0.)
X23.326 Y-24.317 Z-21.497 B5. C=DC(0.)
X23.326 Y-24.16 Z-21.172 B5. C=DC(0.)
X23.326 Y-23.94 Z-20.86 B5. C=DC(0.)
X23.326 Y-23.654 Z-20.587 B5. C=DC(0.)
X23.326 Y-23.311 Z-20.373 B5. C=DC(0.)
X23.326 Y-22.919 Z-20.235 B5. C=DC(0.)
X23.326 Y-22.493 Z-20.187 B5. C=DC(0.)
X23.326 Y-22.058 Z-20.201 B5. C=DC(0.)
X23.326 Y-9.886 Z-20.599 B5. C=DC(0.)
X23.326 Y.113 Z-20.918 B5. C=DC(0.)
X23.326 Y7.069 Z-21.135 B5. C=DC(0.)
X23.326 Y11.416 Z-21.263 B5. C=DC(0.),6
X23.326 Y19.676 Z-21.513 B5. C=DC(0.)
X23.326 Y20.111 Z-21.526 B5. C=DC(0.)
X23.326 Y22.284 Z-21.583 B5. C=DC(0.)
X23.326 Y22.719 Z-21.602 B5. C=DC(0.)
X23.326 Y23.141 Z-21.702 B5. C=DC(0.)
X23.326 Y23.347 Z-21.789 B5. C=DC(0.)
X23.326 Y23.552 Z-21.908 B5. C=DC(0.)
X23.326 Y23.73 Z-22.042 B5. C=DC(0.)
X23.326 Y23.909 Z-22.215 B5. C=DC(0.)
X23.326 Y24.054 Z-22.392 B5. C=DC(0.)
X23.326 Y24.198 Z-22.617 B5. C=DC(0.)
X23.326 Y24.363 Z-22.992 B5. C=DC(0.),8
X23.326 Y37.5 Z-22.992 B5. C=DC(0.),7
X24.326 Y37.5 Z-22.992 B5. C=DC(0.),7
X24.326 Y24.014 Z-22.992 B5. C=DC(0.),8
X24.326 Y23.861 Z-22.796 B5. C=DC(0.)
X24.326 Y23.686 Z-22.616 B5. C=DC(0.)
X24.326 Y23.511 Z-22.472 B5. C=DC(0.)
X24.326 Y23.311 Z-22.345 B5. C=DC(0.)
X24.326 Y23.112 Z-22.25 B5. C=DC(0.)
X24.326 Y22.688 Z-22.142 B5. C=DC(0.)
X24.326 Y22.253 Z-22.123 B5. C=DC(0.)
X24.326 Y7.441 Z-21.708 B5. C=DC(0.)
X24.326 Y.035 Z-21.491 B5. C=DC(0.)
X24.326 Y-10.856 Z-21.163 B5. C=DC(0.)
X24.326 Y-22.182 Z-20.8 B5. C=DC(0.)
X24.326 Y-22.618 Z-20.795 B5. C=DC(0.)
X24.326 Y-23.027 Z-20.884 B5. C=DC(0.)
X24.326 Y-23.392 Z-21.069 B5. C=DC(0.)
X24.326 Y-23.695 Z-21.323 B5. C=DC(0.)
X24.326 Y-23.943 Z-21.628 B5. C=DC(0.)
X24.326 Y-24.14 Z-21.96 B5. C=DC(0.)
X24.326 Y-24.288 Z-22.306 B5. C=DC(0.)
X24.326 Y-24.393 Z-22.652 B5. C=DC(0.)
X24.326 Y-24.459 Z-22.992 B5. C=DC(0.),8
X24.326 Y-37.5 Z-22.992 B5. C=DC(0.),7
X25.326 Y-37.5 Z-22.992 B5. C=DC(0.),7
X25.326 Y-24.175 Z-22.992 B5. C=DC(0.),8
X25.326 Y-23.987 Z-22.655 B5. C=DC(0.)
X25.326 Y-23.75 Z-22.344 B5. C=DC(0.)
X25.326 Y-23.458 Z-22.075 B5. C=DC(0.)
X25.326 Y-23.11 Z-21.868 B5. C=DC(0.)
X25.326 Y-22.711 Z-21.751 B5. C=DC(0.)
X25.326 Y-22.281 Z-21.741 B5. C=DC(0.)
X25.326 Y-19.226 Z-21.822 B5. C=DC(0.)
X25.326 Y-11.372 Z-22.046 B5. C=DC(0.)
X25.326 Y-3.517 Z-22.249 B5. C=DC(0.),6
X25.326 Y-.027 Z-22.345 B5. C=DC(0.)
X25.326 Y.41 Z-22.356 B5. C=DC(0.)
X25.326 Y6.082 Z-22.498 B5. C=DC(0.)
X25.326 Y11.319 Z-22.624 B5. C=DC(0.),6
X25.326 Y16.119 Z-22.726 B5. C=DC(0.)
X25.326 Y22.228 Z-22.866 B5. C=DC(0.)
X25.326 Y22.664 Z-22.881 B5. C=DC(0.)
X25.326 Y23.088 Z-22.983 B5. C=DC(0.),3
X25.326 Y23.113 Z-22.992 B5. C=DC(0.),8
X25.326 Y37.5 Z-22.992 B5. C=DC(0.),7
X26.326 Y37.5 Z-22.992 B5. C=DC(0.),7
X26.326 Y-9.972 Z-22.992 B5. C=DC(0.),8
X26.326 Y-9.974 Z-22.992 B5. C=DC(0.),3
X26.326 Y-11.302 Z-22.965 B5. C=DC(0.)
X26.326 Y-11.737 Z-22.955 B5. C=DC(0.)
X26.326 Y-22.195 Z-22.705 B5. C=DC(0.)
X26.326 Y-22.63 Z-22.704 B5. C=DC(0.)
X26.326 Y-23.037 Z-22.8 B5. C=DC(0.)
X26.326 Y-23.397 Z-22.992 B5. C=DC(0.),8
X26.326 Y-37.5 Z-22.992 B5. C=DC(0.),7
X27.326 Y-37.5 Z-22.992 B5. C=DC(0.),7
X27.326 Y37.5 Z-22.992 B5. C=DC(0.),7
X28.326 Y37.5 Z-22.992 B5. C=DC(0.),7
X28.326 Y-37.5 Z-22.992 B5. C=DC(0.),7
X29.326 Y-37.5 Z-22.992 B5. C=DC(0.),7
X29.326 Y37.5 Z-22.992 B5. C=DC(0.),7
X30.326 Y37.5 Z-22.992 B5. C=DC(0.),7
X30.326 Y-37.5 Z-22.992 B5. C=DC(0.),7
X31.326 Y-37.5 Z-22.992 B5. C=DC(0.),7
X31.326 Y37.5 Z-22.992 B5. C=DC(0.),7
X32.326 Y37.5 Z-22.992 B5. C=DC(0.),7
X32.326 Y-37.5 Z-22.992 B5. C=DC(0.),7
X33.326 Y-37.5 Z-22.992 B5. C=DC(0.),7
X33.326 Y37.5 Z-22.992 B5. C=DC(0.),7
X34.326 Y37.5 Z-22.992 B5. C=DC(0.),7
X34.326 Y-37.5 Z-22.992 B5. C=DC(0.),7
X35.326 Y-37.5 Z-22.992 B5. C=DC(0.),7
X35.326 Y37.5 Z-22.992 B5. C=DC(0.),7
X36.326 Y37.5 Z-22.992 B5. C=DC(0.),7
X36.326 Y-37.5 Z-22.992 B5. C=DC(0.),7
X36.326 Y-37.962 Z-22.982 B5. C=DC(0.),3
X36.326 Y-38.423 Z-22.95 B5. C=DC(0.),3
X36.326 Y-38.882 Z-22.896 B5. C=DC(0.),3
X36.326 Y-39.337 Z-22.822 B5. C=DC(0.),3
X36.326 Y-39.79 Z-22.727 B5. C=DC(0.),3
X36.326 Y-40.237 Z-22.611 B5. C=DC(0.),3
X36.326 Y-40.678 Z-22.474 B5. C=DC(0.),3
X36.326 Y-41.112 Z-22.317 B5. C=DC(0.),3
X36.326 Y-41.539 Z-22.14 B5. C=DC(0.),3
X36.326 Y-41.957 Z-21.944 B5. C=DC(0.),3
X36.326 Y-42.366 Z-21.729 B5. C=DC(0.),3
X36.326 Y-42.764 Z-21.495 B5. C=DC(0.),3
X36.326 Y-43.151 Z-21.242 B5. C=DC(0.),3
X36.326 Y-43.526 Z-20.973 B5. C=DC(0.),3
X36.326 Y-43.888 Z-20.686 B5. C=DC(0.),3
X36.326 Y-44.237 Z-20.382 B5. C=DC(0.),3
X36.326 Y-44.571 Z-20.063 B5. C=DC(0.),3
X36.326 Y-44.89 Z-19.729 B5. C=DC(0.),3
X36.326 Y-45.193 Z-19.381 B5. C=DC(0.),3
X36.326 Y-45.48 Z-19.019 B5. C=DC(0.),3
X36.326 Y-45.75 Z-18.644 B5. C=DC(0.),3
X36.326 Y-46.002 Z-18.257 B5. C=DC(0.),3
X36.326 Y-46.236 Z-17.858 B5. C=DC(0.),3
X36.326 Y-46.452 Z-17.45 B5. C=DC(0.),3
X36.326 Y-46.648 Z-17.032 B5. C=DC(0.),3
X36.326 Y-46.825 Z-16.605 B5. C=DC(0.),3
X36.326 Y-46.982 Z-16.17 B5. C=DC(0.),3
X36.326 Y-47.118 Z-15.729 B5. C=DC(0.),3
X36.326 Y-47.234 Z-15.282 B5. C=DC(0.),3
X36.326 Y-47.33 Z-14.83 B5. C=DC(0.),3
X36.326 Y-47.404 Z-14.374 B5. C=DC(0.),3
X36.326 Y-47.457 Z-13.915 B5. C=DC(0.),3
X36.326 Y-47.489 Z-13.454 B5. C=DC(0.),3
X36.326 Y-47.5 Z-12.992 B5. C=DC(0.),3
X36.326 Y-47.5 Z-12.492 B5. C=DC(0.),3
G00 Z50.008
CYCLE832(0,_OFF,1)
G64
TRAFOOF
M05
G00 SUPA Z0. D0
G00 SUPA X-255. Y175.
D1
M51 ; C-Axis lock-off
M53 ; C-Axis lock-off
G00 B0. C=DC(0.)
ROT
TRANS
M30

