;%_N_3_MPF
;MASTERCAM - 2024
;MCX PATH  - G:\ģͿ\㲩\
;MCAM FILE - ģ.MCAM
;POST      - HEN-Xxzy_LITZ_LU400_SIEMENS.PST
;PROGRAM   - 3.MPF
;DATE      - 2026.03.12
;TIME      - 2:49 PM
;T1   - 4 /Բϳ            - D1   - D4.000mm - R2.000mm
G00 G17 G40 G71 G90
G00 SUPA Z0. D0
G00 SUPA X-255. Y175.
D1
M51 ; C-Axis lock-off
M53 ; C-Axis lock-off
G00 B0. C=DC(0.)
M1

N1
;OPERATION NO - 13
;OPERATION TYPE - CONVERT 5AX
T1 ;4 /Բϳ
M06
D1
G54 G90
G00 X-36.674 Y-47.5
B5. C=DC(0.)
TRAORI
CYCLE832(.025,_ROUGH,1)
X-36.674 Y-47.5 Z50.008 S3000 M03
Z1.508
G94 G01 X-36.674 Y-47.5 Z1.008 B5. C=DC(0.) F360.
X-36.674 Y-47.489 Z.546 B5. C=DC(0.)
X-36.674 Y-47.457 Z.085 B5. C=DC(0.)
X-36.674 Y-47.404 Z-.374 B5. C=DC(0.)
X-36.674 Y-47.33 Z-.83 B5. C=DC(0.)
X-36.674 Y-47.234 Z-1.282 B5. C=DC(0.)
X-36.674 Y-47.118 Z-1.729 B5. C=DC(0.)
X-36.674 Y-46.982 Z-2.17 B5. C=DC(0.)
X-36.674 Y-46.825 Z-2.605 B5. C=DC(0.)
X-36.674 Y-46.648 Z-3.032 B5. C=DC(0.)
X-36.674 Y-46.452 Z-3.45 B5. C=DC(0.)
X-36.674 Y-46.236 Z-3.858 B5. C=DC(0.)
X-36.674 Y-46.002 Z-4.257 B5. C=DC(0.)
X-36.674 Y-45.75 Z-4.644 B5. C=DC(0.)
X-36.674 Y-45.48 Z-5.019 B5. C=DC(0.)
X-36.674 Y-45.193 Z-5.381 B5. C=DC(0.)
X-36.674 Y-44.89 Z-5.729 B5. C=DC(0.)
X-36.674 Y-44.571 Z-6.063 B5. C=DC(0.)
X-36.674 Y-44.237 Z-6.382 B5. C=DC(0.)
X-36.674 Y-43.888 Z-6.686 B5. C=DC(0.)
X-36.674 Y-43.526 Z-6.973 B5. C=DC(0.)
X-36.674 Y-43.151 Z-7.242 B5. C=DC(0.)
X-36.674 Y-42.764 Z-7.495 B5. C=DC(0.)
X-36.674 Y-42.366 Z-7.729 B5. C=DC(0.)
X-36.674 Y-41.957 Z-7.944 B5. C=DC(0.)
X-36.674 Y-41.539 Z-8.14 B5. C=DC(0.)
X-36.674 Y-41.112 Z-8.317 B5. C=DC(0.)
X-36.674 Y-40.678 Z-8.474 B5. C=DC(0.)
X-36.674 Y-40.237 Z-8.611 B5. C=DC(0.)
X-36.674 Y-39.79 Z-8.727 B5. C=DC(0.)
X-36.674 Y-39.337 Z-8.822 B5. C=DC(0.)
X-36.674 Y-38.882 Z-8.896 B5. C=DC(0.)
X-36.674 Y-38.423 Z-8.95 B5. C=DC(0.)
X-36.674 Y-37.962 Z-8.982 B5. C=DC(0.)
X-36.674 Y-37.5 Z-8.992 B5. C=DC(0.),7
X-36.674 Y37.5 Z-8.992 B5. C=DC(0.),7
X-35.674 Y37.5 Z-8.992 B5. C=DC(0.),7
X-35.674 Y-37.5 Z-8.992 B5. C=DC(0.),7
X-34.674 Y-37.5 Z-8.992 B5. C=DC(0.),7
X-34.674 Y37.5 Z-8.992 B5. C=DC(0.),7
X-33.674 Y37.5 Z-8.992 B5. C=DC(0.),7
X-33.674 Y-37.5 Z-8.992 B5. C=DC(0.),7
X-32.674 Y-37.5 Z-8.992 B5. C=DC(0.),7
X-32.674 Y37.5 Z-8.992 B5. C=DC(0.),7
X-31.674 Y37.5 Z-8.992 B5. C=DC(0.),7
X-31.674 Y-37.5 Z-8.992 B5. C=DC(0.),7
X-30.674 Y-37.5 Z-8.992 B5. C=DC(0.),7
X-30.674 Y37.5 Z-8.992 B5. C=DC(0.),7
X-29.674 Y37.5 Z-8.992 B5. C=DC(0.),7
X-29.674 Y7.077 Z-8.992 B5. C=DC(0.),8
X-29.674 Y7.076 Z-8.992 B5. C=DC(0.),3
X-29.674 Y6.34 Z-8.934 B5. C=DC(0.)
X-29.674 Y5.042 Z-8.851 B5. C=DC(0.)
X-29.674 Y4.177 Z-8.806 B5. C=DC(0.)
X-29.674 Y3.744 Z-8.787 B5. C=DC(0.)
X-29.674 Y2.878 Z-8.754 B5. C=DC(0.)
X-29.674 Y1.58 Z-8.721 B5. C=DC(0.)
X-29.674 Y.714 Z-8.71 B5. C=DC(0.)
X-29.674 Y-.151 Z-8.708 B5. C=DC(0.)
X-29.674 Y-.584 Z-8.708 B5. C=DC(0.)
X-29.674 Y-1.449 Z-8.719 B5. C=DC(0.)
X-29.674 Y-1.882 Z-8.727 B5. C=DC(0.)
X-29.674 Y-2.748 Z-8.749 B5. C=DC(0.)
X-29.674 Y-3.613 Z-8.782 B5. C=DC(0.)
X-29.674 Y-4.046 Z-8.8 B5. C=DC(0.)
X-29.674 Y-4.912 Z-8.844 B5. C=DC(0.)
X-29.674 Y-5.344 Z-8.869 B5. C=DC(0.)
X-29.674 Y-6.21 Z-8.924 B5. C=DC(0.)
X-29.674 Y-7.077 Z-8.992 B5. C=DC(0.),8
X-29.674 Y-37.5 Z-8.992 B5. C=DC(0.),7
X-28.674 Y-37.5 Z-8.992 B5. C=DC(0.),7
X-28.674 Y-10.397 Z-8.992 B5. C=DC(0.),8
X-28.674 Y-9.532 Z-8.892 B5. C=DC(0.)
X-28.674 Y-8.669 Z-8.805 B5. C=DC(0.)
X-28.674 Y-8.238 Z-8.763 B5. C=DC(0.)
X-28.674 Y-7.367 Z-8.685 B5. C=DC(0.)
X-28.674 Y-6.931 Z-8.65 B5. C=DC(0.)
X-28.674 Y-6.06 Z-8.584 B5. C=DC(0.)
X-28.674 Y-5.189 Z-8.528 B5. C=DC(0.)
X-28.674 Y-4.753 Z-8.502 B5. C=DC(0.)
X-28.674 Y-3.882 Z-8.458 B5. C=DC(0.)
X-28.674 Y-2.575 Z-8.409 B5. C=DC(0.)
X-28.674 Y-2.104 Z-8.388 B5. C=DC(0.),6
X-28.674 Y-.397 Z-8.374 B5. C=DC(0.)
X-28.674 Y.474 Z-8.374 B5. C=DC(0.)
X-28.674 Y1.345 Z-8.383 B5. C=DC(0.)
X-28.674 Y1.781 Z-8.39 B5. C=DC(0.)
X-28.674 Y2.652 Z-8.411 B5. C=DC(0.)
X-28.674 Y3.959 Z-8.462 B5. C=DC(0.)
X-28.674 Y4.83 Z-8.506 B5. C=DC(0.)
X-28.674 Y6.137 Z-8.59 B5. C=DC(0.)
X-28.674 Y7.008 Z-8.656 B5. C=DC(0.)
X-28.674 Y7.444 Z-8.692 B5. C=DC(0.)
X-28.674 Y8.315 Z-8.77 B5. C=DC(0.)
X-28.674 Y9.18 Z-8.857 B5. C=DC(0.)
X-28.674 Y9.609 Z-8.901 B5. C=DC(0.)
X-28.674 Y10.396 Z-8.992 B5. C=DC(0.),8
X-28.674 Y37.5 Z-8.992 B5. C=DC(0.),7
X-27.674 Y37.5 Z-8.992 B5. C=DC(0.),7
X-27.674 Y12.82 Z-8.992 B5. C=DC(0.),8
X-27.674 Y12.818 Z-8.992 B5. C=DC(0.),3
X-27.674 Y12.328 Z-8.923 B5. C=DC(0.)
X-27.674 Y11.468 Z-8.806 B5. C=DC(0.)
X-27.674 Y10.6 Z-8.698 B5. C=DC(0.)
X-27.674 Y10.166 Z-8.646 B5. C=DC(0.)
X-27.674 Y9.299 Z-8.548 B5. C=DC(0.)
X-27.674 Y7.997 Z-8.416 B5. C=DC(0.)
X-27.674 Y7.129 Z-8.344 B5. C=DC(0.)
X-27.674 Y6.695 Z-8.311 B5. C=DC(0.)
X-27.674 Y5.828 Z-8.249 B5. C=DC(0.)
X-27.674 Y4.96 Z-8.197 B5. C=DC(0.)
X-27.674 Y4.526 Z-8.174 B5. C=DC(0.)
X-27.674 Y3.658 Z-8.133 B5. C=DC(0.)
X-27.674 Y2.79 Z-8.102 B5. C=DC(0.)
X-27.674 Y1.489 Z-8.07 B5. C=DC(0.)
X-27.674 Y.621 Z-8.059 B5. C=DC(0.)
X-27.674 Y-.247 Z-8.058 B5. C=DC(0.)
X-27.674 Y-.68 Z-8.06 B5. C=DC(0.)
X-27.674 Y-1.548 Z-8.07 B5. C=DC(0.)
X-27.674 Y-2.416 Z-8.091 B5. C=DC(0.)
X-27.674 Y-2.85 Z-8.104 B5. C=DC(0.)
X-27.674 Y-3.718 Z-8.136 B5. C=DC(0.)
X-27.674 Y-4.585 Z-8.177 B5. C=DC(0.)
X-27.674 Y-5.019 Z-8.201 B5. C=DC(0.)
X-27.674 Y-5.887 Z-8.253 B5. C=DC(0.)
X-27.674 Y-6.755 Z-8.315 B5. C=DC(0.)
X-27.674 Y-7.189 Z-8.349 B5. C=DC(0.)
X-27.674 Y-8.056 Z-8.421 B5. C=DC(0.)
X-27.674 Y-8.724 Z-8.109 B5. C=DC(0.),1
X-27.674 Y-9.358 Z-8.554 B5. C=DC(0.)
X-27.674 Y-10.226 Z-8.653 B5. C=DC(0.)
X-27.674 Y-10.659 Z-8.705 B5. C=DC(0.)
X-27.674 Y-11.527 Z-8.814 B5. C=DC(0.)
X-27.674 Y-12.819 Z-8.992 B5. C=DC(0.),8
X-27.674 Y-37.5 Z-8.992 B5. C=DC(0.),7
X-26.674 Y-37.5 Z-8.992 B5. C=DC(0.),7
X-26.674 Y-14.773 Z-8.992 B5. C=DC(0.),8
X-26.674 Y-14.343 Z-8.921 B5. C=DC(0.)
X-26.674 Y-13.479 Z-8.785 B5. C=DC(0.)
X-26.674 Y-12.615 Z-8.656 B5. C=DC(0.)
X-26.674 Y-12.183 Z-8.594 B5. C=DC(0.)
X-26.674 Y-11.318 Z-8.476 B5. C=DC(0.)
X-26.674 Y-10.886 Z-8.42 B5. C=DC(0.)
X-26.674 Y-10.022 Z-8.319 B5. C=DC(0.)
X-26.674 Y-9.158 Z-8.227 B5. C=DC(0.)
X-26.674 Y-8.726 Z-8.183 B5. C=DC(0.)
X-26.674 Y-7.862 Z-8.102 B5. C=DC(0.)
X-26.674 Y-6.566 Z-7.994 B5. C=DC(0.)
X-26.674 Y-5.694 Z-7.932 B5. C=DC(0.)
X-26.674 Y-4.385 Z-7.861 B5. C=DC(0.)
X-26.674 Y-3.512 Z-7.822 B5. C=DC(0.)
X-26.674 Y-2.64 Z-7.793 B5. C=DC(0.)
X-26.674 Y-1.331 Z-7.764 B5. C=DC(0.)
X-26.674 Y-.458 Z-7.55 B5. C=DC(0.),1
X-26.674 Y.415 Z-7.755 B5. C=DC(0.)
X-26.674 Y1.723 Z-7.771 B5. C=DC(0.)
X-26.674 Y2.596 Z-7.791 B5. C=DC(0.)
X-26.674 Y3.469 Z-7.821 B5. C=DC(0.)
X-26.674 Y4.778 Z-7.88 B5. C=DC(0.)
X-26.674 Y5.65 Z-7.929 B5. C=DC(0.)
X-26.674 Y6.523 Z-7.991 B5. C=DC(0.)
X-26.674 Y6.959 Z-8.026 B5. C=DC(0.)
X-26.674 Y7.819 Z-8.098 B5. C=DC(0.)
X-26.674 Y8.68 Z-8.179 B5. C=DC(0.)
X-26.674 Y9.11 Z-8.222 B5. C=DC(0.)
X-26.674 Y9.97 Z-8.313 B5. C=DC(0.)
X-26.674 Y10.83 Z-8.414 B5. C=DC(0.)
X-26.674 Y11.261 Z-8.468 B5. C=DC(0.)
X-26.674 Y12.121 Z-8.586 B5. C=DC(0.)
X-26.674 Y12.551 Z-8.647 B5. C=DC(0.)
X-26.674 Y13.411 Z-8.775 B5. C=DC(0.)
X-26.674 Y13.842 Z-8.841 B5. C=DC(0.)
X-26.674 Y14.772 Z-8.992 B5. C=DC(0.),8
X-26.674 Y37.5 Z-8.992 B5. C=DC(0.),7
X-25.674 Y37.5 Z-8.992 B5. C=DC(0.),7
X-25.674 Y16.434 Z-8.992 B5. C=DC(0.),8
X-25.674 Y15.611 Z-8.841 B5. C=DC(0.)
X-25.674 Y14.752 Z-8.694 B5. C=DC(0.)
X-25.674 Y14.323 Z-8.621 B5. C=DC(0.)
X-25.674 Y13.465 Z-8.484 B5. C=DC(0.)
X-25.674 Y13.035 Z-8.416 B5. C=DC(0.)
X-25.674 Y12.177 Z-8.297 B5. C=DC(0.)
X-25.674 Y11.748 Z-8.239 B5. C=DC(0.)
X-25.674 Y10.889 Z-8.129 B5. C=DC(0.)
X-25.674 Y10.46 Z-8.077 B5. C=DC(0.)
X-25.674 Y9.602 Z-7.977 B5. C=DC(0.)
X-25.674 Y9.173 Z-7.932 B5. C=DC(0.)
X-25.674 Y8.308 Z-7.849 B5. C=DC(0.)
X-25.674 Y7.436 Z-7.772 B5. C=DC(0.)
X-25.674 Y6.565 Z-7.705 B5. C=DC(0.)
X-25.674 Y5.693 Z-7.645 B5. C=DC(0.)
X-25.674 Y5.258 Z-7.618 B5. C=DC(0.)
X-25.674 Y4.386 Z-7.57 B5. C=DC(0.)
X-25.674 Y3.515 Z-7.531 B5. C=DC(0.)
X-25.674 Y2.643 Z-7.5 B5. C=DC(0.)
X-25.674 Y2.208 Z-7.488 B5. C=DC(0.)
X-25.674 Y1.336 Z-7.47 B5. C=DC(0.)
X-25.674 Y.465 Z-7.461 B5. C=DC(0.)
X-25.674 Y-.407 Z-7.461 B5. C=DC(0.)
X-25.674 Y-1.278 Z-7.469 B5. C=DC(0.)
X-25.674 Y-2.585 Z-7.498 B5. C=DC(0.)
X-25.674 Y-3.457 Z-7.528 B5. C=DC(0.)
X-25.674 Y-4.328 Z-7.567 B5. C=DC(0.)
X-25.674 Y-5.199 Z-7.615 B5. C=DC(0.)
X-25.674 Y-5.635 Z-7.641 B5. C=DC(0.)
X-25.674 Y-6.506 Z-7.7 B5. C=DC(0.)
X-25.674 Y-7.378 Z-7.768 B5. C=DC(0.)
X-25.674 Y-8.681 Z-7.883 B5. C=DC(0.)
X-25.674 Y-9.544 Z-7.971 B5. C=DC(0.)
X-25.674 Y-9.976 Z-8.02 B5. C=DC(0.)
X-25.674 Y-10.839 Z-8.122 B5. C=DC(0.)
X-25.674 Y-11.702 Z-8.233 B5. C=DC(0.)
X-25.674 Y-12.134 Z-8.291 B5. C=DC(0.)
X-25.674 Y-12.997 Z-8.411 B5. C=DC(0.)
X-25.674 Y-13.428 Z-8.478 B5. C=DC(0.)
X-25.674 Y-14.292 Z-8.616 B5. C=DC(0.)
X-25.674 Y-14.72 Z-8.688 B5. C=DC(0.)
X-25.674 Y-15.576 Z-8.835 B5. C=DC(0.)
X-25.674 Y-16.434 Z-8.992 B5. C=DC(0.),8
X-25.674 Y-37.5 Z-8.992 B5. C=DC(0.),7
X-24.674 Y-37.5 Z-8.992 B5. C=DC(0.),7
X-24.674 Y-17.897 Z-8.992 B5. C=DC(0.),8
X-24.674 Y-17.469 Z-8.906 B5. C=DC(0.)
X-24.674 Y-16.61 Z-8.74 B5. C=DC(0.)
X-24.674 Y-16.18 Z-8.66 B5. C=DC(0.)
X-24.674 Y-15.322 Z-8.503 B5. C=DC(0.)
X-24.674 Y-14.892 Z-8.427 B5. C=DC(0.)
X-24.674 Y-14.033 Z-8.289 B5. C=DC(0.)
X-24.674 Y-13.604 Z-8.223 B5. C=DC(0.)
X-24.674 Y-12.745 Z-8.094 B5. C=DC(0.)
X-24.674 Y-11.449 Z-7.914 B5. C=DC(0.)
X-24.674 Y-10.583 Z-7.81 B5. C=DC(0.)
X-24.674 Y-10.15 Z-7.76 B5. C=DC(0.)
X-24.674 Y-9.283 Z-7.665 B5. C=DC(0.)
X-24.674 Y-8.417 Z-7.579 B5. C=DC(0.)
X-24.674 Y-7.984 Z-7.539 B5. C=DC(0.)
X-24.674 Y-7.117 Z-7.464 B5. C=DC(0.)
X-24.674 Y-6.251 Z-7.401 B5. C=DC(0.)
X-24.674 Y-5.385 Z-7.347 B5. C=DC(0.)
X-24.674 Y-4.951 Z-7.323 B5. C=DC(0.)
X-24.674 Y-4.085 Z-7.279 B5. C=DC(0.)
X-24.674 Y-3.652 Z-7.261 B5. C=DC(0.)
X-24.674 Y-3.219 Z-7.244 B5. C=DC(0.)
X-24.674 Y-2.352 Z-7.217 B5. C=DC(0.)
X-24.674 Y-1.486 Z-7.199 B5. C=DC(0.)
X-24.674 Y-.62 Z-7.189 B5. C=DC(0.)
X-24.674 Y-.187 Z-7.187 B5. C=DC(0.)
X-24.674 Y.68 Z-7.19 B5. C=DC(0.)
X-24.674 Y1.546 Z-7.2 B5. C=DC(0.)
X-24.674 Y1.979 Z-7.209 B5. C=DC(0.)
X-24.674 Y2.413 Z-7.219 B5. C=DC(0.)
X-24.674 Y3.279 Z-7.246 B5. C=DC(0.)
X-24.674 Y4.145 Z-7.282 B5. C=DC(0.)
X-24.674 Y5.445 Z-7.351 B5. C=DC(0.)
X-24.674 Y6.311 Z-7.406 B5. C=DC(0.)
X-24.674 Y7.178 Z-7.468 B5. C=DC(0.)
X-24.674 Y8.044 Z-7.544 B5. C=DC(0.)
X-24.674 Y8.91 Z-7.628 B5. C=DC(0.)
X-24.674 Y9.343 Z-7.672 B5. C=DC(0.)
X-24.674 Y10.21 Z-7.767 B5. C=DC(0.)
X-24.674 Y10.643 Z-7.817 B5. C=DC(0.)
X-24.674 Y11.509 Z-7.921 B5. C=DC(0.)
X-24.674 Y12.376 Z-8.041 B5. C=DC(0.)
X-24.674 Y12.809 Z-8.103 B5. C=DC(0.)
X-24.674 Y13.66 Z-8.231 B5. C=DC(0.)
X-24.674 Y14.937 Z-8.435 B5. C=DC(0.)
X-24.674 Y15.363 Z-8.511 B5. C=DC(0.)
X-24.674 Y16.215 Z-8.666 B5. C=DC(0.)
X-24.674 Y16.64 Z-8.746 B5. C=DC(0.)
X-24.674 Y17.492 Z-8.911 B5. C=DC(0.)
X-24.674 Y17.897 Z-8.992 B5. C=DC(0.),8
X-24.674 Y37.5 Z-8.992 B5. C=DC(0.),7
X-23.674 Y37.5 Z-8.992 B5. C=DC(0.),7
X-23.674 Y19.185 Z-8.992 B5. C=DC(0.),8
X-23.674 Y18.354 Z-8.814 B5. C=DC(0.)
X-23.674 Y17.077 Z-8.554 B5. C=DC(0.)
X-23.674 Y16.652 Z-8.472 B5. C=DC(0.)
X-23.674 Y15.801 Z-8.315 B5. C=DC(0.)
X-23.674 Y14.524 Z-8.096 B5. C=DC(0.)
X-23.674 Y13.673 Z-7.959 B5. C=DC(0.)
X-23.674 Y13.24 Z-7.893 B5. C=DC(0.)
X-23.674 Y12.374 Z-7.772 B5. C=DC(0.)
X-23.674 Y11.94 Z-7.713 B5. C=DC(0.)
X-23.674 Y11.074 Z-7.6 B5. C=DC(0.)
X-23.674 Y10.208 Z-7.496 B5. C=DC(0.)
X-23.674 Y9.774 Z-7.447 B5. C=DC(0.)
X-23.674 Y8.908 Z-7.359 B5. C=DC(0.)
X-23.674 Y8.042 Z-7.279 B5. C=DC(0.)
X-23.674 Y7.175 Z-7.207 B5. C=DC(0.)
X-23.674 Y6.742 Z-7.173 B5. C=DC(0.)
X-23.674 Y5.875 Z-7.111 B5. C=DC(0.)
X-23.674 Y5.009 Z-7.057 B5. C=DC(0.)
X-23.674 Y4.143 Z-7.014 B5. C=DC(0.)
X-23.674 Y3.709 Z-6.996 B5. C=DC(0.)
X-23.674 Y3.276 Z-6.98 B5. C=DC(0.)
X-23.674 Y2.41 Z-6.953 B5. C=DC(0.)
X-23.674 Y1.543 Z-6.935 B5. C=DC(0.)
X-23.674 Y1.11 Z-6.929 B5. C=DC(0.)
X-23.674 Y.244 Z-6.923 B5. C=DC(0.)
X-23.674 Y-.189 Z-6.923 B5. C=DC(0.)
X-23.674 Y-.623 Z-6.924 B5. C=DC(0.)
X-23.674 Y-1.489 Z-6.934 B5. C=DC(0.)
X-23.674 Y-2.356 Z-6.952 B5. C=DC(0.)
X-23.674 Y-3.222 Z-6.977 B5. C=DC(0.)
X-23.674 Y-4.088 Z-7.011 B5. C=DC(0.)
X-23.674 Y-4.955 Z-7.054 B5. C=DC(0.)
X-23.674 Y-5.821 Z-7.107 B5. C=DC(0.)
X-23.674 Y-7.121 Z-7.202 B5. C=DC(0.)
X-23.674 Y-7.987 Z-7.274 B5. C=DC(0.)
X-23.674 Y-8.854 Z-7.354 B5. C=DC(0.)
X-23.674 Y-9.72 Z-7.442 B5. C=DC(0.)
X-23.674 Y-10.153 Z-7.489 B5. C=DC(0.)
X-23.674 Y-11.02 Z-7.593 B5. C=DC(0.)
X-23.674 Y-11.886 Z-7.706 B5. C=DC(0.)
X-23.674 Y-12.319 Z-7.764 B5. C=DC(0.)
X-23.674 Y-13.186 Z-7.885 B5. C=DC(0.)
X-23.674 Y-13.615 Z-7.95 B5. C=DC(0.)
X-23.674 Y-14.474 Z-8.088 B5. C=DC(0.)
X-23.674 Y-15.763 Z-8.308 B5. C=DC(0.)
X-23.674 Y-16.622 Z-8.466 B5. C=DC(0.)
X-23.674 Y-17.052 Z-8.549 B5. C=DC(0.)
X-23.674 Y-18.33 Z-8.809 B5. C=DC(0.)
X-23.674 Y-18.756 Z-8.898 B5. C=DC(0.)
X-23.674 Y-19.184 Z-8.992 B5. C=DC(0.),8
X-23.674 Y-37.5 Z-8.992 B5. C=DC(0.),7
X-22.674 Y-37.5 Z-8.992 B5. C=DC(0.),7
X-22.674 Y-20.351 Z-8.992 B5. C=DC(0.),8
X-22.674 Y-19.924 Z-8.894 B5. C=DC(0.)
X-22.674 Y-19.073 Z-8.705 B5. C=DC(0.)
X-22.674 Y-17.797 Z-8.433 B5. C=DC(0.)
X-22.674 Y-17.372 Z-8.35 B5. C=DC(0.)
X-22.674 Y-16.514 Z-8.187 B5. C=DC(0.)
X-22.674 Y-16.086 Z-8.108 B5. C=DC(0.)
X-22.674 Y-15.228 Z-7.953 B5. C=DC(0.)
X-22.674 Y-14.8 Z-7.881 B5. C=DC(0.)
X-22.674 Y-13.942 Z-7.745 B5. C=DC(0.)
X-22.674 Y-13.514 Z-7.68 B5. C=DC(0.)
X-22.674 Y-12.649 Z-7.551 B5. C=DC(0.)
X-22.674 Y-11.784 Z-7.433 B5. C=DC(0.)
X-22.674 Y-11.352 Z-7.379 B5. C=DC(0.)
X-22.674 Y-10.487 Z-7.275 B5. C=DC(0.)
X-22.674 Y-9.623 Z-7.179 B5. C=DC(0.)
X-22.674 Y-9.19 Z-7.134 B5. C=DC(0.)
X-22.674 Y-8.326 Z-7.048 B5. C=DC(0.)
X-22.674 Y-7.894 Z-7.01 B5. C=DC(0.)
X-22.674 Y-7.461 Z-6.974 B5. C=DC(0.)
X-22.674 Y-6.597 Z-6.908 B5. C=DC(0.)
X-22.674 Y-5.723 Z-6.85 B5. C=DC(0.)
X-22.674 Y-5.287 Z-6.824 B5. C=DC(0.)
X-22.674 Y-4.85 Z-6.799 B5. C=DC(0.)
X-22.674 Y-3.977 Z-6.757 B5. C=DC(0.)
X-22.674 Y-3.104 Z-6.722 B5. C=DC(0.)
X-22.674 Y-2.667 Z-6.709 B5. C=DC(0.)
X-22.674 Y-2.231 Z-6.696 B5. C=DC(0.)
X-22.674 Y-1.357 Z-6.79 B5. C=DC(0.),1
X-22.674 Y-.484 Z-6.67 B5. C=DC(0.)
X-22.674 Y-.048 Z-6.669 B5. C=DC(0.)
X-22.674 Y.389 Z-6.669 B5. C=DC(0.)
X-22.674 Y1.262 Z-6.677 B5. C=DC(0.)
X-22.674 Y2.135 Z-6.694 B5. C=DC(0.)
X-22.674 Y3.009 Z-6.719 B5. C=DC(0.)
X-22.674 Y3.882 Z-6.752 B5. C=DC(0.)
X-22.674 Y4.755 Z-6.794 B5. C=DC(0.)
X-22.674 Y5.192 Z-6.819 B5. C=DC(0.)
X-22.674 Y5.628 Z-6.844 B5. C=DC(0.)
X-22.674 Y6.501 Z-6.902 B5. C=DC(0.)
X-22.674 Y7.799 Z-7.002 B5. C=DC(0.)
X-22.674 Y8.66 Z-7.08 B5. C=DC(0.)
X-22.674 Y9.521 Z-7.167 B5. C=DC(0.)
X-22.674 Y10.382 Z-7.263 B5. C=DC(0.)
X-22.674 Y10.812 Z-7.314 B5. C=DC(0.)
X-22.674 Y11.673 Z-7.418 B5. C=DC(0.)
X-22.674 Y12.534 Z-7.535 B5. C=DC(0.)
X-22.674 Y12.964 Z-7.598 B5. C=DC(0.)
X-22.674 Y13.825 Z-7.727 B5. C=DC(0.)
X-22.674 Y15.117 Z-7.932 B5. C=DC(0.)
X-22.674 Y16.408 Z-8.166 B5. C=DC(0.)
X-22.674 Y17.673 Z-8.407 B5. C=DC(0.)
X-22.674 Y18.095 Z-8.496 B5. C=DC(0.)
X-22.674 Y18.939 Z-8.676 B5. C=DC(0.)
X-22.674 Y19.783 Z-8.863 B5. C=DC(0.)
X-22.674 Y20.351 Z-8.992 B5. C=DC(0.),8
X-22.674 Y37.5 Z-8.992 B5. C=DC(0.),7
X-21.674 Y37.5 Z-8.992 B5. C=DC(0.),7
X-21.674 Y21.408 Z-8.992 B5. C=DC(0.),8
X-21.674 Y21.221 Z-8.946 B5. C=DC(0.),3
X-21.674 Y19.968 Z-8.654 B5. C=DC(0.)
X-21.674 Y19.133 Z-8.465 B5. C=DC(0.)
X-21.674 Y18.279 Z-8.284 B5. C=DC(0.)
X-21.674 Y16.998 Z-8.028 B5. C=DC(0.)
X-21.674 Y16.571 Z-7.945 B5. C=DC(0.)
X-21.674 Y15.716 Z-7.793 B5. C=DC(0.)
X-21.674 Y15.289 Z-7.72 B5. C=DC(0.)
X-21.674 Y14.435 Z-7.576 B5. C=DC(0.)
X-21.674 Y13.581 Z-7.442 B5. C=DC(0.)
X-21.674 Y13.154 Z-7.379 B5. C=DC(0.)
X-21.674 Y12.299 Z-7.26 B5. C=DC(0.)
X-21.674 Y11.872 Z-7.204 B5. C=DC(0.)
X-21.674 Y11.011 Z-7.092 B5. C=DC(0.)
X-21.674 Y10.577 Z-7.04 B5. C=DC(0.)
X-21.674 Y10.142 Z-6.991 B5. C=DC(0.)
X-21.674 Y9.274 Z-6.901 B5. C=DC(0.)
X-21.674 Y7.971 Z-6.778 B5. C=DC(0.)
X-21.674 Y7.103 Z-6.705 B5. C=DC(0.)
X-21.674 Y6.234 Z-6.639 B5. C=DC(0.)
X-21.674 Y5.366 Z-6.585 B5. C=DC(0.)
X-21.674 Y4.497 Z-6.54 B5. C=DC(0.)
X-21.674 Y4.063 Z-6.521 B5. C=DC(0.)
X-21.674 Y3.629 Z-6.503 B5. C=DC(0.)
X-21.674 Y2.76 Z-6.473 B5. C=DC(0.)
X-21.674 Y1.892 Z-6.151 B5. C=DC(0.),1
X-21.674 Y1.023 Z-6.438 B5. C=DC(0.)
X-21.674 Y.589 Z-6.434 B5. C=DC(0.)
X-21.674 Y-.28 Z-6.432 B5. C=DC(0.)
X-21.674 Y-1.148 Z-6.439 B5. C=DC(0.)
X-21.674 Y-1.582 Z-6.446 B5. C=DC(0.)
X-21.674 Y-2.017 Z-6.454 B5. C=DC(0.)
X-21.674 Y-2.885 Z-6.476 B5. C=DC(0.)
X-21.674 Y-3.754 Z-6.507 B5. C=DC(0.)
X-21.674 Y-4.188 Z-6.527 B5. C=DC(0.)
X-21.674 Y-4.622 Z-6.546 B5. C=DC(0.)
X-21.674 Y-5.491 Z-6.593 B5. C=DC(0.)
X-21.674 Y-6.359 Z-6.648 B5. C=DC(0.)
X-21.674 Y-7.228 Z-6.714 B5. C=DC(0.)
X-21.674 Y-8.096 Z-6.788 B5. C=DC(0.)
X-21.674 Y-8.965 Z-6.87 B5. C=DC(0.)
X-21.674 Y-9.399 Z-6.913 B5. C=DC(0.)
X-21.674 Y-10.267 Z-7.005 B5. C=DC(0.)
X-21.674 Y-10.702 Z-7.055 B5. C=DC(0.)
X-21.674 Y-11.132 Z-7.107 B5. C=DC(0.)
X-21.674 Y-11.993 Z-7.219 B5. C=DC(0.)
X-21.674 Y-12.423 Z-7.278 B5. C=DC(0.)
X-21.674 Y-13.284 Z-7.398 B5. C=DC(0.)
X-21.674 Y-13.714 Z-7.461 B5. C=DC(0.)
X-21.674 Y-14.575 Z-7.6 B5. C=DC(0.)
X-21.674 Y-15.436 Z-7.745 B5. C=DC(0.)
X-21.674 Y-16.296 Z-7.896 B5. C=DC(0.)
X-21.674 Y-16.723 Z-7.975 B5. C=DC(0.)
X-21.674 Y-17.15 Z-8.058 B5. C=DC(0.)
X-21.674 Y-18.004 Z-8.229 B5. C=DC(0.)
X-21.674 Y-18.858 Z-8.405 B5. C=DC(0.)
X-21.674 Y-19.712 Z-8.594 B5. C=DC(0.)
X-21.674 Y-20.983 Z-8.89 B5. C=DC(0.)
X-21.674 Y-21.407 Z-8.992 B5. C=DC(0.),8
X-21.674 Y-21.409 Z-8.992 B5. C=DC(0.),3
X-21.674 Y-37.5 Z-8.992 B5. C=DC(0.),7
X-20.674 Y-37.5 Z-8.992 B5. C=DC(0.),7
X-20.674 Y-22.364 Z-8.992 B5. C=DC(0.),8
X-20.674 Y-22.363 Z-8.992 B5. C=DC(0.),3
X-20.674 Y-21.941 Z-8.884 B5. C=DC(0.)
X-20.674 Y-20.67 Z-8.576 B5. C=DC(0.)
X-20.674 Y-20.246 Z-8.474 B5. C=DC(0.)
X-20.674 Y-19.821 Z-8.378 B5. C=DC(0.)
X-20.674 Y-18.972 Z-8.193 B5. C=DC(0.)
X-20.674 Y-18.547 Z-8.103 B5. C=DC(0.)
X-20.674 Y-17.692 Z-7.925 B5. C=DC(0.)
X-20.674 Y-17.264 Z-7.843 B5. C=DC(0.)
X-20.674 Y-16.408 Z-7.683 B5. C=DC(0.)
X-20.674 Y-15.98 Z-7.605 B5. C=DC(0.)
X-20.674 Y-15.125 Z-7.454 B5. C=DC(0.)
X-20.674 Y-14.693 Z-7.384 B5. C=DC(0.)
X-20.674 Y-13.831 Z-7.249 B5. C=DC(0.)
X-20.674 Y-12.537 Z-7.058 B5. C=DC(0.)
X-20.674 Y-11.674 Z-6.944 B5. C=DC(0.)
X-20.674 Y-10.811 Z-6.84 B5. C=DC(0.)
X-20.674 Y-9.948 Z-6.742 B5. C=DC(0.)
X-20.674 Y-9.517 Z-6.694 B5. C=DC(0.)
X-20.674 Y-8.654 Z-6.607 B5. C=DC(0.)
X-20.674 Y-7.784 Z-6.531 B5. C=DC(0.)
X-20.674 Y-7.348 Z-6.497 B5. C=DC(0.)
X-20.674 Y-6.913 Z-6.463 B5. C=DC(0.)
X-20.674 Y-6.042 Z-6.201 B5. C=DC(0.),1
X-20.674 Y-5.171 Z-6.348 B5. C=DC(0.)
X-20.674 Y-4.3 Z-6.302 B5. C=DC(0.)
X-20.674 Y-3.429 Z-6.265 B5. C=DC(0.)
X-20.674 Y-2.994 Z-6.249 B5. C=DC(0.)
X-20.674 Y-2.559 Z-6.236 B5. C=DC(0.)
X-20.674 Y-1.688 Z-6.217 B5. C=DC(0.)
X-20.674 Y-1.252 Z-6.21 B5. C=DC(0.)
X-20.674 Y-.381 Z-6.203 B5. C=DC(0.)
X-20.674 Y.489 Z-6.204 B5. C=DC(0.)
X-20.674 Y1.36 Z-6.212 B5. C=DC(0.)
X-20.674 Y2.667 Z-6.239 B5. C=DC(0.)
X-20.674 Y3.537 Z-6.269 B5. C=DC(0.)
X-20.674 Y3.973 Z-6.288 B5. C=DC(0.)
X-20.674 Y4.408 Z-6.308 B5. C=DC(0.)
X-20.674 Y5.279 Z-6.354 B5. C=DC(0.)
X-20.674 Y6.15 Z-6.409 B5. C=DC(0.)
X-20.674 Y7.021 Z-6.471 B5. C=DC(0.)
X-20.674 Y7.892 Z-6.541 B5. C=DC(0.)
X-20.674 Y8.762 Z-6.617 B5. C=DC(0.)
X-20.674 Y9.627 Z-6.706 B5. C=DC(0.)
X-20.674 Y10.484 Z-6.802 B5. C=DC(0.)
X-20.674 Y11.342 Z-6.904 B5. C=DC(0.)
X-20.674 Y12.2 Z-7.013 B5. C=DC(0.)
X-20.674 Y12.628 Z-7.07 B5. C=DC(0.)
X-20.674 Y13.486 Z-7.197 B5. C=DC(0.)
X-20.674 Y13.915 Z-7.262 B5. C=DC(0.)
X-20.674 Y14.772 Z-7.397 B5. C=DC(0.)
X-20.674 Y15.201 Z-7.467 B5. C=DC(0.)
X-20.674 Y16.059 Z-7.619 B5. C=DC(0.)
X-20.674 Y17.345 Z-7.858 B5. C=DC(0.)
X-20.674 Y17.774 Z-7.942 B5. C=DC(0.)
X-20.674 Y18.614 Z-8.117 B5. C=DC(0.)
X-20.674 Y19.033 Z-8.207 B5. C=DC(0.)
X-20.674 Y19.873 Z-8.389 B5. C=DC(0.)
X-20.674 Y20.292 Z-8.485 B5. C=DC(0.)
X-20.674 Y21.551 Z-8.79 B5. C=DC(0.)
X-20.674 Y21.971 Z-8.892 B5. C=DC(0.)
X-20.674 Y22.363 Z-8.992 B5. C=DC(0.),8
X-20.674 Y22.365 Z-8.992 B5. C=DC(0.),3
X-20.674 Y37.5 Z-8.992 B5. C=DC(0.),7
X-19.674 Y37.5 Z-8.992 B5. C=DC(0.),7
X-19.674 Y23.24 Z-8.992 B5. C=DC(0.),8
X-19.674 Y23.239 Z-8.992 B5. C=DC(0.),3
X-19.674 Y22.379 Z-8.768 B5. C=DC(0.)
X-19.674 Y21.119 Z-8.452 B5. C=DC(0.)
X-19.674 Y20.699 Z-8.353 B5. C=DC(0.)
X-19.674 Y19.439 Z-8.068 B5. C=DC(0.)
X-19.674 Y19.019 Z-7.975 B5. C=DC(0.)
X-19.674 Y18.599 Z-7.887 B5. C=DC(0.)
X-19.674 Y17.749 Z-7.715 B5. C=DC(0.)
X-19.674 Y16.89 Z-7.548 B5. C=DC(0.)
X-19.674 Y16.461 Z-7.465 B5. C=DC(0.)
X-19.674 Y15.602 Z-7.317 B5. C=DC(0.)
X-19.674 Y15.173 Z-7.244 B5. C=DC(0.)
X-19.674 Y14.314 Z-7.102 B5. C=DC(0.)
X-19.674 Y13.885 Z-7.033 B5. C=DC(0.)
X-19.674 Y13.026 Z-6.909 B5. C=DC(0.)
X-19.674 Y12.167 Z-6.791 B5. C=DC(0.)
X-19.674 Y11.738 Z-6.735 B5. C=DC(0.)
X-19.674 Y10.879 Z-6.625 B5. C=DC(0.)
X-19.674 Y10.021 Z-6.53 B5. C=DC(0.)
X-19.674 Y9.162 Z-6.442 B5. C=DC(0.)
X-19.674 Y8.303 Z-6.36 B5. C=DC(0.)
X-19.674 Y7.432 Z-6.284 B5. C=DC(0.)
X-19.674 Y6.56 Z-6.218 B5. C=DC(0.)
X-19.674 Y6.124 Z-6.19 B5. C=DC(0.)
X-19.674 Y5.688 Z-6.162 B5. C=DC(0.)
X-19.674 Y4.817 Z-6.114 B5. C=DC(0.)
X-19.674 Y3.945 Z-6.073 B5. C=DC(0.)
X-19.674 Y3.074 Z-6.04 B5. C=DC(0.)
X-19.674 Y2.638 Z-6.026 B5. C=DC(0.)
X-19.674 Y1.766 Z-6.006 B5. C=DC(0.)
X-19.674 Y.895 Z-5.993 B5. C=DC(0.)
X-19.674 Y.023 Z-5.989 B5. C=DC(0.)
X-19.674 Y-.412 Z-5.989 B5. C=DC(0.)
X-19.674 Y-1.284 Z-5.998 B5. C=DC(0.)
X-19.674 Y-2.591 Z-6.025 B5. C=DC(0.)
X-19.674 Y-3.463 Z-6.054 B5. C=DC(0.)
X-19.674 Y-4.334 Z-6.09 B5. C=DC(0.)
X-19.674 Y-5.642 Z-6.159 B5. C=DC(0.)
X-19.674 Y-6.513 Z-6.015 B5. C=DC(0.),1
X-19.674 Y-6.949 Z-6.246 B5. C=DC(0.)
X-19.674 Y-7.385 Z-6.28 B5. C=DC(0.)
X-19.674 Y-8.252 Z-6.355 B5. C=DC(0.)
X-19.674 Y-9.115 Z-6.437 B5. C=DC(0.)
X-19.674 Y-9.979 Z-6.526 B5. C=DC(0.)
X-19.674 Y-10.842 Z-6.621 B5. C=DC(0.)
X-19.674 Y-11.274 Z-6.662 B5. C=DC(0.)
X-19.674 Y-11.705 Z-6.729 B5. C=DC(0.)
X-19.674 Y-12.137 Z-6.787 B5. C=DC(0.)
X-19.674 Y-13. Z-6.905 B5. C=DC(0.)
X-19.674 Y-13.863 Z-7.03 B5. C=DC(0.)
X-19.674 Y-14.295 Z-7.099 B5. C=DC(0.)
X-19.674 Y-15.158 Z-7.241 B5. C=DC(0.)
X-19.674 Y-15.586 Z-7.314 B5. C=DC(0.)
X-19.674 Y-16.443 Z-7.462 B5. C=DC(0.)
X-19.674 Y-16.871 Z-7.544 B5. C=DC(0.)
X-19.674 Y-17.727 Z-7.711 B5. C=DC(0.)
X-19.674 Y-18.155 Z-7.797 B5. C=DC(0.)
X-19.674 Y-19.008 Z-7.973 B5. C=DC(0.)
X-19.674 Y-19.433 Z-8.066 B5. C=DC(0.)
X-19.674 Y-20.707 Z-8.355 B5. C=DC(0.)
X-19.674 Y-21.129 Z-8.455 B5. C=DC(0.)
X-19.674 Y-22.395 Z-8.772 B5. C=DC(0.)
X-19.674 Y-23.24 Z-8.992 B5. C=DC(0.),8
X-19.674 Y-37.5 Z-8.992 B5. C=DC(0.),7
X-18.674 Y-37.5 Z-8.992 B5. C=DC(0.),7
X-18.674 Y-24.044 Z-8.992 B5. C=DC(0.),8
X-18.674 Y-24.042 Z-8.992 B5. C=DC(0.),3
X-18.674 Y-23.202 Z-8.765 B5. C=DC(0.)
X-18.674 Y-22.78 Z-8.655 B5. C=DC(0.)
X-18.674 Y-21.937 Z-8.437 B5. C=DC(0.)
X-18.674 Y-21.091 Z-8.232 B5. C=DC(0.)
X-18.674 Y-19.818 Z-7.934 B5. C=DC(0.)
X-18.674 Y-18.537 Z-7.663 B5. C=DC(0.)
X-18.674 Y-17.682 Z-7.487 B5. C=DC(0.)
X-18.674 Y-16.826 Z-7.326 B5. C=DC(0.)
X-18.674 Y-15.971 Z-7.171 B5. C=DC(0.)
X-18.674 Y-15.115 Z-7.021 B5. C=DC(0.)
X-18.674 Y-14.684 Z-6.952 B5. C=DC(0.)
X-18.674 Y-14.253 Z-6.885 B5. C=DC(0.)
X-18.674 Y-13.39 Z-6.754 B5. C=DC(0.)
X-18.674 Y-12.528 Z-6.629 B5. C=DC(0.)
X-18.674 Y-11.665 Z-6.519 B5. C=DC(0.)
X-18.674 Y-11.234 Z-6.457 B5. C=DC(0.),8
X-18.674 Y-10.824 Z-6.338 B5. C=DC(0.)
X-18.674 Y-10.397 Z-6.286 B5. C=DC(0.)
X-18.674 Y-9.961 Z-6.309 B5. C=DC(0.),8
X-18.674 Y-9.928 Z-6.314 B5. C=DC(0.),3
X-18.674 Y-9.496 Z-6.267 B5. C=DC(0.)
X-18.674 Y-8.626 Z-6.183 B5. C=DC(0.)
X-18.674 Y-7.756 Z-6.108 B5. C=DC(0.)
X-18.674 Y-7.321 Z-6.074 B5. C=DC(0.)
X-18.674 Y-6.885 Z-6.04 B5. C=DC(0.)
X-18.674 Y-6.015 Z-5.979 B5. C=DC(0.)
X-18.674 Y-2.534 Z-5.819 B5. C=DC(0.),6
X-18.674 Y-1.664 Z-5.8 B5. C=DC(0.)
X-18.674 Y-1.228 Z-5.794 B5. C=DC(0.)
X-18.674 Y-.358 Z-5.786 B5. C=DC(0.)
X-18.674 Y.077 Z-5.786 B5. C=DC(0.)
X-18.674 Y.947 Z-5.79 B5. C=DC(0.)
X-18.674 Y1.818 Z-5.803 B5. C=DC(0.)
X-18.674 Y3.123 Z-5.836 B5. C=DC(0.)
X-18.674 Y3.993 Z-5.868 B5. C=DC(0.)
X-18.674 Y4.428 Z-5.887 B5. C=DC(0.)
X-18.674 Y5.299 Z-5.934 B5. C=DC(0.)
X-18.674 Y6.169 Z-5.989 B5. C=DC(0.)
X-18.674 Y7.039 Z-6.051 B5. C=DC(0.)
X-18.674 Y7.91 Z-6.121 B5. C=DC(0.)
X-18.674 Y9.215 Z-6.239 B5. C=DC(0.)
X-18.674 Y9.65 Z-6.284 B5. C=DC(0.)
X-18.674 Y10.507 Z-6.379 B5. C=DC(0.)
X-18.674 Y11.364 Z-6.481 B5. C=DC(0.)
X-18.674 Y12.221 Z-6.589 B5. C=DC(0.)
X-18.674 Y12.65 Z-6.646 B5. C=DC(0.)
X-18.674 Y13.506 Z-6.771 B5. C=DC(0.)
X-18.674 Y14.363 Z-6.902 B5. C=DC(0.)
X-18.674 Y15.22 Z-7.038 B5. C=DC(0.)
X-18.674 Y15.649 Z-7.113 B5. C=DC(0.)
X-18.674 Y16.934 Z-7.345 B5. C=DC(0.)
X-18.674 Y17.791 Z-7.509 B5. C=DC(0.)
X-18.674 Y18.219 Z-7.597 B5. C=DC(0.)
X-18.674 Y18.648 Z-7.686 B5. C=DC(0.)
X-18.674 Y19.486 Z-7.863 B5. C=DC(0.)
X-18.674 Y19.905 Z-7.954 B5. C=DC(0.)
X-18.674 Y21.162 Z-8.249 B5. C=DC(0.)
X-18.674 Y21.58 Z-8.349 B5. C=DC(0.)
X-18.674 Y21.999 Z-8.453 B5. C=DC(0.)
X-18.674 Y22.837 Z-8.67 B5. C=DC(0.)
X-18.674 Y23.675 Z-8.892 B5. C=DC(0.)
X-18.674 Y24.043 Z-8.992 B5. C=DC(0.),8
X-18.674 Y37.5 Z-8.992 B5. C=DC(0.),7
X-17.674 Y37.5 Z-8.992 B5. C=DC(0.),7
X-17.674 Y24.781 Z-8.992 B5. C=DC(0.),8
X-17.674 Y24.514 Z-8.917 B5. C=DC(0.)
X-17.674 Y23.676 Z-8.687 B5. C=DC(0.)
X-17.674 Y22.839 Z-8.462 B5. C=DC(0.)
X-17.674 Y22.001 Z-8.25 B5. C=DC(0.)
X-17.674 Y21.582 Z-8.147 B5. C=DC(0.)
X-17.674 Y20.744 Z-7.944 B5. C=DC(0.)
X-17.674 Y19.906 Z-7.756 B5. C=DC(0.)
X-17.674 Y18.65 Z-7.481 B5. C=DC(0.)
X-17.674 Y18.221 Z-7.396 B5. C=DC(0.)
X-17.674 Y17.365 Z-7.228 B5. C=DC(0.)
X-17.674 Y16.508 Z-7.066 B5. C=DC(0.)
X-17.674 Y16.079 Z-6.989 B5. C=DC(0.)
X-17.674 Y14.794 Z-6.774 B5. C=DC(0.)
X-17.674 Y13.937 Z-6.636 B5. C=DC(0.)
X-17.674 Y13.509 Z-6.574 B5. C=DC(0.)
X-17.674 Y12.652 Z-6.454 B5. C=DC(0.)
X-17.674 Y11.795 Z-6.339 B5. C=DC(0.)
X-17.674 Y10.938 Z-6.232 B5. C=DC(0.)
X-17.674 Y9.646 Z-6.092 B5. C=DC(0.)
X-17.674 Y8.776 Z-6.005 B5. C=DC(0.)
X-17.674 Y7.905 Z-5.925 B5. C=DC(0.)
X-17.674 Y7.47 Z-5.888 B5. C=DC(0.)
X-17.674 Y6.6 Z-5.825 B5. C=DC(0.)
X-17.674 Y5.729 Z-5.769 B5. C=DC(0.)
X-17.674 Y4.859 Z-5.72 B5. C=DC(0.)
X-17.674 Y3.988 Z-5.679 B5. C=DC(0.)
X-17.674 Y3.118 Z-5.645 B5. C=DC(0.)
X-17.674 Y2.248 Z-5.619 B5. C=DC(0.)
X-17.674 Y1.812 Z-5.609 B5. C=DC(0.)
X-17.674 Y.942 Z-5.596 B5. C=DC(0.)
X-17.674 Y.072 Z-5.592 B5. C=DC(0.)
X-17.674 Y-.799 Z-5.595 B5. C=DC(0.)
X-17.674 Y-1.669 Z-5.606 B5. C=DC(0.)
X-17.674 Y-2.105 Z-5.616 B5. C=DC(0.)
X-17.674 Y-2.975 Z-5.64 B5. C=DC(0.)
X-17.674 Y-4.281 Z-5.692 B5. C=DC(0.)
X-17.674 Y-5.151 Z-5.735 B5. C=DC(0.)
X-17.674 Y-5.586 Z-5.761 B5. C=DC(0.)
X-17.674 Y-6.892 Z-5.846 B5. C=DC(0.)
X-17.674 Y-7.327 Z-5.877 B5. C=DC(0.)
X-17.674 Y-7.762 Z-5.913 B5. C=DC(0.)
X-17.674 Y-8.198 Z-5.951 B5. C=DC(0.)
X-17.674 Y-9.068 Z-6.033 B5. C=DC(0.),8
X-17.674 Y-9.264 Z-5.983 B5. C=DC(0.)
X-17.674 Y-9.701 Z-5.938 B5. C=DC(0.)
X-17.674 Y-10.13 Z-5.971 B5. C=DC(0.)
X-17.674 Y-10.544 Z-6.071 B5. C=DC(0.)
X-17.674 Y-10.937 Z-6.231 B5. C=DC(0.),8
X-17.674 Y-11.562 Z-6.309 B5. C=DC(0.)
X-17.674 Y-12.853 Z-6.481 B5. C=DC(0.)
X-17.674 Y-13.714 Z-6.603 B5. C=DC(0.)
X-17.674 Y-14.574 Z-6.738 B5. C=DC(0.)
X-17.674 Y-15.005 Z-6.808 B5. C=DC(0.)
X-17.674 Y-15.866 Z-6.953 B5. C=DC(0.)
X-17.674 Y-16.296 Z-7.027 B5. C=DC(0.)
X-17.674 Y-17.15 Z-7.187 B5. C=DC(0.)
X-17.674 Y-17.577 Z-7.27 B5. C=DC(0.)
X-17.674 Y-18.431 Z-7.437 B5. C=DC(0.)
X-17.674 Y-18.858 Z-7.526 B5. C=DC(0.)
X-17.674 Y-20.139 Z-7.807 B5. C=DC(0.)
X-17.674 Y-20.562 Z-7.902 B5. C=DC(0.)
X-17.674 Y-20.986 Z-8.003 B5. C=DC(0.)
X-17.674 Y-21.834 Z-8.208 B5. C=DC(0.)
X-17.674 Y-22.678 Z-8.42 B5. C=DC(0.)
X-17.674 Y-23.52 Z-8.644 B5. C=DC(0.)
X-17.674 Y-24.362 Z-8.875 B5. C=DC(0.)
X-17.674 Y-24.78 Z-8.992 B5. C=DC(0.),8
X-17.674 Y-24.781 Z-8.992 B5. C=DC(0.),3
X-17.674 Y-37.5 Z-8.992 B5. C=DC(0.),7
X-16.674 Y-37.5 Z-8.992 B5. C=DC(0.),7
X-16.674 Y-25.458 Z-8.992 B5. C=DC(0.),8
X-16.674 Y-25.036 Z-8.871 B5. C=DC(0.)
X-16.674 Y-24.197 Z-8.634 B5. C=DC(0.)
X-16.674 Y-23.357 Z-8.404 B5. C=DC(0.)
X-16.674 Y-22.512 Z-8.187 B5. C=DC(0.)
X-16.674 Y-22.09 Z-8.08 B5. C=DC(0.)
X-16.674 Y-21.667 Z-7.974 B5. C=DC(0.)
X-16.674 Y-20.819 Z-7.773 B5. C=DC(0.)
X-16.674 Y-20.393 Z-7.675 B5. C=DC(0.)
X-16.674 Y-19.542 Z-7.483 B5. C=DC(0.)
X-16.674 Y-19.116 Z-7.392 B5. C=DC(0.)
X-16.674 Y-17.839 Z-7.132 B5. C=DC(0.)
X-16.674 Y-17.413 Z-7.047 B5. C=DC(0.)
X-16.674 Y-16.126 Z-6.814 B5. C=DC(0.)
X-16.674 Y-15.268 Z-6.663 B5. C=DC(0.)
X-16.674 Y-14.839 Z-6.593 B5. C=DC(0.)
X-16.674 Y-13.981 Z-6.461 B5. C=DC(0.)
X-16.674 Y-13.116 Z-6.333 B5. C=DC(0.)
X-16.674 Y-12.683 Z-6.271 B5. C=DC(0.)
X-16.674 Y-11.818 Z-6.159 B5. C=DC(0.)
X-16.674 Y-10.953 Z-6.054 B5. C=DC(0.)
X-16.674 Y-10.586 Z-6.011 B5. C=DC(0.),8
X-16.674 Y-10.212 Z-5.817 B5. C=DC(0.)
X-16.674 Y-9.811 Z-5.679 B5. C=DC(0.)
X-16.674 Y-9.388 Z-5.603 B5. C=DC(0.)
X-16.674 Y-8.954 Z-5.599 B5. C=DC(0.)
X-16.674 Y-8.52 Z-5.678 B5. C=DC(0.)
X-16.674 Y-8.205 Z-5.772 B5. C=DC(0.),8
X-16.674 Y-7.768 Z-5.734 B5. C=DC(0.)
X-16.674 Y-6.897 Z-5.666 B5. C=DC(0.)
X-16.674 Y-6.027 Z-5.604 B5. C=DC(0.)
X-16.674 Y-5.591 Z-5.576 B5. C=DC(0.)
X-16.674 Y-5.156 Z-5.552 B5. C=DC(0.)
X-16.674 Y-4.286 Z-5.51 B5. C=DC(0.)
X-16.674 Y-3.415 Z-5.475 B5. C=DC(0.)
X-16.674 Y-2.109 Z-5.437 B5. C=DC(0.)
X-16.674 Y-1.674 Z-5.429 B5. C=DC(0.)
X-16.674 Y-.803 Z-5.417 B5. C=DC(0.)
X-16.674 Y.067 Z-5.414 B5. C=DC(0.)
X-16.674 Y.938 Z-5.418 B5. C=DC(0.)
X-16.674 Y1.373 Z-5.424 B5. C=DC(0.)
X-16.674 Y2.243 Z-5.44 B5. C=DC(0.)
X-16.674 Y3.114 Z-5.465 B5. C=DC(0.)
X-16.674 Y3.985 Z-5.497 B5. C=DC(0.)
X-16.674 Y4.855 Z-5.536 B5. C=DC(0.)
X-16.674 Y5.726 Z-5.585 B5. C=DC(0.)
X-16.674 Y6.161 Z-5.613 B5. C=DC(0.)
X-16.674 Y7.031 Z-5.676 B5. C=DC(0.)
X-16.674 Y7.902 Z-5.746 B5. C=DC(0.)
X-16.674 Y8.772 Z-5.822 B5. C=DC(0.)
X-16.674 Y9.643 Z-5.906 B5. C=DC(0.)
X-16.674 Y10.072 Z-5.952 B5. C=DC(0.)
X-16.674 Y10.929 Z-6.051 B5. C=DC(0.)
X-16.674 Y11.786 Z-6.155 B5. C=DC(0.)
X-16.674 Y12.643 Z-6.266 B5. C=DC(0.)
X-16.674 Y13.072 Z-6.327 B5. C=DC(0.)
X-16.674 Y13.929 Z-6.453 B5. C=DC(0.)
X-16.674 Y14.786 Z-6.585 B5. C=DC(0.)
X-16.674 Y15.214 Z-6.654 B5. C=DC(0.)
X-16.674 Y16.072 Z-6.804 B5. C=DC(0.)
X-16.674 Y16.5 Z-6.88 B5. C=DC(0.)
X-16.674 Y17.357 Z-7.036 B5. C=DC(0.)
X-16.674 Y17.786 Z-7.121 B5. C=DC(0.)
X-16.674 Y19.072 Z-7.383 B5. C=DC(0.)
X-16.674 Y19.49 Z-7.471 B5. C=DC(0.)
X-16.674 Y20.328 Z-7.261 B5. C=DC(0.),1
X-16.674 Y21.166 Z-7.854 B5. C=DC(0.)
X-16.674 Y21.584 Z-7.953 B5. C=DC(0.)
X-16.674 Y22.422 Z-8.164 B5. C=DC(0.)
X-16.674 Y23.26 Z-8.379 B5. C=DC(0.)
X-16.674 Y23.679 Z-8.492 B5. C=DC(0.)
X-16.674 Y24.516 Z-8.725 B5. C=DC(0.)
X-16.674 Y25.457 Z-8.992 B5. C=DC(0.)
X-16.674 Y25.459 Z-8.992 B5. C=DC(0.),8
X-16.674 Y37.5 Z-8.992 B5. C=DC(0.),7
X-15.674 Y37.5 Z-8.992 B5. C=DC(0.),7
X-15.674 Y26.08 Z-8.992 B5. C=DC(0.),8
X-15.674 Y26.078 Z-8.992 B5. C=DC(0.),3
X-15.674 Y25.794 Z-8.908 B5. C=DC(0.)
X-15.674 Y24.958 Z-8.666 B5. C=DC(0.)
X-15.674 Y24.121 Z-8.428 B5. C=DC(0.)
X-15.674 Y22.867 Z-8.097 B5. C=DC(0.)
X-15.674 Y22.449 Z-7.988 B5. C=DC(0.)
X-15.674 Y22.031 Z-7.884 B5. C=DC(0.)
X-15.674 Y21.195 Z-7.683 B5. C=DC(0.)
X-15.674 Y20.359 Z-7.286 B5. C=DC(0.),1
X-15.674 Y19.523 Z-7.304 B5. C=DC(0.)
X-15.674 Y19.095 Z-7.212 B5. C=DC(0.)
X-15.674 Y18.238 Z-7.033 B5. C=DC(0.)
X-15.674 Y17.81 Z-6.95 B5. C=DC(0.)
X-15.674 Y16.526 Z-6.708 B5. C=DC(0.)
X-15.674 Y16.098 Z-6.63 B5. C=DC(0.)
X-15.674 Y15.242 Z-6.487 B5. C=DC(0.)
X-15.674 Y14.386 Z-6.349 B5. C=DC(0.)
X-15.674 Y13.53 Z-6.219 B5. C=DC(0.)
X-15.674 Y13.102 Z-6.158 B5. C=DC(0.)
X-15.674 Y12.246 Z-6.043 B5. C=DC(0.)
X-15.674 Y11.39 Z-5.932 B5. C=DC(0.)
X-15.674 Y10.962 Z-5.88 B5. C=DC(0.)
X-15.674 Y10.534 Z-5.832 B5. C=DC(0.)
X-15.674 Y9.664 Z-5.74 B5. C=DC(0.)
X-15.674 Y8.794 Z-5.653 B5. C=DC(0.)
X-15.674 Y7.924 Z-5.573 B5. C=DC(0.)
X-15.674 Y7.054 Z-5.507 B5. C=DC(0.)
X-15.674 Y6.184 Z-5.447 B5. C=DC(0.)
X-15.674 Y5.315 Z-5.394 B5. C=DC(0.)
X-15.674 Y4.445 Z-5.348 B5. C=DC(0.)
X-15.674 Y3.575 Z-5.31 B5. C=DC(0.)
X-15.674 Y2.705 Z-5.279 B5. C=DC(0.)
X-15.674 Y1.835 Z-5.26 B5. C=DC(0.)
X-15.674 Y.965 Z-5.247 B5. C=DC(0.)
X-15.674 Y.095 Z-5.243 B5. C=DC(0.)
X-15.674 Y-.775 Z-5.245 B5. C=DC(0.)
X-15.674 Y-1.644 Z-5.256 B5. C=DC(0.)
X-15.674 Y-2.514 Z-5.274 B5. C=DC(0.)
X-15.674 Y-3.384 Z-5.303 B5. C=DC(0.)
X-15.674 Y-4.254 Z-5.339 B5. C=DC(0.)
X-15.674 Y-5.124 Z-5.383 B5. C=DC(0.)
X-15.674 Y-5.994 Z-5.435 B5. C=DC(0.)
X-15.674 Y-6.429 Z-5.463 B5. C=DC(0.)
X-15.674 Y-7.299 Z-5.524 B5. C=DC(0.),8
X-15.674 Y-7.3 Z-5.524 B5. C=DC(0.),3
X-15.674 Y-7.772 Z-5.382 B5. C=DC(0.)
X-15.674 Y-8.204 Z-5.274 B5. C=DC(0.)
X-15.674 Y-8.639 Z-5.246 B5. C=DC(0.)
X-15.674 Y-9.066 Z-5.294 B5. C=DC(0.)
X-15.674 Y-9.475 Z-5.407 B5. C=DC(0.)
X-15.674 Y-9.86 Z-5.579 B5. C=DC(0.)
X-15.674 Y-10.232 Z-5.799 B5. C=DC(0.),8
X-15.674 Y-11.171 Z-5.904 B5. C=DC(0.)
X-15.674 Y-12.032 Z-6.015 B5. C=DC(0.)
X-15.674 Y-13.324 Z-6.189 B5. C=DC(0.)
X-15.674 Y-13.755 Z-6.251 B5. C=DC(0.)
X-15.674 Y-14.186 Z-6.317 B5. C=DC(0.)
X-15.674 Y-15.047 Z-6.456 B5. C=DC(0.)
X-15.674 Y-15.478 Z-6.526 B5. C=DC(0.)
X-15.674 Y-16.336 Z-6.674 B5. C=DC(0.)
X-15.674 Y-16.763 Z-6.752 B5. C=DC(0.)
X-15.674 Y-17.618 Z-6.913 B5. C=DC(0.)
X-15.674 Y-18.045 Z-6.995 B5. C=DC(0.)
X-15.674 Y-18.472 Z-7.082 B5. C=DC(0.)
X-15.674 Y-19.327 Z-7.261 B5. C=DC(0.)
X-15.674 Y-20.181 Z-7.447 B5. C=DC(0.)
X-15.674 Y-21.03 Z-7.643 B5. C=DC(0.)
X-15.674 Y-21.878 Z-7.847 B5. C=DC(0.)
X-15.674 Y-22.299 Z-7.949 B5. C=DC(0.)
X-15.674 Y-22.72 Z-8.058 B5. C=DC(0.)
X-15.674 Y-23.983 Z-8.391 B5. C=DC(0.)
X-15.674 Y-24.405 Z-8.508 B5. C=DC(0.)
X-15.674 Y-24.823 Z-8.627 B5. C=DC(0.)
X-15.674 Y-25.659 Z-8.869 B5. C=DC(0.)
X-15.674 Y-26.079 Z-8.992 B5. C=DC(0.),8
X-15.674 Y-37.5 Z-8.992 B5. C=DC(0.),7
X-14.674 Y-37.5 Z-8.992 B5. C=DC(0.),7
X-14.674 Y-26.648 Z-8.992 B5. C=DC(0.),8
X-14.674 Y-26.647 Z-8.992 B5. C=DC(0.),3
X-14.674 Y-26.23 Z-8.867 B5. C=DC(0.)
X-14.674 Y-25.391 Z-8.619 B5. C=DC(0.)
X-14.674 Y-24.972 Z-8.496 B5. C=DC(0.)
X-14.674 Y-24.553 Z-8.378 B5. C=DC(0.)
X-14.674 Y-23.287 Z-8.036 B5. C=DC(0.)
X-14.674 Y-22.864 Z-7.923 B5. C=DC(0.)
X-14.674 Y-21.176 Z-7.508 B5. C=DC(0.)
X-14.674 Y-20.751 Z-7.41 B5. C=DC(0.)
X-14.674 Y-19.475 Z-7.126 B5. C=DC(0.)
X-14.674 Y-19.05 Z-7.034 B5. C=DC(0.)
X-14.674 Y-18.196 Z-6.863 B5. C=DC(0.)
X-14.674 Y-17.339 Z-6.695 B5. C=DC(0.)
X-14.674 Y-16.911 Z-6.613 B5. C=DC(0.)
X-14.674 Y-16.483 Z-6.538 B5. C=DC(0.)
X-14.674 Y-15.626 Z-6.389 B5. C=DC(0.)
X-14.674 Y-14.769 Z-6.245 B5. C=DC(0.)
X-14.674 Y-14.337 Z-6.179 B5. C=DC(0.)
X-14.674 Y-13.473 Z-6.051 B5. C=DC(0.)
X-14.674 Y-12.609 Z-5.928 B5. C=DC(0.)
X-14.674 Y-12.177 Z-5.87 B5. C=DC(0.)
X-14.674 Y-11.313 Z-5.764 B5. C=DC(0.)
X-14.674 Y-10.449 Z-5.664 B5. C=DC(0.)
X-14.674 Y-9.906 Z-5.603 B5. C=DC(0.),8
X-14.674 Y-9.531 Z-5.378 B5. C=DC(0.)
X-14.674 Y-9.158 Z-5.17 B5. C=DC(0.)
X-14.674 Y-8.765 Z-5.017 B5. C=DC(0.)
X-14.674 Y-8.349 Z-4.924 B5. C=DC(0.)
X-14.674 Y-7.916 Z-4.9 B5. C=DC(0.)
X-14.674 Y-7.479 Z-4.956 B5. C=DC(0.)
X-14.674 Y-7.055 Z-5.078 B5. C=DC(0.),8
X-14.674 Y-6.331 Z-5.295 B5. C=DC(0.)
X-14.674 Y-5.462 Z-5.241 B5. C=DC(0.)
X-14.674 Y-4.16 Z-5.178 B5. C=DC(0.)
X-14.674 Y-2.858 Z-5.13 B5. C=DC(0.)
X-14.674 Y-1.99 Z-5.107 B5. C=DC(0.)
X-14.674 Y-.688 Z-5.089 B5. C=DC(0.)
X-14.674 Y.18 Z-5.086 B5. C=DC(0.)
X-14.674 Y1.482 Z-5.098 B5. C=DC(0.)
X-14.674 Y2.349 Z-5.116 B5. C=DC(0.)
X-14.674 Y3.651 Z-5.157 B5. C=DC(0.)
X-14.674 Y4.519 Z-5.194 B5. C=DC(0.)
X-14.674 Y5.821 Z-5.262 B5. C=DC(0.)
X-14.674 Y6.689 Z-5.321 B5. C=DC(0.)
X-14.674 Y7.991 Z-5.424 B5. C=DC(0.)
X-14.674 Y9.293 Z-5.541 B5. C=DC(0.)
X-14.674 Y9.727 Z-5.583 B5. C=DC(0.)
X-14.674 Y10.161 Z-5.631 B5. C=DC(0.)
X-14.674 Y10.595 Z-5.68 B5. C=DC(0.)
X-14.674 Y11.463 Z-5.782 B5. C=DC(0.)
X-14.674 Y12.33 Z-5.889 B5. C=DC(0.)
X-14.674 Y12.764 Z-5.95 B5. C=DC(0.)
X-14.674 Y13.191 Z-6.01 B5. C=DC(0.)
X-14.674 Y14.044 Z-6.135 B5. C=DC(0.)
X-14.674 Y14.897 Z-6.266 B5. C=DC(0.)
X-14.674 Y15.75 Z-6.41 B5. C=DC(0.)
X-14.674 Y16.603 Z-6.558 B5. C=DC(0.)
X-14.674 Y17.029 Z-6.635 B5. C=DC(0.)
X-14.674 Y17.882 Z-6.801 B5. C=DC(0.)
X-14.674 Y18.309 Z-6.885 B5. C=DC(0.)
X-14.674 Y19.162 Z-7.058 B5. C=DC(0.)
X-14.674 Y19.588 Z-7.151 B5. C=DC(0.)
X-14.674 Y20.867 Z-7.136 B5. C=DC(0.),1
X-14.674 Y21.294 Z-7.537 B5. C=DC(0.)
X-14.674 Y22.541 Z-7.843 B5. C=DC(0.)
X-14.674 Y22.956 Z-7.947 B5. C=DC(0.)
X-14.674 Y24.618 Z-8.396 B5. C=DC(0.)
X-14.674 Y25.449 Z-8.636 B5. C=DC(0.)
X-14.674 Y26.28 Z-8.882 B5. C=DC(0.)
X-14.674 Y26.647 Z-8.992 B5. C=DC(0.),8
X-14.674 Y37.5 Z-8.992 B5. C=DC(0.),7
X-13.674 Y37.5 Z-8.992 B5. C=DC(0.),7
X-13.674 Y27.167 Z-8.992 B5. C=DC(0.),8
X-13.674 Y26.856 Z-8.896 B5. C=DC(0.)
X-13.674 Y25.627 Z-8.526 B5. C=DC(0.)
X-13.674 Y25.218 Z-8.406 B5. C=DC(0.)
X-13.674 Y23.58 Z-7.953 B5. C=DC(0.)
X-13.674 Y23.159 Z-7.844 B5. C=DC(0.)
X-13.674 Y21.893 Z-7.525 B5. C=DC(0.)
X-13.674 Y21.471 Z-7.422 B5. C=DC(0.)
X-13.674 Y18.097 Z-6.688 B5. C=DC(0.),6
X-13.674 Y17.675 Z-6.605 B5. C=DC(0.)
X-13.674 Y16.831 Z-6.449 B5. C=DC(0.)
X-13.674 Y15.97 Z-6.295 B5. C=DC(0.)
X-13.674 Y15.54 Z-6.22 B5. C=DC(0.)
X-13.674 Y14.678 Z-6.083 B5. C=DC(0.)
X-13.674 Y14.248 Z-6.016 B5. C=DC(0.)
X-13.674 Y13.387 Z-5.885 B5. C=DC(0.)
X-13.674 Y12.525 Z-5.769 B5. C=DC(0.)
X-13.674 Y12.095 Z-5.713 B5. C=DC(0.)
X-13.674 Y11.234 Z-5.604 B5. C=DC(0.)
X-13.674 Y10.803 Z-5.552 B5. C=DC(0.)
X-13.674 Y10.373 Z-5.506 B5. C=DC(0.)
X-13.674 Y9.942 Z-5.46 B5. C=DC(0.)
X-13.674 Y9.081 Z-5.373 B5. C=DC(0.)
X-13.674 Y8.22 Z-5.292 B5. C=DC(0.)
X-13.674 Y7.789 Z-5.256 B5. C=DC(0.)
X-13.674 Y6.928 Z-5.191 B5. C=DC(0.)
X-13.674 Y5.624 Z-5.106 B5. C=DC(0.)
X-13.674 Y4.314 Z-5.035 B5. C=DC(0.)
X-13.674 Y3.441 Z-4.999 B5. C=DC(0.)
X-13.674 Y2.131 Z-4.962 B5. C=DC(0.)
X-13.674 Y1.257 Z-4.947 B5. C=DC(0.)
X-13.674 Y.384 Z-4.94 B5. C=DC(0.)
X-13.674 Y-.926 Z-4.944 B5. C=DC(0.)
X-13.674 Y-1.799 Z-4.956 B5. C=DC(0.)
X-13.674 Y-2.236 Z-4.965 B5. C=DC(0.)
X-13.674 Y-3.546 Z-5.002 B5. C=DC(0.)
X-13.674 Y-4.419 Z-5.04 B5. C=DC(0.)
X-13.674 Y-5.293 Z-5.087 B5. C=DC(0.),8
X-13.674 Y-5.294 Z-5.087 B5. C=DC(0.),3
X-13.674 Y-6.799 Z-4.635 B5. C=DC(0.)
X-13.674 Y-7.234 Z-4.559 B5. C=DC(0.)
X-13.674 Y-7.668 Z-4.565 B5. C=DC(0.)
X-13.674 Y-8.09 Z-4.642 B5. C=DC(0.)
X-13.674 Y-8.49 Z-4.782 B5. C=DC(0.)
X-13.674 Y-8.864 Z-4.978 B5. C=DC(0.)
X-13.674 Y-9.612 Z-5.427 B5. C=DC(0.),8
X-13.674 Y-9.614 Z-5.428 B5. C=DC(0.),3
X-13.674 Y-10.561 Z-5.526 B5. C=DC(0.)
X-13.674 Y-10.994 Z-5.574 B5. C=DC(0.)
X-13.674 Y-11.427 Z-5.627 B5. C=DC(0.)
X-13.674 Y-12.293 Z-5.738 B5. C=DC(0.)
X-13.674 Y-13.159 Z-5.854 B5. C=DC(0.)
X-13.674 Y-13.588 Z-5.915 B5. C=DC(0.)
X-13.674 Y-14.446 Z-6.046 B5. C=DC(0.)
X-13.674 Y-15.305 Z-6.183 B5. C=DC(0.)
X-13.674 Y-15.734 Z-6.253 B5. C=DC(0.)
X-13.674 Y-16.593 Z-6.406 B5. C=DC(0.)
X-13.674 Y-17.452 Z-6.564 B5. C=DC(0.)
X-13.674 Y-17.878 Z-6.644 B5. C=DC(0.)
X-13.674 Y-18.304 Z-6.73 B5. C=DC(0.)
X-13.674 Y-19.582 Z-6.994 B5. C=DC(0.)
X-13.674 Y-20.008 Z-7.087 B5. C=DC(0.)
X-13.674 Y-21.285 Z-7.38 B5. C=DC(0.)
X-13.674 Y-21.708 Z-7.479 B5. C=DC(0.)
X-13.674 Y-23.4 Z-7.905 B5. C=DC(0.)
X-13.674 Y-23.82 Z-8.019 B5. C=DC(0.)
X-13.674 Y-25.08 Z-8.368 B5. C=DC(0.)
X-13.674 Y-25.497 Z-8.487 B5. C=DC(0.)
X-13.674 Y-26.749 Z-8.864 B5. C=DC(0.)
X-13.674 Y-27.168 Z-8.992 B5. C=DC(0.),8
X-13.674 Y-37.5 Z-8.992 B5. C=DC(0.),7
X-12.674 Y-37.5 Z-8.992 B5. C=DC(0.),7
X-12.674 Y-27.643 Z-8.992 B5. C=DC(0.),8
X-12.674 Y-27.641 Z-8.992 B5. C=DC(0.),3
X-12.674 Y-27.226 Z-8.862 B5. C=DC(0.)
X-12.674 Y-25.974 Z-8.479 B5. C=DC(0.)
X-12.674 Y-25.556 Z-8.357 B5. C=DC(0.)
X-12.674 Y-24.295 Z-8.001 B5. C=DC(0.)
X-12.674 Y-23.874 Z-7.886 B5. C=DC(0.)
X-12.674 Y-23.454 Z-7.777 B5. C=DC(0.)
X-12.674 Y-22.608 Z-7.559 B5. C=DC(0.)
X-12.674 Y-22.184 Z-7.451 B5. C=DC(0.)
X-12.674 Y-21.761 Z-7.349 B5. C=DC(0.)
X-12.674 Y-20.491 Z-7.051 B5. C=DC(0.)
X-12.674 Y-19.641 Z-6.867 B5. C=DC(0.)
X-12.674 Y-18.789 Z-6.686 B5. C=DC(0.)
X-12.674 Y-18.362 Z-6.598 B5. C=DC(0.)
X-12.674 Y-17.076 Z-6.353 B5. C=DC(0.)
X-12.674 Y-16.646 Z-6.272 B5. C=DC(0.)
X-12.674 Y-15.357 Z-6.053 B5. C=DC(0.)
X-12.674 Y-14.498 Z-5.912 B5. C=DC(0.)
X-12.674 Y-14.068 Z-5.848 B5. C=DC(0.)
X-12.674 Y-13.209 Z-5.724 B5. C=DC(0.)
X-12.674 Y-12.349 Z-5.605 B5. C=DC(0.)
X-12.674 Y-11.916 Z-5.549 B5. C=DC(0.)
X-12.674 Y-11.482 Z-5.496 B5. C=DC(0.)
X-12.674 Y-10.615 Z-5.396 B5. C=DC(0.)
X-12.674 Y-9.748 Z-5.3 B5. C=DC(0.)
X-12.674 Y-9.33 Z-5.258 B5. C=DC(0.),8
X-12.674 Y-9.328 Z-5.257 B5. C=DC(0.),3
X-12.674 Y-8.204 Z-4.583 B5. C=DC(0.)
X-12.674 Y-7.827 Z-4.4 B5. C=DC(0.)
X-12.674 Y-7.422 Z-4.273 B5. C=DC(0.)
X-12.674 Y-6.998 Z-4.211 B5. C=DC(0.)
X-12.674 Y-6.562 Z-4.222 B5. C=DC(0.)
X-12.674 Y-6.13 Z-4.316 B5. C=DC(0.)
X-12.674 Y-4.198 Z-4.896 B5. C=DC(0.),8
X-12.674 Y-4.197 Z-4.896 B5. C=DC(0.),3
X-12.674 Y-2.894 Z-4.847 B5. C=DC(0.)
X-12.674 Y-2.025 Z-4.824 B5. C=DC(0.)
X-12.674 Y-1.156 Z-4.809 B5. C=DC(0.)
X-12.674 Y-.288 Z-4.802 B5. C=DC(0.)
X-12.674 Y.581 Z-4.804 B5. C=DC(0.)
X-12.674 Y1.015 Z-4.808 B5. C=DC(0.)
X-12.674 Y1.884 Z-4.821 B5. C=DC(0.)
X-12.674 Y3.187 Z-4.857 B5. C=DC(0.)
X-12.674 Y4.056 Z-4.89 B5. C=DC(0.)
X-12.674 Y5.359 Z-4.953 B5. C=DC(0.)
X-12.674 Y6.227 Z-5.003 B5. C=DC(0.)
X-12.674 Y7.096 Z-5.066 B5. C=DC(0.)
X-12.674 Y8.399 Z-5.173 B5. C=DC(0.)
X-12.674 Y9.268 Z-5.252 B5. C=DC(0.)
X-12.674 Y9.702 Z-5.295 B5. C=DC(0.)
X-12.674 Y10.571 Z-5.391 B5. C=DC(0.)
X-12.674 Y11.439 Z-5.491 B5. C=DC(0.)
X-12.674 Y12.308 Z-5.599 B5. C=DC(0.)
X-12.674 Y13.162 Z-5.718 B5. C=DC(0.)
X-12.674 Y13.589 Z-5.779 B5. C=DC(0.)
X-12.674 Y14.443 Z-5.903 B5. C=DC(0.)
X-12.674 Y15.724 Z-6.114 B5. C=DC(0.)
X-12.674 Y16.578 Z-6.26 B5. C=DC(0.)
X-12.674 Y17.005 Z-6.339 B5. C=DC(0.)
X-12.674 Y18.286 Z-6.583 B5. C=DC(0.)
X-12.674 Y18.713 Z-6.67 B5. C=DC(0.)
X-12.674 Y19.994 Z-6.942 B5. C=DC(0.)
X-12.674 Y20.421 Z-7.035 B5. C=DC(0.)
X-12.674 Y21.67 Z-7.328 B5. C=DC(0.)
X-12.674 Y22.087 Z-7.428 B5. C=DC(0.)
X-12.674 Y22.504 Z-7.532 B5. C=DC(0.)
X-12.674 Y23.753 Z-7.854 B5. C=DC(0.)
X-12.674 Y24.17 Z-7.966 B5. C=DC(0.)
X-12.674 Y25.42 Z-8.319 B5. C=DC(0.)
X-12.674 Y25.836 Z-8.437 B5. C=DC(0.)
X-12.674 Y26.253 Z-8.564 B5. C=DC(0.)
X-12.674 Y27.502 Z-8.948 B5. C=DC(0.),3
X-12.674 Y27.642 Z-8.992 B5. C=DC(0.),8
X-12.674 Y37.5 Z-8.992 B5. C=DC(0.),7
X-11.674 Y37.5 Z-8.992 B5. C=DC(0.),7
X-11.674 Y28.073 Z-8.992 B5. C=DC(0.),8
X-11.674 Y28.072 Z-8.992 B5. C=DC(0.),3
X-11.674 Y27.795 Z-8.903 B5. C=DC(0.)
X-11.674 Y26.582 Z-8.525 B5. C=DC(0.)
X-11.674 Y26.162 Z-8.397 B5. C=DC(0.)
X-11.674 Y24.902 Z-8.036 B5. C=DC(0.)
X-11.674 Y24.483 Z-7.916 B5. C=DC(0.)
X-11.674 Y24.063 Z-7.804 B5. C=DC(0.)
X-11.674 Y22.803 Z-7.472 B5. C=DC(0.)
X-11.674 Y21.963 Z-7.266 B5. C=DC(0.)
X-11.674 Y21.123 Z-7.199 B5. C=DC(0.),1
X-11.674 Y20.703 Z-6.969 B5. C=DC(0.)
X-11.674 Y19.863 Z-6.783 B5. C=DC(0.)
X-11.674 Y19.024 Z-6.603 B5. C=DC(0.)
X-11.674 Y18.174 Z-6.433 B5. C=DC(0.)
X-11.674 Y17.315 Z-6.266 B5. C=DC(0.)
X-11.674 Y16.886 Z-6.187 B5. C=DC(0.)
X-11.674 Y15.598 Z-5.962 B5. C=DC(0.)
X-11.674 Y15.168 Z-5.89 B5. C=DC(0.)
X-11.674 Y14.309 Z-5.758 B5. C=DC(0.)
X-11.674 Y13.45 Z-5.629 B5. C=DC(0.)
X-11.674 Y13.021 Z-5.567 B5. C=DC(0.)
X-11.674 Y12.591 Z-5.511 B5. C=DC(0.)
X-11.674 Y12.162 Z-5.455 B5. C=DC(0.)
X-11.674 Y11.303 Z-5.348 B5. C=DC(0.)
X-11.674 Y10.873 Z-5.296 B5. C=DC(0.)
X-11.674 Y10.444 Z-5.248 B5. C=DC(0.)
X-11.674 Y9.156 Z-5.117 B5. C=DC(0.)
X-11.674 Y8.297 Z-5.036 B5. C=DC(0.)
X-11.674 Y7.861 Z-4.999 B5. C=DC(0.)
X-11.674 Y7.425 Z-4.965 B5. C=DC(0.)
X-11.674 Y6.117 Z-4.874 B5. C=DC(0.)
X-11.674 Y4.81 Z-4.797 B5. C=DC(0.)
X-11.674 Y4.374 Z-4.895 B5. C=DC(0.),1
X-11.674 Y3.938 Z-4.757 B5. C=DC(0.)
X-11.674 Y3.066 Z-4.727 B5. C=DC(0.)
X-11.674 Y1.759 Z-4.695 B5. C=DC(0.)
X-11.674 Y.887 Z-4.683 B5. C=DC(0.)
X-11.674 Y.015 Z-4.679 B5. C=DC(0.)
X-11.674 Y-.857 Z-4.683 B5. C=DC(0.)
X-11.674 Y-1.728 Z-4.695 B5. C=DC(0.)
X-11.674 Y-3.036 Z-4.725 B5. C=DC(0.),8
X-11.674 Y-3.038 Z-4.724 B5. C=DC(0.),3
X-11.674 Y-5.516 Z-3.981 B5. C=DC(0.)
X-11.674 Y-5.946 Z-3.88 B5. C=DC(0.)
X-11.674 Y-6.38 Z-3.862 B5. C=DC(0.)
X-11.674 Y-6.806 Z-3.919 B5. C=DC(0.)
X-11.674 Y-7.213 Z-4.039 B5. C=DC(0.)
X-11.674 Y-7.592 Z-4.217 B5. C=DC(0.)
X-11.674 Y-7.964 Z-4.439 B5. C=DC(0.)
X-11.674 Y-9.082 Z-5.109 B5. C=DC(0.),8
X-11.674 Y-9.084 Z-5.11 B5. C=DC(0.),3
X-11.674 Y-9.756 Z-5.177 B5. C=DC(0.)
X-11.674 Y-10.623 Z-5.267 B5. C=DC(0.)
X-11.674 Y-11.49 Z-5.371 B5. C=DC(0.)
X-11.674 Y-12.358 Z-5.48 B5. C=DC(0.)
X-11.674 Y-13.221 Z-5.595 B5. C=DC(0.)
X-11.674 Y-14.081 Z-5.723 B5. C=DC(0.)
X-11.674 Y-14.51 Z-5.788 B5. C=DC(0.)
X-11.674 Y-16.66 Z-6.147 B5. C=DC(0.),6
X-11.674 Y-17.09 Z-6.223 B5. C=DC(0.)
X-11.674 Y-17.516 Z-6.305 B5. C=DC(0.)
X-11.674 Y-18.369 Z-6.472 B5. C=DC(0.)
X-11.674 Y-19.222 Z-6.644 B5. C=DC(0.)
X-11.674 Y-20.075 Z-6.829 B5. C=DC(0.)
X-11.674 Y-20.928 Z-7.019 B5. C=DC(0.)
X-11.674 Y-21.351 Z-7.119 B5. C=DC(0.)
X-11.674 Y-21.775 Z-7.22 B5. C=DC(0.)
X-11.674 Y-22.621 Z-7.427 B5. C=DC(0.)
X-11.674 Y-23.042 Z-7.535 B5. C=DC(0.)
X-11.674 Y-23.883 Z-7.756 B5. C=DC(0.)
X-11.674 Y-24.724 Z-7.984 B5. C=DC(0.)
X-11.674 Y-25.985 Z-8.346 B5. C=DC(0.)
X-11.674 Y-26.403 Z-8.47 B5. C=DC(0.)
X-11.674 Y-27.655 Z-8.86 B5. C=DC(0.)
X-11.674 Y-28.072 Z-8.992 B5. C=DC(0.),8
X-11.674 Y-37.5 Z-8.992 B5. C=DC(0.),7
X-10.674 Y-37.5 Z-8.992 B5. C=DC(0.),7
X-10.674 Y-28.462 Z-8.992 B5. C=DC(0.),8
X-10.674 Y-28.461 Z-8.992 B5. C=DC(0.),3
X-10.674 Y-28.046 Z-8.858 B5. C=DC(0.)
X-10.674 Y-26.801 Z-8.465 B5. C=DC(0.)
X-10.674 Y-26.384 Z-8.34 B5. C=DC(0.)
X-10.674 Y-25.131 Z-7.975 B5. C=DC(0.)
X-10.674 Y-24.293 Z-7.744 B5. C=DC(0.)
X-10.674 Y-23.452 Z-7.518 B5. C=DC(0.)
X-10.674 Y-23.032 Z-7.41 B5. C=DC(0.)
X-10.674 Y-21.762 Z-7.094 B5. C=DC(0.)
X-10.674 Y-21.339 Z-6.994 B5. C=DC(0.)
X-10.674 Y-20.06 Z-6.704 B5. C=DC(0.)
X-10.674 Y-19.633 Z-6.61 B5. C=DC(0.)
X-10.674 Y-18.354 Z-6.349 B5. C=DC(0.)
X-10.674 Y-17.928 Z-6.263 B5. C=DC(0.)
X-10.674 Y-17.502 Z-6.183 B5. C=DC(0.)
X-10.674 Y-16.642 Z-6.026 B5. C=DC(0.)
X-10.674 Y-15.783 Z-5.874 B5. C=DC(0.)
X-10.674 Y-15.353 Z-5.805 B5. C=DC(0.)
X-10.674 Y-14.064 Z-5.601 B5. C=DC(0.)
X-10.674 Y-13.634 Z-5.538 B5. C=DC(0.)
X-10.674 Y-12.768 Z-5.419 B5. C=DC(0.)
X-10.674 Y-11.901 Z-5.304 B5. C=DC(0.)
X-10.674 Y-11.468 Z-5.25 B5. C=DC(0.)
X-10.674 Y-9.734 Z-5.058 B5. C=DC(0.)
X-10.674 Y-9.301 Z-5.012 B5. C=DC(0.)
X-10.674 Y-8.852 Z-4.971 B5. C=DC(0.),8
X-10.674 Y-8.851 Z-4.97 B5. C=DC(0.),3
X-10.674 Y-7.314 Z-4.048 B5. C=DC(0.)
X-10.674 Y-6.94 Z-3.83 B5. C=DC(0.)
X-10.674 Y-6.554 Z-3.663 B5. C=DC(0.)
X-10.674 Y-6.142 Z-3.555 B5. C=DC(0.)
X-10.674 Y-5.714 Z-3.513 B5. C=DC(0.)
X-10.674 Y-5.278 Z-3.548 B5. C=DC(0.)
X-10.674 Y-4.85 Z-3.661 B5. C=DC(0.)
X-10.674 Y-1.794 Z-4.578 B5. C=DC(0.),8
X-10.674 Y-1.793 Z-4.578 B5. C=DC(0.),3
X-10.674 Y-.92 Z-4.565 B5. C=DC(0.)
X-10.674 Y.39 Z-4.562 B5. C=DC(0.)
X-10.674 Y1.263 Z-4.569 B5. C=DC(0.)
X-10.674 Y2.136 Z-4.586 B5. C=DC(0.)
X-10.674 Y3.01 Z-4.61 B5. C=DC(0.)
X-10.674 Y4.319 Z-4.92 B5. C=DC(0.),1
X-10.674 Y5.629 Z-4.728 B5. C=DC(0.)
X-10.674 Y6.502 Z-4.781 B5. C=DC(0.)
X-10.674 Y7.794 Z-4.881 B5. C=DC(0.)
X-10.674 Y9.085 Z-4.992 B5. C=DC(0.)
X-10.674 Y9.516 Z-5.035 B5. C=DC(0.)
X-10.674 Y10.377 Z-5.127 B5. C=DC(0.)
X-10.674 Y11.238 Z-5.223 B5. C=DC(0.)
X-10.674 Y11.669 Z-5.274 B5. C=DC(0.)
X-10.674 Y12.099 Z-5.329 B5. C=DC(0.)
X-10.674 Y12.96 Z-5.445 B5. C=DC(0.)
X-10.674 Y13.821 Z-5.564 B5. C=DC(0.)
X-10.674 Y14.252 Z-5.63 B5. C=DC(0.)
X-10.674 Y15.113 Z-5.767 B5. C=DC(0.)
X-10.674 Y15.543 Z-5.836 B5. C=DC(0.)
X-10.674 Y15.974 Z-5.907 B5. C=DC(0.)
X-10.674 Y16.835 Z-6.061 B5. C=DC(0.)
X-10.674 Y17.678 Z-6.216 B5. C=DC(0.)
X-10.674 Y18.1 Z-6.297 B5. C=DC(0.)
X-10.674 Y19.365 Z-6.556 B5. C=DC(0.)
X-10.674 Y19.787 Z-6.643 B5. C=DC(0.)
X-10.674 Y21.474 Z-7.024 B5. C=DC(0.)
X-10.674 Y21.896 Z-7.127 B5. C=DC(0.)
X-10.674 Y23.161 Z-7.442 B5. C=DC(0.)
X-10.674 Y24.004 Z-7.666 B5. C=DC(0.)
X-10.674 Y24.848 Z-7.895 B5. C=DC(0.)
X-10.674 Y25.27 Z-8.015 B5. C=DC(0.)
X-10.674 Y26.493 Z-8.372 B5. C=DC(0.)
X-10.674 Y26.9 Z-8.496 B5. C=DC(0.)
X-10.674 Y28.123 Z-8.883 B5. C=DC(0.)
X-10.674 Y28.461 Z-8.992 B5. C=DC(0.),8
X-10.674 Y28.463 Z-8.992 B5. C=DC(0.),3
X-10.674 Y37.5 Z-8.992 B5. C=DC(0.),7
X-9.674 Y37.5 Z-8.992 B5. C=DC(0.),7
X-9.674 Y28.812 Z-8.992 B5. C=DC(0.),8
X-9.674 Y28.81 Z-8.992 B5. C=DC(0.),3
X-9.674 Y28.568 Z-8.912 B5. C=DC(0.)
X-9.674 Y27.756 Z-8.651 B5. C=DC(0.)
X-9.674 Y26.944 Z-8.395 B5. C=DC(0.)
X-9.674 Y25.725 Z-8.034 B5. C=DC(0.)
X-9.674 Y25.305 Z-7.911 B5. C=DC(0.)
X-9.674 Y24.464 Z-7.678 B5. C=DC(0.)
X-9.674 Y23.623 Z-7.45 B5. C=DC(0.)
X-9.674 Y22.361 Z-7.131 B5. C=DC(0.)
X-9.674 Y21.941 Z-7.025 B5. C=DC(0.)
X-9.674 Y20.259 Z-6.637 B5. C=DC(0.)
X-9.674 Y19.838 Z-6.547 B5. C=DC(0.)
X-9.674 Y18.577 Z-6.284 B5. C=DC(0.)
X-9.674 Y18.156 Z-6.2 B5. C=DC(0.)
X-9.674 Y16.867 Z-5.958 B5. C=DC(0.)
X-9.674 Y16.437 Z-5.879 B5. C=DC(0.)
X-9.674 Y15.147 Z-5.665 B5. C=DC(0.)
X-9.674 Y14.717 Z-5.595 B5. C=DC(0.)
X-9.674 Y13.858 Z-5.466 B5. C=DC(0.)
X-9.674 Y12.998 Z-5.344 B5. C=DC(0.)
X-9.674 Y12.568 Z-5.283 B5. C=DC(0.)
X-9.674 Y11.708 Z-5.176 B5. C=DC(0.)
X-9.674 Y10.848 Z-5.074 B5. C=DC(0.)
X-9.674 Y10.419 Z-5.024 B5. C=DC(0.)
X-9.674 Y9.989 Z-4.979 B5. C=DC(0.)
X-9.674 Y9.129 Z-4.895 B5. C=DC(0.)
X-9.674 Y7.839 Z-4.777 B5. C=DC(0.)
X-9.674 Y6.967 Z-4.712 B5. C=DC(0.)
X-9.674 Y5.659 Z-4.626 B5. C=DC(0.)
X-9.674 Y4.786 Z-4.576 B5. C=DC(0.)
X-9.674 Y3.914 Z-4.939 B5. C=DC(0.),1
X-9.674 Y2.605 Z-4.496 B5. C=DC(0.)
X-9.674 Y1.733 Z-4.477 B5. C=DC(0.)
X-9.674 Y.86 Z-4.465 B5. C=DC(0.)
X-9.674 Y-.448 Z-4.462 B5. C=DC(0.),8
X-9.674 Y-.45 Z-4.461 B5. C=DC(0.),3
X-9.674 Y-4.309 Z-3.304 B5. C=DC(0.)
X-9.674 Y-4.74 Z-3.195 B5. C=DC(0.)
X-9.674 Y-5.175 Z-3.168 B5. C=DC(0.)
X-9.674 Y-5.602 Z-3.216 B5. C=DC(0.)
X-9.674 Y-6.013 Z-3.33 B5. C=DC(0.)
X-9.674 Y-6.398 Z-3.502 B5. C=DC(0.)
X-9.674 Y-6.773 Z-3.724 B5. C=DC(0.)
X-9.674 Y-8.649 Z-4.849 B5. C=DC(0.),8
X-9.674 Y-9.234 Z-4.905 B5. C=DC(0.)
X-9.674 Y-10.099 Z-4.989 B5. C=DC(0.)
X-9.674 Y-10.965 Z-5.087 B5. C=DC(0.)
X-9.674 Y-11.83 Z-5.191 B5. C=DC(0.)
X-9.674 Y-12.695 Z-5.301 B5. C=DC(0.)
X-9.674 Y-13.994 Z-5.486 B5. C=DC(0.)
X-9.674 Y-14.426 Z-5.55 B5. C=DC(0.)
X-9.674 Y-14.855 Z-5.617 B5. C=DC(0.)
X-9.674 Y-15.285 Z-5.688 B5. C=DC(0.)
X-9.674 Y-16.143 Z-5.83 B5. C=DC(0.)
X-9.674 Y-16.572 Z-5.903 B5. C=DC(0.)
X-9.674 Y-17.859 Z-6.144 B5. C=DC(0.)
X-9.674 Y-18.289 Z-6.226 B5. C=DC(0.)
X-9.674 Y-18.714 Z-6.313 B5. C=DC(0.)
X-9.674 Y-19.992 Z-6.58 B5. C=DC(0.)
X-9.674 Y-20.418 Z-6.674 B5. C=DC(0.)
X-9.674 Y-21.696 Z-6.968 B5. C=DC(0.)
X-9.674 Y-22.118 Z-7.069 B5. C=DC(0.)
X-9.674 Y-23.387 Z-7.391 B5. C=DC(0.)
X-9.674 Y-23.807 Z-7.499 B5. C=DC(0.)
X-9.674 Y-24.647 Z-7.729 B5. C=DC(0.)
X-9.674 Y-25.484 Z-7.962 B5. C=DC(0.)
X-9.674 Y-26.735 Z-8.333 B5. C=DC(0.)
X-9.674 Y-27.152 Z-8.459 B5. C=DC(0.)
X-9.674 Y-27.566 Z-8.591 B5. C=DC(0.)
X-9.674 Y-28.395 Z-8.857 B5. C=DC(0.)
X-9.674 Y-28.811 Z-8.992 B5. C=DC(0.),8
X-9.674 Y-37.5 Z-8.992 B5. C=DC(0.),7
X-8.674 Y-37.5 Z-8.992 B5. C=DC(0.),7
X-8.674 Y-29.123 Z-8.992 B5. C=DC(0.),8
X-8.674 Y-29.121 Z-8.992 B5. C=DC(0.),3
X-8.674 Y-28.708 Z-8.855 B5. C=DC(0.)
X-8.674 Y-27.88 Z-8.587 B5. C=DC(0.)
X-8.674 Y-27.464 Z-8.454 B5. C=DC(0.)
X-8.674 Y-27.047 Z-8.326 B5. C=DC(0.)
X-8.674 Y-25.798 Z-7.951 B5. C=DC(0.)
X-8.674 Y-25.381 Z-7.833 B5. C=DC(0.)
X-8.674 Y-24.543 Z-7.599 B5. C=DC(0.)
X-8.674 Y-24.124 Z-7.483 B5. C=DC(0.)
X-8.674 Y-23.705 Z-7.374 B5. C=DC(0.)
X-8.674 Y-22.438 Z-7.049 B5. C=DC(0.)
X-8.674 Y-22.016 Z-6.947 B5. C=DC(0.)
X-8.674 Y-20.741 Z-6.648 B5. C=DC(0.)
X-8.674 Y-20.316 Z-6.554 B5. C=DC(0.)
X-8.674 Y-19.466 Z-6.371 B5. C=DC(0.)
X-8.674 Y-19.04 Z-6.281 B5. C=DC(0.)
X-8.674 Y-18.615 Z-6.195 B5. C=DC(0.)
X-8.674 Y-17.759 Z-6.028 B5. C=DC(0.)
X-8.674 Y-16.902 Z-5.867 B5. C=DC(0.)
X-8.674 Y-16.045 Z-5.719 B5. C=DC(0.)
X-8.674 Y-15.188 Z-5.573 B5. C=DC(0.)
X-8.674 Y-14.76 Z-5.507 B5. C=DC(0.)
X-8.674 Y-13.464 Z-5.313 B5. C=DC(0.)
X-8.674 Y-13.032 Z-5.252 B5. C=DC(0.)
X-8.674 Y-12.601 Z-5.195 B5. C=DC(0.)
X-8.674 Y-11.305 Z-5.031 B5. C=DC(0.)
X-8.674 Y-10.873 Z-4.981 B5. C=DC(0.)
X-8.674 Y-9.577 Z-4.844 B5. C=DC(0.)
X-8.674 Y-9.145 Z-4.8 B5. C=DC(0.)
X-8.674 Y-8.462 Z-4.737 B5. C=DC(0.),8
X-8.674 Y-6.218 Z-3.391 B5. C=DC(0.)
X-8.674 Y-5.845 Z-3.169 B5. C=DC(0.)
X-8.674 Y-5.464 Z-2.994 B5. C=DC(0.)
X-8.674 Y-5.055 Z-2.875 B5. C=DC(0.)
X-8.674 Y-4.63 Z-2.822 B5. C=DC(0.)
X-8.674 Y-4.195 Z-2.844 B5. C=DC(0.)
X-8.674 Y-3.766 Z-2.947 B5. C=DC(0.)
X-8.674 Y.977 Z-4.37 B5. C=DC(0.)
X-8.674 Y.979 Z-4.37 B5. C=DC(0.),8
X-8.674 Y1.849 Z-4.383 B5. C=DC(0.)
X-8.674 Y2.718 Z-4.403 B5. C=DC(0.)
X-8.674 Y3.588 Z-4.433 B5. C=DC(0.)
X-8.674 Y4.892 Z-4.492 B5. C=DC(0.)
X-8.674 Y6.196 Z-4.563 B5. C=DC(0.)
X-8.674 Y6.631 Z-4.593 B5. C=DC(0.)
X-8.674 Y7.935 Z-4.694 B5. C=DC(0.)
X-8.674 Y8.805 Z-4.767 B5. C=DC(0.)
X-8.674 Y9.675 Z-4.854 B5. C=DC(0.)
X-8.674 Y10.544 Z-4.945 B5. C=DC(0.)
X-8.674 Y10.979 Z-4.992 B5. C=DC(0.)
X-8.674 Y11.414 Z-5.044 B5. C=DC(0.)
X-8.674 Y12.269 Z-5.153 B5. C=DC(0.)
X-8.674 Y13.124 Z-5.264 B5. C=DC(0.)
X-8.674 Y13.552 Z-5.325 B5. C=DC(0.)
X-8.674 Y14.407 Z-5.454 B5. C=DC(0.)
X-8.674 Y15.262 Z-5.586 B5. C=DC(0.)
X-8.674 Y16.118 Z-5.731 B5. C=DC(0.)
X-8.674 Y16.973 Z-5.88 B5. C=DC(0.)
X-8.674 Y17.828 Z-6.042 B5. C=DC(0.)
X-8.674 Y18.684 Z-6.208 B5. C=DC(0.)
X-8.674 Y19.539 Z-6.387 B5. C=DC(0.)
X-8.674 Y20.394 Z-6.571 B5. C=DC(0.)
X-8.674 Y20.822 Z-6.667 B5. C=DC(0.)
X-8.674 Y21.656 Z-6.862 B5. C=DC(0.)
X-8.674 Y22.073 Z-6.961 B5. C=DC(0.)
X-8.674 Y22.49 Z-7.062 B5. C=DC(0.)
X-8.674 Y23.74 Z-7.383 B5. C=DC(0.)
X-8.674 Y24.157 Z-7.492 B5. C=DC(0.)
X-8.674 Y24.574 Z-7.607 B5. C=DC(0.)
X-8.674 Y25.408 Z-7.841 B5. C=DC(0.)
X-8.674 Y25.825 Z-7.959 B5. C=DC(0.)
X-8.674 Y27.076 Z-8.335 B5. C=DC(0.)
X-8.674 Y27.493 Z-8.463 B5. C=DC(0.)
X-8.674 Y27.893 Z-8.591 B5. C=DC(0.)
X-8.674 Y28.694 Z-8.851 B5. C=DC(0.)
X-8.674 Y29.122 Z-8.992 B5. C=DC(0.),8
X-8.674 Y37.5 Z-8.992 B5. C=DC(0.),7
X-7.674 Y37.5 Z-8.992 B5. C=DC(0.),7
X-7.674 Y29.397 Z-8.992 B5. C=DC(0.),8
X-7.674 Y28.907 Z-8.829 B5. C=DC(0.)
X-7.674 Y28.497 Z-8.695 B5. C=DC(0.)
X-7.674 Y27.679 Z-8.43 B5. C=DC(0.)
X-7.674 Y27.27 Z-8.305 B5. C=DC(0.)
X-7.674 Y26.042 Z-7.932 B5. C=DC(0.)
X-7.674 Y24.814 Z-7.584 B5. C=DC(0.)
X-7.674 Y24.392 Z-7.465 B5. C=DC(0.)
X-7.674 Y22.7 Z-7.026 B5. C=DC(0.)
X-7.674 Y21.432 Z-6.721 B5. C=DC(0.)
X-7.674 Y21.009 Z-6.62 B5. C=DC(0.)
X-7.674 Y19.317 Z-6.25 B5. C=DC(0.)
X-7.674 Y17.626 Z-5.915 B5. C=DC(0.)
X-7.674 Y17.203 Z-5.837 B5. C=DC(0.)
X-7.674 Y15.935 Z-5.613 B5. C=DC(0.)
X-7.674 Y15.503 Z-5.54 B5. C=DC(0.)
X-7.674 Y14.209 Z-5.338 B5. C=DC(0.)
X-7.674 Y13.778 Z-5.272 B5. C=DC(0.)
X-7.674 Y12.915 Z-5.154 B5. C=DC(0.)
X-7.674 Y12.053 Z-5.039 B5. C=DC(0.)
X-7.674 Y11.622 Z-4.985 B5. C=DC(0.)
X-7.674 Y9.896 Z-4.791 B5. C=DC(0.)
X-7.674 Y9.034 Z-4.708 B5. C=DC(0.)
X-7.674 Y7.74 Z-4.593 B5. C=DC(0.)
X-7.674 Y7.308 Z-4.559 B5. C=DC(0.)
X-7.674 Y6.446 Z-4.5 B5. C=DC(0.)
X-7.674 Y5.583 Z-4.446 B5. C=DC(0.)
X-7.674 Y4.721 Z-4.397 B5. C=DC(0.)
X-7.674 Y3.847 Z-4.36 B5. C=DC(0.)
X-7.674 Y2.972 Z-4.33 B5. C=DC(0.)
X-7.674 Y2.534 Z-4.317 B5. C=DC(0.),8
X-7.674 Y-3.252 Z-2.581 B5. C=DC(0.)
X-7.674 Y-3.686 Z-2.489 B5. C=DC(0.)
X-7.674 Y-4.119 Z-2.48 B5. C=DC(0.)
X-7.674 Y-4.544 Z-2.543 B5. C=DC(0.)
X-7.674 Y-4.948 Z-2.671 B5. C=DC(0.)
X-7.674 Y-5.324 Z-2.855 B5. C=DC(0.)
X-7.674 Y-8.303 Z-4.642 B5. C=DC(0.),8
X-7.674 Y-8.305 Z-4.642 B5. C=DC(0.),3
X-7.674 Y-8.527 Z-4.662 B5. C=DC(0.),3
X-7.674 Y-9.395 Z-4.741 B5. C=DC(0.)
X-7.674 Y-9.83 Z-4.783 B5. C=DC(0.)
X-7.674 Y-10.264 Z-4.831 B5. C=DC(0.)
X-7.674 Y-11.132 Z-4.929 B5. C=DC(0.)
X-7.674 Y-11.997 Z-5.031 B5. C=DC(0.)
X-7.674 Y-12.858 Z-5.146 B5. C=DC(0.)
X-7.674 Y-13.719 Z-5.264 B5. C=DC(0.)
X-7.674 Y-14.149 Z-5.328 B5. C=DC(0.)
X-7.674 Y-15.44 Z-5.53 B5. C=DC(0.)
X-7.674 Y-15.871 Z-5.602 B5. C=DC(0.)
X-7.674 Y-17.162 Z-5.83 B5. C=DC(0.)
X-7.674 Y-17.589 Z-5.908 B5. C=DC(0.)
X-7.674 Y-19.297 Z-6.245 B5. C=DC(0.)
X-7.674 Y-21.005 Z-6.62 B5. C=DC(0.)
X-7.674 Y-21.853 Z-6.821 B5. C=DC(0.)
X-7.674 Y-22.701 Z-7.026 B5. C=DC(0.)
X-7.674 Y-24.385 Z-7.464 B5. C=DC(0.)
X-7.674 Y-24.806 Z-7.582 B5. C=DC(0.)
X-7.674 Y-26.066 Z-7.939 B5. C=DC(0.)
X-7.674 Y-27.321 Z-8.32 B5. C=DC(0.)
X-7.674 Y-27.736 Z-8.448 B5. C=DC(0.)
X-7.674 Y-28.567 Z-8.718 B5. C=DC(0.)
X-7.674 Y-29.397 Z-8.992 B5. C=DC(0.),8
X-7.674 Y-37.5 Z-8.992 B5. C=DC(0.),7
X-6.674 Y-37.5 Z-8.992 B5. C=DC(0.),7
X-6.674 Y-29.636 Z-8.992 B5. C=DC(0.),8
X-6.674 Y-29.222 Z-8.853 B5. C=DC(0.)
X-6.674 Y-27.979 Z-8.446 B5. C=DC(0.)
X-6.674 Y-27.565 Z-8.317 B5. C=DC(0.)
X-6.674 Y-26.313 Z-7.933 B5. C=DC(0.)
X-6.674 Y-25.057 Z-7.573 B5. C=DC(0.)
X-6.674 Y-24.637 Z-7.454 B5. C=DC(0.)
X-6.674 Y-23.369 Z-7.12 B5. C=DC(0.)
X-6.674 Y-22.946 Z-7.011 B5. C=DC(0.)
X-6.674 Y-21.678 Z-6.702 B5. C=DC(0.)
X-6.674 Y-21.255 Z-6.601 B5. C=DC(0.)
X-6.674 Y-19.978 Z-6.318 B5. C=DC(0.)
X-6.674 Y-19.552 Z-6.225 B5. C=DC(0.)
X-6.674 Y-18.701 Z-6.052 B5. C=DC(0.)
X-6.674 Y-17.843 Z-5.881 B5. C=DC(0.)
X-6.674 Y-16.555 Z-5.647 B5. C=DC(0.)
X-6.674 Y-16.126 Z-5.57 B5. C=DC(0.)
X-6.674 Y-14.41 Z-5.293 B5. C=DC(0.)
X-6.674 Y-13.981 Z-5.23 B5. C=DC(0.)
X-6.674 Y-13.549 Z-5.168 B5. C=DC(0.)
X-6.674 Y-12.684 Z-5.048 B5. C=DC(0.)
X-6.674 Y-12.251 Z-4.99 B5. C=DC(0.)
X-6.674 Y-11.386 Z-4.886 B5. C=DC(0.)
X-6.674 Y-10.52 Z-4.783 B5. C=DC(0.)
X-6.674 Y-10.088 Z-4.739 B5. C=DC(0.)
X-6.674 Y-9.223 Z-4.653 B5. C=DC(0.)
X-6.674 Y-8.156 Z-4.554 B5. C=DC(0.),8
X-6.674 Y-8.155 Z-4.553 B5. C=DC(0.),3
X-6.674 Y-4.787 Z-2.532 B5. C=DC(0.)
X-6.674 Y-4.412 Z-2.342 B5. C=DC(0.)
X-6.674 Y-4.009 Z-2.207 B5. C=DC(0.)
X-6.674 Y-3.586 Z-2.136 B5. C=DC(0.)
X-6.674 Y-3.153 Z-2.138 B5. C=DC(0.)
X-6.674 Y-2.721 Z-2.221 B5. C=DC(0.)
X-6.674 Y4.22 Z-4.303 B5. C=DC(0.),8
X-6.674 Y4.222 Z-4.304 B5. C=DC(0.),3
X-6.674 Y5.086 Z-4.346 B5. C=DC(0.)
X-6.674 Y5.95 Z-4.392 B5. C=DC(0.)
X-6.674 Y6.815 Z-4.453 B5. C=DC(0.)
X-6.674 Y7.247 Z-4.485 B5. C=DC(0.)
X-6.674 Y8.111 Z-4.551 B5. C=DC(0.)
X-6.674 Y8.543 Z-4.588 B5. C=DC(0.)
X-6.674 Y9.408 Z-4.671 B5. C=DC(0.)
X-6.674 Y10.272 Z-4.757 B5. C=DC(0.)
X-6.674 Y11.137 Z-4.856 B5. C=DC(0.)
X-6.674 Y12.433 Z-5.013 B5. C=DC(0.)
X-6.674 Y14.162 Z-5.255 B5. C=DC(0.)
X-6.674 Y15.018 Z-5.39 B5. C=DC(0.)
X-6.674 Y15.867 Z-5.527 B5. C=DC(0.)
X-6.674 Y16.291 Z-5.599 B5. C=DC(0.)
X-6.674 Y16.715 Z-5.675 B5. C=DC(0.)
X-6.674 Y16.291 Z-5.799 B5. C=DC(0.),2
X-6.674 Y17.563 Z-5.83 B5. C=DC(0.)
X-6.674 Y17.988 Z-5.909 B5. C=DC(0.)
X-6.674 Y18.836 Z-6.079 B5. C=DC(0.)
X-6.674 Y19.684 Z-6.252 B5. C=DC(0.)
X-6.674 Y23.078 Z-7.044 B5. C=DC(0.),6
X-6.674 Y24.726 Z-7.479 B5. C=DC(0.)
X-6.674 Y25.962 Z-7.832 B5. C=DC(0.)
X-6.674 Y26.374 Z-7.952 B5. C=DC(0.)
X-6.674 Y27.61 Z-8.331 B5. C=DC(0.)
X-6.674 Y28.023 Z-8.46 B5. C=DC(0.)
X-6.674 Y29.259 Z-8.865 B5. C=DC(0.)
X-6.674 Y29.635 Z-8.992 B5. C=DC(0.)
X-6.674 Y29.637 Z-8.992 B5. C=DC(0.),8
X-6.674 Y37.5 Z-8.992 B5. C=DC(0.),7
X-5.674 Y37.5 Z-8.992 B5. C=DC(0.),7
X-5.674 Y29.839 Z-8.992 B5. C=DC(0.),8
X-5.674 Y29.35 Z-8.828 B5. C=DC(0.)
X-5.674 Y28.128 Z-8.424 B5. C=DC(0.)
X-5.674 Y26.498 Z-7.921 B5. C=DC(0.)
X-5.674 Y25.275 Z-7.568 B5. C=DC(0.)
X-5.674 Y24.854 Z-7.448 B5. C=DC(0.)
X-5.674 Y24.432 Z-7.335 B5. C=DC(0.)
X-5.674 Y24.589 Z-7.111 B5. C=DC(0.),2
X-5.674 Y23.167 Z-7.001 B5. C=DC(0.)
X-5.674 Y21.903 Z-6.69 B5. C=DC(0.)
X-5.674 Y21.481 Z-6.589 B5. C=DC(0.)
X-5.674 Y20.217 Z-6.304 B5. C=DC(0.)
X-5.674 Y19.795 Z-6.212 B5. C=DC(0.)
X-5.674 Y18.53 Z-5.952 B5. C=DC(0.)
X-5.674 Y18.109 Z-5.868 B5. C=DC(0.)
X-5.674 Y16.844 Z-5.634 B5. C=DC(0.)
X-5.674 Y16.414 Z-5.556 B5. C=DC(0.)
X-5.674 Y12.971 Z-5.022 B5. C=DC(0.),6
X-5.674 Y12.541 Z-4.966 B5. C=DC(0.)
X-5.674 Y11.25 Z-4.805 B5. C=DC(0.)
X-5.674 Y10.819 Z-4.755 B5. C=DC(0.)
X-5.674 Y10.389 Z-4.709 B5. C=DC(0.)
X-5.674 Y9.528 Z-4.62 B5. C=DC(0.)
X-5.674 Y9.098 Z-4.576 B5. C=DC(0.)
X-5.674 Y8.237 Z-4.502 B5. C=DC(0.)
X-5.674 Y7.377 Z-4.431 B5. C=DC(0.)
X-5.674 Y6.947 Z-4.396 B5. C=DC(0.)
X-5.674 Y6.072 Z-4.339 B5. C=DC(0.),8
X-5.674 Y-1.828 Z-1.969 B5. C=DC(0.)
X-5.674 Y-1.848 Z-1.969 B5. C=DC(0.),3
X-5.674 Y-2.251 Z-1.845 B5. C=DC(0.)
X-5.674 Y-2.688 Z-1.784 B5. C=DC(0.)
X-5.674 Y-3.12 Z-1.802 B5. C=DC(0.)
X-5.674 Y-3.539 Z-1.89 B5. C=DC(0.)
X-5.674 Y-3.934 Z-2.039 B5. C=DC(0.)
X-5.674 Y-4.307 Z-2.244 B5. C=DC(0.)
X-5.674 Y-8.04 Z-4.484 B5. C=DC(0.),8
X-5.674 Y-8.041 Z-4.484 B5. C=DC(0.),3
X-5.674 Y-9.013 Z-4.567 B5. C=DC(0.)
X-5.674 Y-9.447 Z-4.611 B5. C=DC(0.)
X-5.674 Y-10.317 Z-4.702 B5. C=DC(0.)
X-5.674 Y-11.182 Z-4.797 B5. C=DC(0.)
X-5.674 Y-12.475 Z-4.958 B5. C=DC(0.)
X-5.674 Y-12.906 Z-5.013 B5. C=DC(0.)
X-5.674 Y-14.198 Z-5.199 B5. C=DC(0.)
X-5.674 Y-14.629 Z-5.263 B5. C=DC(0.)
X-5.674 Y-15.06 Z-5.332 B5. C=DC(0.)
X-5.674 Y-15.921 Z-5.474 B5. C=DC(0.)
X-5.674 Y-16.352 Z-5.546 B5. C=DC(0.)
X-5.674 Y-16.779 Z-5.622 B5. C=DC(0.)
X-5.674 Y-18.062 Z-5.859 B5. C=DC(0.)
X-5.674 Y-18.489 Z-5.944 B5. C=DC(0.)
X-5.674 Y-19.771 Z-6.207 B5. C=DC(0.)
X-5.674 Y-20.195 Z-6.299 B5. C=DC(0.)
X-5.674 Y-21.044 Z-6.49 B5. C=DC(0.)
X-5.674 Y-21.468 Z-6.586 B5. C=DC(0.)
X-5.674 Y-21.892 Z-6.687 B5. C=DC(0.)
X-5.674 Y-23.165 Z-7.001 B5. C=DC(0.)
X-5.674 Y-23.586 Z-7.11 B5. C=DC(0.)
X-5.674 Y-24.85 Z-7.447 B5. C=DC(0.)
X-5.674 Y-25.269 Z-7.566 B5. C=DC(0.)
X-5.674 Y-26.524 Z-7.928 B5. C=DC(0.)
X-5.674 Y-27.771 Z-8.314 B5. C=DC(0.)
X-5.674 Y-28.184 Z-8.443 B5. C=DC(0.)
X-5.674 Y-29.424 Z-8.853 B5. C=DC(0.)
X-5.674 Y-29.839 Z-8.992 B5. C=DC(0.),8
X-5.674 Y-37.5 Z-8.992 B5. C=DC(0.),7
X-4.674 Y-37.5 Z-8.992 B5. C=DC(0.),7
X-4.674 Y-30.004 Z-8.992 B5. C=DC(0.),8
X-4.674 Y-29.59 Z-8.852 B5. C=DC(0.)
X-4.674 Y-28.348 Z-8.439 B5. C=DC(0.)
X-4.674 Y-27.934 Z-8.309 B5. C=DC(0.)
X-4.674 Y-27.1 Z-8.049 B5. C=DC(0.)
X-4.674 Y-26.684 Z-7.92 B5. C=DC(0.)
X-4.674 Y-25.425 Z-7.554 B5. C=DC(0.)
X-4.674 Y-25.006 Z-7.435 B5. C=DC(0.)
X-4.674 Y-23.739 Z-7.094 B5. C=DC(0.)
X-4.674 Y-23.316 Z-6.985 B5. C=DC(0.)
X-4.674 Y-22.049 Z-6.67 B5. C=DC(0.)
X-4.674 Y-21.627 Z-6.57 B5. C=DC(0.)
X-4.674 Y-20.351 Z-6.278 B5. C=DC(0.)
X-4.674 Y-19.925 Z-6.187 B5. C=DC(0.)
X-4.674 Y-18.649 Z-5.922 B5. C=DC(0.)
X-4.674 Y-18.224 Z-5.839 B5. C=DC(0.)
X-4.674 Y-16.938 Z-5.596 B5. C=DC(0.)
X-4.674 Y-16.509 Z-5.521 B5. C=DC(0.)
X-4.674 Y-15.223 Z-5.304 B5. C=DC(0.)
X-4.674 Y-14.795 Z-5.237 B5. C=DC(0.)
X-4.674 Y-13.498 Z-5.044 B5. C=DC(0.)
X-4.674 Y-13.066 Z-4.983 B5. C=DC(0.)
X-4.674 Y-11.769 Z-4.816 B5. C=DC(0.)
X-4.674 Y-11.337 Z-4.762 B5. C=DC(0.)
X-4.674 Y-10.473 Z-4.667 B5. C=DC(0.)
X-4.674 Y-9.608 Z-4.573 B5. C=DC(0.)
X-4.674 Y-9.176 Z-4.533 B5. C=DC(0.)
X-4.674 Y-7.939 Z-4.423 B5. C=DC(0.),8
X-4.674 Y-7.937 Z-4.422 B5. C=DC(0.),3
X-4.674 Y-3.84 Z-1.964 B5. C=DC(0.)
X-4.674 Y-3.468 Z-1.747 B5. C=DC(0.)
X-4.674 Y-3.081 Z-1.582 B5. C=DC(0.)
X-4.674 Y-2.671 Z-1.475 B5. C=DC(0.)
X-4.674 Y-2.244 Z-1.435 B5. C=DC(0.)
X-4.674 Y-1.807 Z-1.471 B5. C=DC(0.)
X-4.674 Y-1.38 Z-1.584 B5. C=DC(0.)
X-4.674 Y8.142 Z-4.441 B5. C=DC(0.),8
X-4.674 Y8.144 Z-4.441 B5. C=DC(0.),3
X-4.674 Y9.439 Z-4.557 B5. C=DC(0.)
X-4.674 Y10.302 Z-4.648 B5. C=DC(0.)
X-4.674 Y11.166 Z-4.743 B5. C=DC(0.)
X-4.674 Y11.598 Z-4.793 B5. C=DC(0.)
X-4.674 Y12.893 Z-4.961 B5. C=DC(0.)
X-4.674 Y13.324 Z-5.018 B5. C=DC(0.)
X-4.674 Y14.62 Z-5.211 B5. C=DC(0.)
X-4.674 Y15.051 Z-5.275 B5. C=DC(0.)
X-4.674 Y16.753 Z-5.562 B5. C=DC(0.)
X-4.674 Y17.177 Z-5.641 B5. C=DC(0.)
X-4.674 Y18.447 Z-5.881 B5. C=DC(0.)
X-4.674 Y18.87 Z-5.967 B5. C=DC(0.)
X-4.674 Y20.14 Z-6.231 B5. C=DC(0.)
X-4.674 Y20.564 Z-6.327 B5. C=DC(0.)
X-4.674 Y21.834 Z-6.617 B5. C=DC(0.)
X-4.674 Y22.257 Z-6.722 B5. C=DC(0.)
X-4.674 Y23.528 Z-7.038 B5. C=DC(0.)
X-4.674 Y24.76 Z-7.369 B5. C=DC(0.)
X-4.674 Y25.171 Z-7.48 B5. C=DC(0.)
X-4.674 Y26.404 Z-7.839 B5. C=DC(0.)
X-4.674 Y26.815 Z-7.96 B5. C=DC(0.)
X-4.674 Y28.048 Z-8.344 B5. C=DC(0.)
X-4.674 Y28.459 Z-8.476 B5. C=DC(0.)
X-4.674 Y29.692 Z-8.886 B5. C=DC(0.)
X-4.674 Y30.003 Z-8.992 B5. C=DC(0.),8
X-4.674 Y37.5 Z-8.992 B5. C=DC(0.),7
X-3.674 Y37.5 Z-8.992 B5. C=DC(0.),7
X-3.674 Y30.135 Z-8.992 B5. C=DC(0.),8
X-3.674 Y29.847 Z-8.894 B5. C=DC(0.)
X-3.674 Y28.639 Z-8.489 B5. C=DC(0.)
X-3.674 Y28.236 Z-8.358 B5. C=DC(0.)
X-3.674 Y27.027 Z-7.98 B5. C=DC(0.)
X-3.674 Y26.609 Z-7.854 B5. C=DC(0.)
X-3.674 Y25.352 Z-7.487 B5. C=DC(0.)
X-3.674 Y24.933 Z-7.372 B5. C=DC(0.)
X-3.674 Y23.676 Z-7.032 B5. C=DC(0.)
X-3.674 Y22.419 Z-6.717 B5. C=DC(0.)
X-3.674 Y22.001 Z-6.614 B5. C=DC(0.)
X-3.674 Y20.744 Z-6.324 B5. C=DC(0.)
X-3.674 Y20.325 Z-6.229 B5. C=DC(0.)
X-3.674 Y19.068 Z-5.964 B5. C=DC(0.)
X-3.674 Y18.64 Z-5.876 B5. C=DC(0.)
X-3.674 Y17.354 Z-5.631 B5. C=DC(0.)
X-3.674 Y16.925 Z-5.551 B5. C=DC(0.)
X-3.674 Y15.639 Z-5.331 B5. C=DC(0.)
X-3.674 Y15.21 Z-5.259 B5. C=DC(0.)
X-3.674 Y13.924 Z-5.064 B5. C=DC(0.)
X-3.674 Y13.496 Z-5. B5. C=DC(0.)
X-3.674 Y11.781 Z-4.773 B5. C=DC(0.)
X-3.674 Y10.495 Z-4.627 B5. C=DC(0.),8
X-3.674 Y10.494 Z-4.627 B5. C=DC(0.),3
X-3.674 Y-.904 Z-1.207 B5. C=DC(0.)
X-3.674 Y-.909 Z-1.207 B5. C=DC(0.),3
X-3.674 Y-1.336 Z-1.108 B5. C=DC(0.)
X-3.674 Y-1.772 Z-1.092 B5. C=DC(0.)
X-3.674 Y-2.199 Z-1.15 B5. C=DC(0.)
X-3.674 Y-2.604 Z-1.272 B5. C=DC(0.)
X-3.674 Y-2.982 Z-1.451 B5. C=DC(0.)
X-3.674 Y-3.357 Z-1.674 B5. C=DC(0.)
X-3.674 Y-7.855 Z-4.373 B5. C=DC(0.),8
X-3.674 Y-7.857 Z-4.374 B5. C=DC(0.),3
X-3.674 Y-8.869 Z-4.464 B5. C=DC(0.)
X-3.674 Y-9.736 Z-4.546 B5. C=DC(0.)
X-3.674 Y-10.169 Z-4.59 B5. C=DC(0.)
X-3.674 Y-11.47 Z-4.737 B5. C=DC(0.)
X-3.674 Y-11.903 Z-4.789 B5. C=DC(0.)
X-3.674 Y-13.203 Z-4.961 B5. C=DC(0.)
X-3.674 Y-13.633 Z-5.02 B5. C=DC(0.)
X-3.674 Y-14.922 Z-5.215 B5. C=DC(0.)
X-3.674 Y-15.351 Z-5.282 B5. C=DC(0.)
X-3.674 Y-16.64 Z-5.502 B5. C=DC(0.)
X-3.674 Y-17.07 Z-5.577 B5. C=DC(0.)
X-3.674 Y-18.359 Z-5.823 B5. C=DC(0.)
X-3.674 Y-18.786 Z-5.905 B5. C=DC(0.)
X-3.674 Y-20.065 Z-6.174 B5. C=DC(0.)
X-3.674 Y-20.491 Z-6.266 B5. C=DC(0.)
X-3.674 Y-21.77 Z-6.561 B5. C=DC(0.)
X-3.674 Y-22.194 Z-6.661 B5. C=DC(0.)
X-3.674 Y-23.464 Z-6.979 B5. C=DC(0.)
X-3.674 Y-23.884 Z-7.088 B5. C=DC(0.)
X-3.674 Y-25.146 Z-7.43 B5. C=DC(0.)
X-3.674 Y-25.563 Z-7.549 B5. C=DC(0.)
X-3.674 Y-26.816 Z-7.915 B5. C=DC(0.)
X-3.674 Y-27.231 Z-8.044 B5. C=DC(0.)
X-3.674 Y-28.061 Z-8.304 B5. C=DC(0.)
X-3.674 Y-28.476 Z-8.435 B5. C=DC(0.)
X-3.674 Y-29.721 Z-8.851 B5. C=DC(0.)
X-3.674 Y-30.135 Z-8.992 B5. C=DC(0.),8
X-3.674 Y-37.5 Z-8.992 B5. C=DC(0.),7
X-2.674 Y-37.5 Z-8.992 B5. C=DC(0.),7
X-2.674 Y-30.234 Z-8.992 B5. C=DC(0.),8
X-2.674 Y-29.821 Z-8.851 B5. C=DC(0.)
X-2.674 Y-28.582 Z-8.435 B5. C=DC(0.)
X-2.674 Y-28.169 Z-8.304 B5. C=DC(0.)
X-2.674 Y-27.338 Z-8.043 B5. C=DC(0.)
X-2.674 Y-26.923 Z-7.913 B5. C=DC(0.)
X-2.674 Y-25.668 Z-7.545 B5. C=DC(0.)
X-2.674 Y-25.249 Z-7.426 B5. C=DC(0.)
X-2.674 Y-23.986 Z-7.081 B5. C=DC(0.)
X-2.674 Y-23.565 Z-6.971 B5. C=DC(0.)
X-2.674 Y-22.293 Z-6.652 B5. C=DC(0.)
X-2.674 Y-21.868 Z-6.551 B5. C=DC(0.)
X-2.674 Y-20.596 Z-6.257 B5. C=DC(0.)
X-2.674 Y-20.172 Z-6.166 B5. C=DC(0.)
X-2.674 Y-17.182 Z-5.565 B5. C=DC(0.),6
X-2.674 Y-15.89 Z-5.341 B5. C=DC(0.)
X-2.674 Y-15.46 Z-5.268 B5. C=DC(0.)
X-2.674 Y-14.168 Z-5.068 B5. C=DC(0.)
X-2.674 Y-13.737 Z-5.003 B5. C=DC(0.)
X-2.674 Y-12.015 Z-4.771 B5. C=DC(0.)
X-2.674 Y-10.278 Z-4.569 B5. C=DC(0.)
X-2.674 Y-8.54 Z-4.4 B5. C=DC(0.)
X-2.674 Y-7.799 Z-4.339 B5. C=DC(0.),8
X-2.674 Y-2.558 Z-1.195 B5. C=DC(0.)
X-2.674 Y-2.183 Z-.991 B5. C=DC(0.)
X-2.674 Y-1.786 Z-.845 B5. C=DC(0.)
X-2.674 Y-1.369 Z-.76 B5. C=DC(0.)
X-2.674 Y-.937 Z-.745 B5. C=DC(0.)
X-2.674 Y-.5 Z-.811 B5. C=DC(0.)
X-2.674 Y-.078 Z-.936 B5. C=DC(0.)
X-2.674 Y-.078 Z-.946 B5. C=DC(0.),3
X-2.674 Y13.269 Z-4.94 B5. C=DC(0.),8
X-2.674 Y13.703 Z-4.998 B5. C=DC(0.)
X-2.674 Y14.136 Z-5.064 B5. C=DC(0.)
X-2.674 Y15.41 Z-5.26 B5. C=DC(0.)
X-2.674 Y15.835 Z-5.332 B5. C=DC(0.)
X-2.674 Y17.109 Z-5.552 B5. C=DC(0.)
X-2.674 Y17.534 Z-5.632 B5. C=DC(0.)
X-2.674 Y18.808 Z-5.878 B5. C=DC(0.)
X-2.674 Y19.233 Z-5.966 B5. C=DC(0.)
X-2.674 Y23.447 Z-6.942 B5. C=DC(0.),6
X-2.674 Y23.86 Z-7.047 B5. C=DC(0.)
X-2.674 Y25.1 Z-7.385 B5. C=DC(0.)
X-2.674 Y25.514 Z-7.5 B5. C=DC(0.)
X-2.674 Y26.754 Z-7.864 B5. C=DC(0.)
X-2.674 Y27.167 Z-7.989 B5. C=DC(0.)
X-2.674 Y28.407 Z-8.379 B5. C=DC(0.)
X-2.674 Y28.82 Z-8.515 B5. C=DC(0.)
X-2.674 Y30.06 Z-8.932 B5. C=DC(0.),3
X-2.674 Y30.233 Z-8.992 B5. C=DC(0.),3
X-2.674 Y30.235 Z-8.992 B5. C=DC(0.),8
X-2.674 Y37.5 Z-8.992 B5. C=DC(0.),7
X-1.674 Y37.5 Z-8.992 B5. C=DC(0.),7
X-1.674 Y30.301 Z-8.992 B5. C=DC(0.),8
X-1.674 Y30.299 Z-8.992 B5. C=DC(0.),3
X-1.674 Y30.121 Z-8.93 B5. C=DC(0.),3
X-1.674 Y28.892 Z-8.516 B5. C=DC(0.)
X-1.674 Y28.482 Z-8.38 B5. C=DC(0.)
X-1.674 Y27.252 Z-7.992 B5. C=DC(0.)
X-1.674 Y26.842 Z-7.868 B5. C=DC(0.)
X-1.674 Y25.612 Z-7.506 B5. C=DC(0.)
X-1.674 Y25.202 Z-7.391 B5. C=DC(0.)
X-1.674 Y23.972 Z-7.055 B5. C=DC(0.)
X-1.674 Y23.55 Z-6.946 B5. C=DC(0.)
X-1.674 Y22.282 Z-6.626 B5. C=DC(0.)
X-1.674 Y21.013 Z-6.331 B5. C=DC(0.)
X-1.674 Y20.591 Z-6.233 B5. C=DC(0.)
X-1.674 Y19.322 Z-5.963 B5. C=DC(0.)
X-1.674 Y18.9 Z-5.875 B5. C=DC(0.)
X-1.674 Y17.631 Z-5.629 B5. C=DC(0.)
X-1.674 Y17.209 Z-5.55 B5. C=DC(0.)
X-1.674 Y16.784 Z-5.475 B5. C=DC(0.),8
X-1.674 Y.312 Z-.533 B5. C=DC(0.)
X-1.674 Y-.115 Z-.425 B5. C=DC(0.)
X-1.674 Y-.552 Z-.396 B5. C=DC(0.)
X-1.674 Y-.98 Z-.444 B5. C=DC(0.)
X-1.674 Y-1.389 Z-.557 B5. C=DC(0.)
X-1.674 Y-1.774 Z-.729 B5. C=DC(0.)
X-1.674 Y-2.148 Z-.949 B5. C=DC(0.)
X-1.674 Y-7.759 Z-4.315 B5. C=DC(0.),8
X-1.674 Y-7.761 Z-4.316 B5. C=DC(0.)
X-1.674 Y-8.621 Z-4.387 B5. C=DC(0.)
X-1.674 Y-9.056 Z-4.429 B5. C=DC(0.)
X-1.674 Y-10.361 Z-4.558 B5. C=DC(0.)
X-1.674 Y-10.792 Z-4.607 B5. C=DC(0.)
X-1.674 Y-12.086 Z-4.76 B5. C=DC(0.)
X-1.674 Y-12.517 Z-4.817 B5. C=DC(0.)
X-1.674 Y-13.811 Z-4.993 B5. C=DC(0.)
X-1.674 Y-14.242 Z-5.058 B5. C=DC(0.)
X-1.674 Y-15.535 Z-5.259 B5. C=DC(0.)
X-1.674 Y-15.963 Z-5.332 B5. C=DC(0.)
X-1.674 Y-17.246 Z-5.556 B5. C=DC(0.)
X-1.674 Y-17.674 Z-5.638 B5. C=DC(0.)
X-1.674 Y-18.957 Z-5.886 B5. C=DC(0.)
X-1.674 Y-20.665 Z-6.25 B5. C=DC(0.)
X-1.674 Y-21.938 Z-6.546 B5. C=DC(0.)
X-1.674 Y-22.36 Z-6.645 B5. C=DC(0.)
X-1.674 Y-23.625 Z-6.965 B5. C=DC(0.)
X-1.674 Y-24.046 Z-7.075 B5. C=DC(0.)
X-1.674 Y-25.311 Z-7.421 B5. C=DC(0.)
X-1.674 Y-25.73 Z-7.541 B5. C=DC(0.)
X-1.674 Y-26.986 Z-7.91 B5. C=DC(0.)
X-1.674 Y-27.402 Z-8.04 B5. C=DC(0.)
X-1.674 Y-28.234 Z-8.302 B5. C=DC(0.)
X-1.674 Y-28.647 Z-8.433 B5. C=DC(0.)
X-1.674 Y-29.888 Z-8.851 B5. C=DC(0.)
X-1.674 Y-30.298 Z-8.992 B5. C=DC(0.),8
X-1.674 Y-30.3 Z-8.992 B5. C=DC(0.),3
X-1.674 Y-37.5 Z-8.992 B5. C=DC(0.),7
X-.674 Y-37.5 Z-8.992 B5. C=DC(0.),7
X-.674 Y-30.334 Z-8.992 B5. C=DC(0.),8
X-.674 Y-30.332 Z-8.992 B5. C=DC(0.),3
X-.674 Y-29.921 Z-8.851 B5. C=DC(0.)
X-.674 Y-28.68 Z-8.433 B5. C=DC(0.)
X-.674 Y-28.267 Z-8.301 B5. C=DC(0.)
X-.674 Y-27.434 Z-8.038 B5. C=DC(0.)
X-.674 Y-27.018 Z-7.909 B5. C=DC(0.)
X-.674 Y-25.761 Z-7.538 B5. C=DC(0.)
X-.674 Y-25.342 Z-7.419 B5. C=DC(0.)
X-.674 Y-24.077 Z-7.073 B5. C=DC(0.)
X-.674 Y-23.655 Z-6.963 B5. C=DC(0.)
X-.674 Y-22.39 Z-6.642 B5. C=DC(0.)
X-.674 Y-21.968 Z-6.542 B5. C=DC(0.)
X-.674 Y-20.694 Z-6.245 B5. C=DC(0.)
X-.674 Y-19.42 Z-5.973 B5. C=DC(0.)
X-.674 Y-18.995 Z-5.883 B5. C=DC(0.)
X-.674 Y-17.711 Z-5.633 B5. C=DC(0.)
X-.674 Y-17.283 Z-5.552 B5. C=DC(0.)
X-.674 Y-15.999 Z-5.327 B5. C=DC(0.)
X-.674 Y-15.571 Z-5.255 B5. C=DC(0.)
X-.674 Y-14.276 Z-5.053 B5. C=DC(0.)
X-.674 Y-13.845 Z-4.988 B5. C=DC(0.)
X-.674 Y-12.551 Z-4.81 B5. C=DC(0.)
X-.674 Y-12.119 Z-4.754 B5. C=DC(0.)
X-.674 Y-10.825 Z-4.6 B5. C=DC(0.)
X-.674 Y-10.393 Z-4.552 B5. C=DC(0.)
X-.674 Y-9.099 Z-4.422 B5. C=DC(0.)
X-.674 Y-8.667 Z-4.381 B5. C=DC(0.)
X-.674 Y-7.742 Z-4.305 B5. C=DC(0.),8
X-.674 Y-7.74 Z-4.304 B5. C=DC(0.),3
X-.674 Y-7.74 Z-4.314 B5. C=DC(0.),3
X-.674 Y-1.384 Z-.49 B5. C=DC(0.)
X-.674 Y-1.01 Z-.29 B5. C=DC(0.)
X-.674 Y-.613 Z-.147 B5. C=DC(0.)
X-.674 Y-.194 Z-.066 B5. C=DC(0.)
X-.674 Y.239 Z-.071 B5. C=DC(0.)
X-.674 Y.672 Z-.172 B5. C=DC(0.)
X-.674 Y21.597 Z-6.45 B5. C=DC(0.),8
X-.674 Y22.434 Z-6.653 B5. C=DC(0.)
X-.674 Y23.69 Z-6.971 B5. C=DC(0.)
X-.674 Y24.108 Z-7.081 B5. C=DC(0.)
X-.674 Y25.364 Z-7.425 B5. C=DC(0.)
X-.674 Y25.782 Z-7.545 B5. C=DC(0.)
X-.674 Y27.038 Z-7.914 B5. C=DC(0.)
X-.674 Y27.456 Z-8.045 B5. C=DC(0.)
X-.674 Y28.661 Z-8.426 B5. C=DC(0.)
X-.674 Y29.867 Z-8.833 B5. C=DC(0.)
X-.674 Y30.334 Z-8.992 B5. C=DC(0.),8
X-.674 Y37.5 Z-8.992 B5. C=DC(0.),7
X.326 Y37.5 Z-8.992 B5. C=DC(0.),7
X.326 Y30.334 Z-8.992 B5. C=DC(0.),8
X.326 Y29.867 Z-8.832 B5. C=DC(0.)
X.326 Y28.661 Z-8.426 B5. C=DC(0.)
X.326 Y27.456 Z-8.045 B5. C=DC(0.)
X.326 Y27.038 Z-7.914 B5. C=DC(0.)
X.326 Y25.782 Z-7.545 B5. C=DC(0.)
X.326 Y25.364 Z-7.425 B5. C=DC(0.)
X.326 Y24.108 Z-7.081 B5. C=DC(0.)
X.326 Y23.69 Z-6.972 B5. C=DC(0.)
X.326 Y22.434 Z-6.654 B5. C=DC(0.)
X.326 Y22.016 Z-6.554 B5. C=DC(0.)
X.326 Y21.597 Z-6.45 B5. C=DC(0.),8
X.326 Y.673 Z-.172 B5. C=DC(0.)
X.326 Y.239 Z-.071 B5. C=DC(0.)
X.326 Y-.194 Z-.066 B5. C=DC(0.)
X.326 Y-.613 Z-.147 B5. C=DC(0.)
X.326 Y-1.01 Z-.29 B5. C=DC(0.)
X.326 Y-1.384 Z-.49 B5. C=DC(0.)
X.326 Y-7.74 Z-4.304 B5. C=DC(0.),8
X.326 Y-7.741 Z-4.304 B5. C=DC(0.),3
X.326 Y-8.669 Z-4.381 B5. C=DC(0.)
X.326 Y-9.1 Z-4.422 B5. C=DC(0.)
X.326 Y-10.394 Z-4.552 B5. C=DC(0.)
X.326 Y-10.826 Z-4.6 B5. C=DC(0.)
X.326 Y-12.12 Z-4.754 B5. C=DC(0.)
X.326 Y-12.552 Z-4.81 B5. C=DC(0.)
X.326 Y-13.846 Z-4.988 B5. C=DC(0.)
X.326 Y-14.278 Z-5.053 B5. C=DC(0.)
X.326 Y-15.572 Z-5.255 B5. C=DC(0.)
X.326 Y-16. Z-5.328 B5. C=DC(0.)
X.326 Y-17.284 Z-5.553 B5. C=DC(0.)
X.326 Y-17.712 Z-5.634 B5. C=DC(0.)
X.326 Y-18.996 Z-5.884 B5. C=DC(0.)
X.326 Y-19.421 Z-5.973 B5. C=DC(0.)
X.326 Y-20.695 Z-6.246 B5. C=DC(0.)
X.326 Y-21.97 Z-6.543 B5. C=DC(0.)
X.326 Y-22.392 Z-6.643 B5. C=DC(0.)
X.326 Y-23.657 Z-6.963 B5. C=DC(0.)
X.326 Y-24.079 Z-7.073 B5. C=DC(0.)
X.326 Y-25.344 Z-7.419 B5. C=DC(0.)
X.326 Y-25.763 Z-7.539 B5. C=DC(0.)
X.326 Y-27.02 Z-7.909 B5. C=DC(0.)
X.326 Y-27.436 Z-8.039 B5. C=DC(0.)
X.326 Y-28.269 Z-8.301 B5. C=DC(0.)
X.326 Y-28.682 Z-8.433 B5. C=DC(0.)
X.326 Y-29.923 Z-8.851 B5. C=DC(0.)
X.326 Y-30.334 Z-8.992 B5. C=DC(0.),8
X.326 Y-30.336 Z-8.992 B5. C=DC(0.),3
X.326 Y-37.5 Z-8.992 B5. C=DC(0.),7
X1.326 Y-37.5 Z-8.992 B5. C=DC(0.),7
X1.326 Y-30.305 Z-8.992 B5. C=DC(0.),8
X1.326 Y-30.304 Z-8.992 B5. C=DC(0.),3
X1.326 Y-29.893 Z-8.851 B5. C=DC(0.)
X1.326 Y-28.652 Z-8.434 B5. C=DC(0.)
X1.326 Y-28.239 Z-8.303 B5. C=DC(0.)
X1.326 Y-27.407 Z-8.041 B5. C=DC(0.)
X1.326 Y-26.991 Z-7.911 B5. C=DC(0.)
X1.326 Y-25.734 Z-7.542 B5. C=DC(0.)
X1.326 Y-25.316 Z-7.423 B5. C=DC(0.)
X1.326 Y-24.051 Z-7.077 B5. C=DC(0.)
X1.326 Y-23.629 Z-6.967 B5. C=DC(0.)
X1.326 Y-22.364 Z-6.647 B5. C=DC(0.)
X1.326 Y-21.943 Z-6.548 B5. C=DC(0.)
X1.326 Y-20.669 Z-6.251 B5. C=DC(0.)
X1.326 Y-18.961 Z-5.887 B5. C=DC(0.)
X1.326 Y-17.678 Z-5.638 B5. C=DC(0.)
X1.326 Y-17.25 Z-5.556 B5. C=DC(0.)
X1.326 Y-15.967 Z-5.333 B5. C=DC(0.)
X1.326 Y-15.539 Z-5.26 B5. C=DC(0.)
X1.326 Y-14.246 Z-5.059 B5. C=DC(0.)
X1.326 Y-13.815 Z-4.994 B5. C=DC(0.)
X1.326 Y-12.521 Z-4.817 B5. C=DC(0.)
X1.326 Y-12.09 Z-4.76 B5. C=DC(0.)
X1.326 Y-10.796 Z-4.608 B5. C=DC(0.)
X1.326 Y-10.365 Z-4.559 B5. C=DC(0.)
X1.326 Y-9.059 Z-4.429 B5. C=DC(0.)
X1.326 Y-8.624 Z-4.387 B5. C=DC(0.)
X1.326 Y-7.761 Z-4.316 B5. C=DC(0.),8
X1.326 Y-7.759 Z-4.315 B5. C=DC(0.),3
X1.326 Y-2.148 Z-.949 B5. C=DC(0.)
X1.326 Y-1.774 Z-.729 B5. C=DC(0.)
X1.326 Y-1.389 Z-.557 B5. C=DC(0.)
X1.326 Y-.98 Z-.444 B5. C=DC(0.)
X1.326 Y-.552 Z-.396 B5. C=DC(0.)
X1.326 Y-.115 Z-.425 B5. C=DC(0.)
X1.326 Y.312 Z-.533 B5. C=DC(0.)
X1.326 Y.319 Z-.533 B5. C=DC(0.),3
X1.326 Y16.788 Z-5.476 B5. C=DC(0.),8
X1.326 Y17.212 Z-5.55 B5. C=DC(0.)
X1.326 Y17.635 Z-5.629 B5. C=DC(0.)
X1.326 Y18.903 Z-5.875 B5. C=DC(0.)
X1.326 Y19.325 Z-5.964 B5. C=DC(0.)
X1.326 Y20.593 Z-6.234 B5. C=DC(0.)
X1.326 Y21.016 Z-6.332 B5. C=DC(0.)
X1.326 Y22.284 Z-6.627 B5. C=DC(0.)
X1.326 Y23.552 Z-6.948 B5. C=DC(0.)
X1.326 Y23.975 Z-7.056 B5. C=DC(0.)
X1.326 Y25.204 Z-7.392 B5. C=DC(0.)
X1.326 Y25.614 Z-7.507 B5. C=DC(0.)
X1.326 Y26.844 Z-7.868 B5. C=DC(0.)
X1.326 Y27.253 Z-7.993 B5. C=DC(0.)
X1.326 Y28.483 Z-8.38 B5. C=DC(0.)
X1.326 Y28.893 Z-8.515 B5. C=DC(0.)
X1.326 Y30.123 Z-8.929 B5. C=DC(0.),3
X1.326 Y30.303 Z-8.992 B5. C=DC(0.),3
X1.326 Y30.305 Z-8.992 B5. C=DC(0.),8
X1.326 Y37.5 Z-8.992 B5. C=DC(0.),7
X2.326 Y37.5 Z-8.992 B5. C=DC(0.),7
X2.326 Y30.238 Z-8.992 B5. C=DC(0.),8
X2.326 Y30.237 Z-8.992 B5. C=DC(0.),3
X2.326 Y30.057 Z-8.929 B5. C=DC(0.),3
X2.326 Y29.23 Z-8.651 B5. C=DC(0.)
X2.326 Y28.403 Z-8.377 B5. C=DC(0.)
X2.326 Y27.163 Z-7.987 B5. C=DC(0.)
X2.326 Y26.749 Z-7.862 B5. C=DC(0.)
X2.326 Y25.509 Z-7.499 B5. C=DC(0.)
X2.326 Y25.096 Z-7.384 B5. C=DC(0.)
X2.326 Y23.855 Z-7.047 B5. C=DC(0.)
X2.326 Y23.442 Z-6.941 B5. C=DC(0.)
X2.326 Y22.201 Z-6.629 B5. C=DC(0.)
X2.326 Y20.926 Z-6.333 B5. C=DC(0.)
X2.326 Y20.501 Z-6.235 B5. C=DC(0.)
X2.326 Y19.226 Z-5.965 B5. C=DC(0.)
X2.326 Y18.801 Z-5.876 B5. C=DC(0.)
X2.326 Y17.526 Z-5.631 B5. C=DC(0.)
X2.326 Y17.102 Z-5.551 B5. C=DC(0.)
X2.326 Y15.827 Z-5.33 B5. C=DC(0.)
X2.326 Y15.402 Z-5.258 B5. C=DC(0.)
X2.326 Y14.127 Z-5.062 B5. C=DC(0.)
X2.326 Y13.694 Z-4.997 B5. C=DC(0.)
X2.326 Y13.259 Z-4.937 B5. C=DC(0.),8
X2.326 Y-.077 Z-.936 B5. C=DC(0.)
X2.326 Y-.499 Z-.811 B5. C=DC(0.)
X2.326 Y-.936 Z-.745 B5. C=DC(0.)
X2.326 Y-1.368 Z-.76 B5. C=DC(0.)
X2.326 Y-1.785 Z-.845 B5. C=DC(0.)
X2.326 Y-2.182 Z-.991 B5. C=DC(0.)
X2.326 Y-2.557 Z-1.194 B5. C=DC(0.)
X2.326 Y-7.798 Z-4.339 B5. C=DC(0.),8
X2.326 Y-7.799 Z-4.339 B5. C=DC(0.),3
X2.326 Y-8.543 Z-4.401 B5. C=DC(0.)
X2.326 Y-10.28 Z-4.569 B5. C=DC(0.)
X2.326 Y-12.018 Z-4.771 B5. C=DC(0.)
X2.326 Y-13.74 Z-5.004 B5. C=DC(0.)
X2.326 Y-15.462 Z-5.268 B5. C=DC(0.)
X2.326 Y-15.893 Z-5.342 B5. C=DC(0.)
X2.326 Y-18.893 Z-5.894 B5. C=DC(0.),6
X2.326 Y-20.175 Z-6.165 B5. C=DC(0.)
X2.326 Y-20.599 Z-6.257 B5. C=DC(0.)
X2.326 Y-21.871 Z-6.552 B5. C=DC(0.)
X2.326 Y-22.296 Z-6.653 B5. C=DC(0.)
X2.326 Y-23.568 Z-6.973 B5. C=DC(0.)
X2.326 Y-23.989 Z-7.083 B5. C=DC(0.)
X2.326 Y-25.252 Z-7.427 B5. C=DC(0.)
X2.326 Y-25.671 Z-7.546 B5. C=DC(0.)
X2.326 Y-26.926 Z-7.914 B5. C=DC(0.)
X2.326 Y-27.341 Z-8.043 B5. C=DC(0.)
X2.326 Y-28.173 Z-8.304 B5. C=DC(0.)
X2.326 Y-28.586 Z-8.435 B5. C=DC(0.)
X2.326 Y-29.825 Z-8.851 B5. C=DC(0.)
X2.326 Y-30.237 Z-8.992 B5. C=DC(0.),8
X2.326 Y-37.5 Z-8.992 B5. C=DC(0.),7
X3.326 Y-37.5 Z-8.992 B5. C=DC(0.),7
X3.326 Y-30.137 Z-8.992 B5. C=DC(0.),8
X3.326 Y-30.135 Z-8.992 B5. C=DC(0.),3
X3.326 Y-29.722 Z-8.851 B5. C=DC(0.)
X3.326 Y-28.485 Z-8.436 B5. C=DC(0.)
X3.326 Y-28.073 Z-8.306 B5. C=DC(0.)
X3.326 Y-27.243 Z-8.046 B5. C=DC(0.)
X3.326 Y-26.828 Z-7.918 B5. C=DC(0.)
X3.326 Y-25.575 Z-7.553 B5. C=DC(0.)
X3.326 Y-25.157 Z-7.433 B5. C=DC(0.)
X3.326 Y-23.895 Z-7.092 B5. C=DC(0.)
X3.326 Y-23.475 Z-6.982 B5. C=DC(0.)
X3.326 Y-22.205 Z-6.663 B5. C=DC(0.)
X3.326 Y-21.781 Z-6.562 B5. C=DC(0.)
X3.326 Y-20.511 Z-6.27 B5. C=DC(0.)
X3.326 Y-20.087 Z-6.179 B5. C=DC(0.)
X3.326 Y-18.808 Z-5.91 B5. C=DC(0.)
X3.326 Y-18.381 Z-5.827 B5. C=DC(0.)
X3.326 Y-17.101 Z-5.582 B5. C=DC(0.)
X3.326 Y-16.675 Z-5.508 B5. C=DC(0.)
X3.326 Y-15.385 Z-5.288 B5. C=DC(0.)
X3.326 Y-14.955 Z-5.22 B5. C=DC(0.)
X3.326 Y-13.665 Z-5.025 B5. C=DC(0.)
X3.326 Y-13.235 Z-4.966 B5. C=DC(0.)
X3.326 Y-11.934 Z-4.793 B5. C=DC(0.)
X3.326 Y-11.501 Z-4.741 B5. C=DC(0.)
X3.326 Y-10.2 Z-4.594 B5. C=DC(0.)
X3.326 Y-9.766 Z-4.549 B5. C=DC(0.)
X3.326 Y-9.332 Z-4.508 B5. C=DC(0.)
X3.326 Y-8.465 Z-4.427 B5. C=DC(0.)
X3.326 Y-7.857 Z-4.374 B5. C=DC(0.),8
X3.326 Y-7.855 Z-4.373 B5. C=DC(0.),3
X3.326 Y-3.357 Z-1.674 B5. C=DC(0.)
X3.326 Y-2.982 Z-1.451 B5. C=DC(0.)
X3.326 Y-2.604 Z-1.272 B5. C=DC(0.)
X3.326 Y-2.199 Z-1.15 B5. C=DC(0.)
X3.326 Y-1.772 Z-1.092 B5. C=DC(0.)
X3.326 Y-1.336 Z-1.108 B5. C=DC(0.)
X3.326 Y-.904 Z-1.207 B5. C=DC(0.)
X3.326 Y10.494 Z-4.627 B5. C=DC(0.),8
X3.326 Y10.495 Z-4.627 B5. C=DC(0.),3
X3.326 Y11.353 Z-4.724 B5. C=DC(0.)
X3.326 Y11.781 Z-4.773 B5. C=DC(0.)
X3.326 Y13.496 Z-5. B5. C=DC(0.)
X3.326 Y13.925 Z-5.064 B5. C=DC(0.)
X3.326 Y15.21 Z-5.259 B5. C=DC(0.)
X3.326 Y15.639 Z-5.331 B5. C=DC(0.)
X3.326 Y16.925 Z-5.551 B5. C=DC(0.)
X3.326 Y17.354 Z-5.63 B5. C=DC(0.)
X3.326 Y18.64 Z-5.876 B5. C=DC(0.)
X3.326 Y19.068 Z-5.965 B5. C=DC(0.)
X3.326 Y20.325 Z-6.229 B5. C=DC(0.)
X3.326 Y20.744 Z-6.324 B5. C=DC(0.)
X3.326 Y22.001 Z-6.613 B5. C=DC(0.)
X3.326 Y22.419 Z-6.717 B5. C=DC(0.)
X3.326 Y23.676 Z-7.032 B5. C=DC(0.)
X3.326 Y24.933 Z-7.373 B5. C=DC(0.)
X3.326 Y25.352 Z-7.488 B5. C=DC(0.)
X3.326 Y26.609 Z-7.854 B5. C=DC(0.)
X3.326 Y27.027 Z-7.979 B5. C=DC(0.)
X3.326 Y28.236 Z-8.357 B5. C=DC(0.)
X3.326 Y28.639 Z-8.488 B5. C=DC(0.)
X3.326 Y29.847 Z-8.893 B5. C=DC(0.)
X3.326 Y30.135 Z-8.992 B5. C=DC(0.),8
X3.326 Y30.136 Z-8.992 B5. C=DC(0.),3
X3.326 Y37.5 Z-8.992 B5. C=DC(0.),7
X4.326 Y37.5 Z-8.992 B5. C=DC(0.),7
X4.326 Y30.002 Z-8.992 B5. C=DC(0.),8
X4.326 Y29.692 Z-8.887 B5. C=DC(0.)
X4.326 Y28.459 Z-8.475 B5. C=DC(0.)
X4.326 Y28.048 Z-8.343 B5. C=DC(0.)
X4.326 Y26.815 Z-7.959 B5. C=DC(0.)
X4.326 Y26.404 Z-7.838 B5. C=DC(0.)
X4.326 Y25.171 Z-7.481 B5. C=DC(0.)
X4.326 Y24.76 Z-7.37 B5. C=DC(0.)
X4.326 Y23.527 Z-7.038 B5. C=DC(0.)
X4.326 Y22.257 Z-6.721 B5. C=DC(0.)
X4.326 Y21.834 Z-6.617 B5. C=DC(0.)
X4.326 Y20.564 Z-6.327 B5. C=DC(0.)
X4.326 Y20.14 Z-6.232 B5. C=DC(0.)
X4.326 Y18.87 Z-5.967 B5. C=DC(0.)
X4.326 Y18.447 Z-5.88 B5. C=DC(0.)
X4.326 Y16.753 Z-5.562 B5. C=DC(0.)
X4.326 Y15.051 Z-5.276 B5. C=DC(0.)
X4.326 Y13.324 Z-5.018 B5. C=DC(0.)
X4.326 Y12.892 Z-4.961 B5. C=DC(0.)
X4.326 Y11.597 Z-4.794 B5. C=DC(0.)
X4.326 Y11.166 Z-4.743 B5. C=DC(0.)
X4.326 Y9.87 Z-4.601 B5. C=DC(0.)
X4.326 Y9.439 Z-4.557 B5. C=DC(0.)
X4.326 Y9.007 Z-4.518 B5. C=DC(0.)
X4.326 Y8.144 Z-4.441 B5. C=DC(0.),8
X4.326 Y8.142 Z-4.441 B5. C=DC(0.),3
X4.326 Y-1.381 Z-1.584 B5. C=DC(0.)
X4.326 Y-1.808 Z-1.471 B5. C=DC(0.)
X4.326 Y-2.245 Z-1.435 B5. C=DC(0.)
X4.326 Y-2.672 Z-1.475 B5. C=DC(0.)
X4.326 Y-3.082 Z-1.582 B5. C=DC(0.)
X4.326 Y-3.468 Z-1.748 B5. C=DC(0.)
X4.326 Y-3.841 Z-1.965 B5. C=DC(0.)
X4.326 Y-7.938 Z-4.423 B5. C=DC(0.),8
X4.326 Y-7.939 Z-4.423 B5. C=DC(0.),3
X4.326 Y-9.175 Z-4.533 B5. C=DC(0.)
X4.326 Y-9.607 Z-4.573 B5. C=DC(0.)
X4.326 Y-11.336 Z-4.762 B5. C=DC(0.)
X4.326 Y-11.768 Z-4.816 B5. C=DC(0.)
X4.326 Y-13.065 Z-4.983 B5. C=DC(0.)
X4.326 Y-13.497 Z-5.044 B5. C=DC(0.)
X4.326 Y-14.793 Z-5.237 B5. C=DC(0.)
X4.326 Y-15.222 Z-5.304 B5. C=DC(0.)
X4.326 Y-16.508 Z-5.521 B5. C=DC(0.)
X4.326 Y-16.937 Z-5.596 B5. C=DC(0.)
X4.326 Y-18.222 Z-5.838 B5. C=DC(0.)
X4.326 Y-18.648 Z-5.921 B5. C=DC(0.)
X4.326 Y-19.924 Z-6.187 B5. C=DC(0.)
X4.326 Y-20.349 Z-6.278 B5. C=DC(0.)
X4.326 Y-21.625 Z-6.569 B5. C=DC(0.)
X4.326 Y-22.048 Z-6.669 B5. C=DC(0.)
X4.326 Y-23.315 Z-6.984 B5. C=DC(0.)
X4.326 Y-23.737 Z-7.094 B5. C=DC(0.)
X4.326 Y-25.004 Z-7.435 B5. C=DC(0.)
X4.326 Y-25.423 Z-7.554 B5. C=DC(0.)
X4.326 Y-26.682 Z-7.919 B5. C=DC(0.)
X4.326 Y-27.515 Z-8.177 B5. C=DC(0.)
X4.326 Y-28.346 Z-8.437 B5. C=DC(0.)
X4.326 Y-29.589 Z-8.852 B5. C=DC(0.)
X4.326 Y-30.002 Z-8.992 B5. C=DC(0.),8
X4.326 Y-37.5 Z-8.992 B5. C=DC(0.),7
X5.326 Y-37.5 Z-8.992 B5. C=DC(0.),7
X5.326 Y-29.835 Z-8.992 B5. C=DC(0.),8
X5.326 Y-29.833 Z-8.992 B5. C=DC(0.),3
X5.326 Y-29.42 Z-8.853 B5. C=DC(0.)
X5.326 Y-28.181 Z-8.442 B5. C=DC(0.)
X5.326 Y-27.352 Z-8.183 B5. C=DC(0.)
X5.326 Y-26.521 Z-7.926 B5. C=DC(0.)
X5.326 Y-25.266 Z-7.566 B5. C=DC(0.)
X5.326 Y-24.847 Z-7.447 B5. C=DC(0.)
X5.326 Y-23.583 Z-7.109 B5. C=DC(0.)
X5.326 Y-23.162 Z-6.999 B5. C=DC(0.)
X5.326 Y-22.738 Z-6.895 B5. C=DC(0.)
X5.326 Y-21.889 Z-6.686 B5. C=DC(0.)
X5.326 Y-21.465 Z-6.586 B5. C=DC(0.)
X5.326 Y-20.193 Z-6.299 B5. C=DC(0.)
X5.326 Y-19.768 Z-6.206 B5. C=DC(0.)
X5.326 Y-19.341 Z-6.118 B5. C=DC(0.)
X5.326 Y-18.486 Z-5.943 B5. C=DC(0.)
X5.326 Y-18.059 Z-5.859 B5. C=DC(0.)
X5.326 Y-16.777 Z-5.621 B5. C=DC(0.)
X5.326 Y-16.349 Z-5.545 B5. C=DC(0.)
X5.326 Y-15.057 Z-5.331 B5. C=DC(0.)
X5.326 Y-14.626 Z-5.262 B5. C=DC(0.)
X5.326 Y-13.334 Z-5.074 B5. C=DC(0.)
X5.326 Y-12.903 Z-5.012 B5. C=DC(0.)
X5.326 Y-12.041 Z-4.903 B5. C=DC(0.)
X5.326 Y-11.18 Z-4.796 B5. C=DC(0.)
X5.326 Y-10.749 Z-4.747 B5. C=DC(0.)
X5.326 Y-9.88 Z-4.656 B5. C=DC(0.)
X5.326 Y-9.01 Z-4.567 B5. C=DC(0.)
X5.326 Y-8.041 Z-4.484 B5. C=DC(0.),8
X5.326 Y-8.039 Z-4.483 B5. C=DC(0.),3
X5.326 Y-4.306 Z-2.244 B5. C=DC(0.)
X5.326 Y-3.933 Z-2.039 B5. C=DC(0.)
X5.326 Y-3.538 Z-1.89 B5. C=DC(0.)
X5.326 Y-3.12 Z-1.802 B5. C=DC(0.)
X5.326 Y-2.688 Z-1.784 B5. C=DC(0.)
X5.326 Y-2.251 Z-1.846 B5. C=DC(0.)
X5.326 Y-1.828 Z-1.97 B5. C=DC(0.)
X5.326 Y6.072 Z-4.34 B5. C=DC(0.),8
X5.326 Y6.947 Z-4.397 B5. C=DC(0.)
X5.326 Y7.808 Z-4.466 B5. C=DC(0.)
X5.326 Y8.238 Z-4.502 B5. C=DC(0.)
X5.326 Y9.099 Z-4.576 B5. C=DC(0.)
X5.326 Y9.959 Z-4.664 B5. C=DC(0.)
X5.326 Y10.82 Z-4.755 B5. C=DC(0.)
X5.326 Y11.25 Z-4.805 B5. C=DC(0.)
X5.326 Y12.111 Z-4.912 B5. C=DC(0.)
X5.326 Y12.541 Z-4.966 B5. C=DC(0.)
X5.326 Y12.971 Z-5.022 B5. C=DC(0.)
X5.326 Y13.402 Z-5.084 B5. C=DC(0.)
X5.326 Y14.693 Z-5.272 B5. C=DC(0.)
X5.326 Y15.123 Z-5.342 B5. C=DC(0.)
X5.326 Y16.414 Z-5.556 B5. C=DC(0.)
X5.326 Y16.844 Z-5.634 B5. C=DC(0.)
X5.326 Y18.117 Z-5.87 B5. C=DC(0.)
X5.326 Y18.539 Z-5.954 B5. C=DC(0.)
X5.326 Y19.382 Z-6.126 B5. C=DC(0.)
X5.326 Y19.803 Z-6.213 B5. C=DC(0.)
X5.326 Y20.224 Z-6.306 B5. C=DC(0.)
X5.326 Y21.488 Z-6.591 B5. C=DC(0.)
X5.326 Y21.91 Z-6.691 B5. C=DC(0.)
X5.326 Y23.174 Z-7.002 B5. C=DC(0.)
X5.326 Y23.595 Z-7.112 B5. C=DC(0.)
X5.326 Y24.859 Z-7.45 B5. C=DC(0.)
X5.326 Y25.281 Z-7.57 B5. C=DC(0.)
X5.326 Y26.503 Z-7.921 B5. C=DC(0.)
X5.326 Y26.91 Z-8.046 B5. C=DC(0.)
X5.326 Y28.132 Z-8.425 B5. C=DC(0.)
X5.326 Y29.354 Z-8.831 B5. C=DC(0.)
X5.326 Y29.834 Z-8.992 B5. C=DC(0.),8
X5.326 Y37.5 Z-8.992 B5. C=DC(0.),7
X6.326 Y37.5 Z-8.992 B5. C=DC(0.),7
X6.326 Y29.632 Z-8.992 B5. C=DC(0.),8
X6.326 Y29.259 Z-8.867 B5. C=DC(0.)
X6.326 Y28.023 Z-8.46 B5. C=DC(0.)
X6.326 Y27.611 Z-8.33 B5. C=DC(0.)
X6.326 Y26.787 Z-8.077 B5. C=DC(0.)
X6.326 Y26.374 Z-7.951 B5. C=DC(0.)
X6.326 Y25.962 Z-7.832 B5. C=DC(0.)
X6.326 Y24.726 Z-7.48 B5. C=DC(0.)
X6.326 Y23.078 Z-7.043 B5. C=DC(0.)
X6.326 Y22.654 Z-6.939 B5. C=DC(0.)
X6.326 Y21.381 Z-6.63 B5. C=DC(0.)
X6.326 Y20.109 Z-6.346 B5. C=DC(0.)
X6.326 Y19.685 Z-6.252 B5. C=DC(0.)
X6.326 Y17.988 Z-5.909 B5. C=DC(0.)
X6.326 Y17.564 Z-5.83 B5. C=DC(0.)
X6.326 Y16.291 Z-5.599 B5. C=DC(0.)
X6.326 Y15.867 Z-5.527 B5. C=DC(0.)
X6.326 Y14.594 Z-5.322 B5. C=DC(0.)
X6.326 Y14.162 Z-5.255 B5. C=DC(0.)
X6.326 Y12.866 Z-5.073 B5. C=DC(0.)
X6.326 Y12.434 Z-5.013 B5. C=DC(0.)
X6.326 Y12.001 Z-4.96 B5. C=DC(0.)
X6.326 Y10.705 Z-4.805 B5. C=DC(0.)
X6.326 Y10.273 Z-4.757 B5. C=DC(0.)
X6.326 Y9.841 Z-4.714 B5. C=DC(0.)
X6.326 Y8.544 Z-4.588 B5. C=DC(0.)
X6.326 Y8.112 Z-4.551 B5. C=DC(0.)
X6.326 Y7.247 Z-4.484 B5. C=DC(0.)
X6.326 Y5.951 Z-4.392 B5. C=DC(0.)
X6.326 Y5.087 Z-4.346 B5. C=DC(0.)
X6.326 Y4.222 Z-4.304 B5. C=DC(0.),8
X6.326 Y4.221 Z-4.304 B5. C=DC(0.),3
X6.326 Y-2.722 Z-2.221 B5. C=DC(0.)
X6.326 Y-3.155 Z-2.138 B5. C=DC(0.)
X6.326 Y-3.587 Z-2.137 B5. C=DC(0.)
X6.326 Y-4.011 Z-2.208 B5. C=DC(0.)
X6.326 Y-4.414 Z-2.342 B5. C=DC(0.)
X6.326 Y-4.788 Z-2.533 B5. C=DC(0.)
X6.326 Y-8.156 Z-4.554 B5. C=DC(0.),8
X6.326 Y-8.36 Z-4.571 B5. C=DC(0.),3
X6.326 Y-9.226 Z-4.653 B5. C=DC(0.)
X6.326 Y-10.091 Z-4.739 B5. C=DC(0.)
X6.326 Y-10.524 Z-4.784 B5. C=DC(0.)
X6.326 Y-11.822 Z-4.938 B5. C=DC(0.)
X6.326 Y-12.254 Z-4.991 B5. C=DC(0.)
X6.326 Y-12.687 Z-5.048 B5. C=DC(0.)
X6.326 Y-13.985 Z-5.23 B5. C=DC(0.)
X6.326 Y-14.414 Z-5.293 B5. C=DC(0.)
X6.326 Y-15.701 Z-5.5 B5. C=DC(0.)
X6.326 Y-16.13 Z-5.57 B5. C=DC(0.)
X6.326 Y-17.846 Z-5.881 B5. C=DC(0.)
X6.326 Y-18.272 Z-5.966 B5. C=DC(0.)
X6.326 Y-19.549 Z-6.224 B5. C=DC(0.)
X6.326 Y-19.975 Z-6.316 B5. C=DC(0.)
X6.326 Y-21.252 Z-6.601 B5. C=DC(0.)
X6.326 Y-21.675 Z-6.702 B5. C=DC(0.)
X6.326 Y-22.943 Z-7.009 B5. C=DC(0.)
X6.326 Y-23.366 Z-7.119 B5. C=DC(0.)
X6.326 Y-24.634 Z-7.455 B5. C=DC(0.)
X6.326 Y-25.053 Z-7.573 B5. C=DC(0.)
X6.326 Y-26.31 Z-7.931 B5. C=DC(0.)
X6.326 Y-26.727 Z-8.058 B5. C=DC(0.)
X6.326 Y-27.561 Z-8.315 B5. C=DC(0.)
X6.326 Y-27.976 Z-8.445 B5. C=DC(0.)
X6.326 Y-29.219 Z-8.854 B5. C=DC(0.)
X6.326 Y-29.632 Z-8.992 B5. C=DC(0.),8
X6.326 Y-37.5 Z-8.992 B5. C=DC(0.),7
X7.326 Y-37.5 Z-8.992 B5. C=DC(0.),7
X7.326 Y-29.396 Z-8.992 B5. C=DC(0.),8
X7.326 Y-28.981 Z-8.855 B5. C=DC(0.)
X7.326 Y-27.735 Z-8.448 B5. C=DC(0.)
X7.326 Y-27.319 Z-8.319 B5. C=DC(0.)
X7.326 Y-26.483 Z-8.064 B5. C=DC(0.)
X7.326 Y-26.064 Z-7.938 B5. C=DC(0.)
X7.326 Y-24.383 Z-7.464 B5. C=DC(0.)
X7.326 Y-23.12 Z-7.133 B5. C=DC(0.)
X7.326 Y-22.699 Z-7.025 B5. C=DC(0.)
X7.326 Y-21.428 Z-6.72 B5. C=DC(0.)
X7.326 Y-21.004 Z-6.619 B5. C=DC(0.)
X7.326 Y-17.587 Z-5.908 B5. C=DC(0.),6
X7.326 Y-17.16 Z-5.83 B5. C=DC(0.)
X7.326 Y-16.3 Z-5.677 B5. C=DC(0.)
X7.326 Y-15.869 Z-5.602 B5. C=DC(0.)
X7.326 Y-15.439 Z-5.53 B5. C=DC(0.)
X7.326 Y-15.008 Z-5.462 B5. C=DC(0.)
X7.326 Y-14.148 Z-5.329 B5. C=DC(0.)
X7.326 Y-13.717 Z-5.263 B5. C=DC(0.)
X7.326 Y-12.426 Z-5.088 B5. C=DC(0.)
X7.326 Y-11.996 Z-5.031 B5. C=DC(0.)
X7.326 Y-11.565 Z-4.978 B5. C=DC(0.)
X7.326 Y-10.697 Z-4.879 B5. C=DC(0.)
X7.326 Y-9.828 Z-4.783 B5. C=DC(0.)
X7.326 Y-8.96 Z-4.701 B5. C=DC(0.)
X7.326 Y-8.304 Z-4.642 B5. C=DC(0.),8
X7.326 Y-8.302 Z-4.641 B5. C=DC(0.),3
X7.326 Y-5.323 Z-2.854 B5. C=DC(0.)
X7.326 Y-4.947 Z-2.671 B5. C=DC(0.)
X7.326 Y-4.543 Z-2.543 B5. C=DC(0.)
X7.326 Y-4.118 Z-2.479 B5. C=DC(0.)
X7.326 Y-3.685 Z-2.489 B5. C=DC(0.)
X7.326 Y-3.251 Z-2.582 B5. C=DC(0.)
X7.326 Y2.533 Z-4.317 B5. C=DC(0.),8
X7.326 Y2.535 Z-4.317 B5. C=DC(0.),3
X7.326 Y3.846 Z-4.36 B5. C=DC(0.)
X7.326 Y4.72 Z-4.397 B5. C=DC(0.)
X7.326 Y6.014 Z-4.472 B5. C=DC(0.)
X7.326 Y7.308 Z-4.559 B5. C=DC(0.)
X7.326 Y7.739 Z-4.593 B5. C=DC(0.)
X7.326 Y8.17 Z-4.63 B5. C=DC(0.)
X7.326 Y9.033 Z-4.708 B5. C=DC(0.)
X7.326 Y9.896 Z-4.79 B5. C=DC(0.)
X7.326 Y11.621 Z-4.985 B5. C=DC(0.)
X7.326 Y12.484 Z-5.096 B5. C=DC(0.)
X7.326 Y13.778 Z-5.272 B5. C=DC(0.)
X7.326 Y17.203 Z-5.838 B5. C=DC(0.),6
X7.326 Y17.626 Z-5.915 B5. C=DC(0.)
X7.326 Y19.317 Z-6.251 B5. C=DC(0.)
X7.326 Y21.008 Z-6.62 B5. C=DC(0.)
X7.326 Y22.7 Z-7.025 B5. C=DC(0.)
X7.326 Y23.123 Z-7.134 B5. C=DC(0.)
X7.326 Y24.391 Z-7.466 B5. C=DC(0.)
X7.326 Y26.042 Z-7.931 B5. C=DC(0.)
X7.326 Y26.451 Z-8.054 B5. C=DC(0.)
X7.326 Y27.679 Z-8.43 B5. C=DC(0.)
X7.326 Y28.906 Z-8.83 B5. C=DC(0.)
X7.326 Y29.396 Z-8.992 B5. C=DC(0.),8
X7.326 Y37.5 Z-8.992 B5. C=DC(0.),7
X8.326 Y37.5 Z-8.992 B5. C=DC(0.),7
X8.326 Y29.124 Z-8.992 B5. C=DC(0.),8
X8.326 Y28.694 Z-8.851 B5. C=DC(0.)
X8.326 Y27.493 Z-8.464 B5. C=DC(0.)
X8.326 Y27.076 Z-8.335 B5. C=DC(0.)
X8.326 Y26.242 Z-8.083 B5. C=DC(0.)
X8.326 Y25.825 Z-7.959 B5. C=DC(0.)
X8.326 Y25.408 Z-7.841 B5. C=DC(0.)
X8.326 Y24.157 Z-7.493 B5. C=DC(0.)
X8.326 Y22.907 Z-7.168 B5. C=DC(0.)
X8.326 Y22.49 Z-7.062 B5. C=DC(0.)
X8.326 Y22.073 Z-6.961 B5. C=DC(0.)
X8.326 Y20.822 Z-6.666 B5. C=DC(0.)
X8.326 Y20.394 Z-6.57 B5. C=DC(0.)
X8.326 Y19.111 Z-6.296 B5. C=DC(0.)
X8.326 Y18.684 Z-6.208 B5. C=DC(0.)
X8.326 Y17.401 Z-5.96 B5. C=DC(0.)
X8.326 Y16.973 Z-5.879 B5. C=DC(0.)
X8.326 Y15.262 Z-5.585 B5. C=DC(0.)
X8.326 Y14.835 Z-5.519 B5. C=DC(0.)
X8.326 Y13.979 Z-5.389 B5. C=DC(0.)
X8.326 Y13.124 Z-5.264 B5. C=DC(0.)
X8.326 Y11.841 Z-5.098 B5. C=DC(0.)
X8.326 Y10.979 Z-4.992 B5. C=DC(0.)
X8.326 Y10.109 Z-4.899 B5. C=DC(0.)
X8.326 Y9.674 Z-4.854 B5. C=DC(0.)
X8.326 Y8.805 Z-4.767 B5. C=DC(0.)
X8.326 Y7.935 Z-4.694 B5. C=DC(0.)
X8.326 Y7.501 Z-4.659 B5. C=DC(0.)
X8.326 Y6.631 Z-4.594 B5. C=DC(0.)
X8.326 Y6.196 Z-4.563 B5. C=DC(0.)
X8.326 Y4.892 Z-4.492 B5. C=DC(0.)
X8.326 Y3.588 Z-4.433 B5. C=DC(0.)
X8.326 Y2.718 Z-4.403 B5. C=DC(0.)
X8.326 Y1.849 Z-4.383 B5. C=DC(0.)
X8.326 Y.977 Z-4.37 B5. C=DC(0.),8
X8.326 Y-3.768 Z-2.946 B5. C=DC(0.)
X8.326 Y-4.197 Z-2.843 B5. C=DC(0.)
X8.326 Y-4.632 Z-2.822 B5. C=DC(0.)
X8.326 Y-5.057 Z-2.876 B5. C=DC(0.)
X8.326 Y-5.467 Z-2.995 B5. C=DC(0.)
X8.326 Y-5.847 Z-3.17 B5. C=DC(0.)
X8.326 Y-6.22 Z-3.392 B5. C=DC(0.)
X8.326 Y-8.462 Z-4.738 B5. C=DC(0.,8)
X8.326 Y-9.14 Z-4.799 B5. C=DC(0.)
X8.326 Y-10.003 Z-4.888 B5. C=DC(0.)
X8.326 Y-10.867 Z-4.98 B5. C=DC(0.)
X8.326 Y-11.299 Z-5.03 B5. C=DC(0.)
X8.326 Y-12.162 Z-5.139 B5. C=DC(0.)
X8.326 Y-13.026 Z-5.251 B5. C=DC(0.)
X8.326 Y-13.458 Z-5.312 B5. C=DC(0.)
X8.326 Y-13.89 Z-5.376 B5. C=DC(0.)
X8.326 Y-15.182 Z-5.572 B5. C=DC(0.)
X8.326 Y-16.895 Z-5.865 B5. C=DC(0.)
X8.326 Y-17.323 Z-5.945 B5. C=DC(0.)
X8.326 Y-18.608 Z-6.193 B5. C=DC(0.)
X8.326 Y-19.033 Z-6.279 B5. C=DC(0.)
X8.326 Y-20.309 Z-6.552 B5. C=DC(0.)
X8.326 Y-20.734 Z-6.645 B5. C=DC(0.)
X8.326 Y-22.009 Z-6.946 B5. C=DC(0.)
X8.326 Y-22.431 Z-7.047 B5. C=DC(0.)
X8.326 Y-23.275 Z-7.263 B5. C=DC(0.)
X8.326 Y-24.116 Z-7.481 B5. C=DC(0.)
X8.326 Y-25.374 Z-7.831 B5. C=DC(0.)
X8.326 Y-25.793 Z-7.949 B5. C=DC(0.)
X8.326 Y-26.209 Z-8.073 B5. C=DC(0.)
X8.326 Y-27.042 Z-8.325 B5. C=DC(0.)
X8.326 Y-27.458 Z-8.453 B5. C=DC(0.)
X8.326 Y-28.708 Z-8.856 B5. C=DC(0.)
X8.326 Y-29.123 Z-8.992 B5. C=DC(0.),8
X8.326 Y-37.5 Z-8.992 B5. C=DC(0.),7
X9.326 Y-37.5 Z-8.992 B5. C=DC(0.),7
X9.326 Y-28.815 Z-8.992 B5. C=DC(0.),8
X9.326 Y-28.813 Z-8.992 B5. C=DC(0.)
X9.326 Y-28.399 Z-8.857 B5. C=DC(0.)
X9.326 Y-27.155 Z-8.461 B5. C=DC(0.)
X9.326 Y-26.741 Z-8.335 B5. C=DC(0.)
X9.326 Y-25.907 Z-8.086 B5. C=DC(0.)
X9.326 Y-25.489 Z-7.963 B5. C=DC(0.)
X9.326 Y-25.072 Z-7.846 B5. C=DC(0.)
X9.326 Y-23.812 Z-7.501 B5. C=DC(0.)
X9.326 Y-23.392 Z-7.391 B5. C=DC(0.)
X9.326 Y-22.97 Z-7.284 B5. C=DC(0.)
X9.326 Y-22.124 Z-7.072 B5. C=DC(0.)
X9.326 Y-21.701 Z-6.97 B5. C=DC(0.)
X9.326 Y-20.849 Z-6.772 B5. C=DC(0.)
X9.326 Y-20.423 Z-6.675 B5. C=DC(0.)
X9.326 Y-19.997 Z-6.581 B5. C=DC(0.)
X9.326 Y-18.72 Z-6.313 B5. C=DC(0.)
X9.326 Y-18.294 Z-6.227 B5. C=DC(0.)
X9.326 Y-17.006 Z-5.984 B5. C=DC(0.)
X9.326 Y-16.577 Z-5.905 B5. C=DC(0.)
X9.326 Y-15.719 Z-5.759 B5. C=DC(0.)
X9.326 Y-14.86 Z-5.618 B5. C=DC(0.)
X9.326 Y-14.431 Z-5.55 B5. C=DC(0.)
X9.326 Y-13.566 Z-5.425 B5. C=DC(0.)
X9.326 Y-12.7 Z-5.302 B5. C=DC(0.)
X9.326 Y-12.267 Z-5.245 B5. C=DC(0.)
X9.326 Y-11.402 Z-5.139 B5. C=DC(0.)
X9.326 Y-10.536 Z-5.037 B5. C=DC(0.)
X9.326 Y-10.104 Z-4.99 B5. C=DC(0.)
X9.326 Y-9.238 Z-4.905 B5. C=DC(0.)
X9.326 Y-8.65 Z-4.85 B5. C=DC(0.),8
X9.326 Y-8.648 Z-4.849 B5. C=DC(0.),3
X9.326 Y-6.772 Z-3.723 B5. C=DC(0.)
X9.326 Y-6.397 Z-3.502 B5. C=DC(0.)
X9.326 Y-6.012 Z-3.329 B5. C=DC(0.)
X9.326 Y-5.601 Z-3.215 B5. C=DC(0.)
X9.326 Y-5.175 Z-3.168 B5. C=DC(0.)
X9.326 Y-4.739 Z-3.195 B5. C=DC(0.)
X9.326 Y-4.308 Z-3.304 B5. C=DC(0.)
X9.326 Y-.449 Z-4.462 B5. C=DC(0.)
X9.326 Y.425 Z-4.462 B5. C=DC(0.)
X9.326 Y1.733 Z-4.477 B5. C=DC(0.)
X9.326 Y2.606 Z-4.496 B5. C=DC(0.)
X9.326 Y3.914 Z-4.539 B5. C=DC(0.)
X9.326 Y4.787 Z-4.576 B5. C=DC(0.)
X9.326 Y5.659 Z-4.626 B5. C=DC(0.)
X9.326 Y6.531 Z-4.682 B5. C=DC(0.)
X9.326 Y7.84 Z-4.777 B5. C=DC(0.)
X9.326 Y8.27 Z-4.815 B5. C=DC(0.)
X9.326 Y9.13 Z-4.895 B5. C=DC(0.)
X9.326 Y10.419 Z-5.024 B5. C=DC(0.)
X9.326 Y11.279 Z-5.125 B5. C=DC(0.)
X9.326 Y12.139 Z-5.229 B5. C=DC(0.)
X9.326 Y11.279 Z-5.225 B5. C=DC(0.),2
X9.326 Y12.568 Z-5.283 B5. C=DC(0.)
X9.326 Y13.428 Z-5.405 B5. C=DC(0.)
X9.326 Y14.288 Z-5.529 B5. C=DC(0.)
X9.326 Y14.718 Z-5.595 B5. C=DC(0.)
X9.326 Y15.577 Z-5.736 B5. C=DC(0.)
X9.326 Y16.437 Z-5.88 B5. C=DC(0.)
X9.326 Y17.297 Z-6.038 B5. C=DC(0.)
X9.326 Y18.156 Z-6.201 B5. C=DC(0.)
X9.326 Y18.586 Z-6.286 B5. C=DC(0.)
X9.326 Y19.007 Z-6.373 B5. C=DC(0.)
X9.326 Y19.847 Z-6.55 B5. C=DC(0.)
X9.326 Y20.268 Z-6.639 B5. C=DC(0.)
X9.326 Y20.688 Z-6.735 B5. C=DC(0.)
X9.326 Y21.949 Z-7.028 B5. C=DC(0.)
X9.326 Y22.789 Z-7.239 B5. C=DC(0.)
X9.326 Y23.63 Z-7.452 B5. C=DC(0.)
X9.326 Y24.05 Z-7.566 B5. C=DC(0.)
X9.326 Y25.311 Z-7.912 B5. C=DC(0.)
X9.326 Y25.732 Z-8.034 B5. C=DC(0.)
X9.326 Y26.949 Z-8.397 B5. C=DC(0.)
X9.326 Y27.355 Z-8.525 B5. C=DC(0.)
X9.326 Y28.572 Z-8.913 B5. C=DC(0.)
X9.326 Y28.815 Z-8.992 B5. C=DC(0.),8
X9.326 Y37.5 Z-8.992 B5. C=DC(0.),7
X10.326 Y37.5 Z-8.992 B5. C=DC(0.),7
X10.326 Y28.468 Z-8.992 B5. C=DC(0.),8
X10.326 Y28.466 Z-8.992 B5. C=DC(0.)
X10.326 Y28.132 Z-8.885 B5. C=DC(0.)
X10.326 Y26.91 Z-8.501 B5. C=DC(0.)
X10.326 Y26.503 Z-8.376 B5. C=DC(0.)
X10.326 Y25.688 Z-8.136 B5. C=DC(0.)
X10.326 Y25.281 Z-8.017 B5. C=DC(0.)
X10.326 Y24.859 Z-7.898 B5. C=DC(0.)
X10.326 Y23.595 Z-7.556 B5. C=DC(0.)
X10.326 Y23.174 Z-7.444 B5. C=DC(0.)
X10.326 Y22.753 Z-7.339 B5. C=DC(0.)
X10.326 Y21.488 Z-7.028 B5. C=DC(0.)
X10.326 Y20.646 Z-6.836 B5. C=DC(0.)
X10.326 Y19.803 Z-6.647 B5. C=DC(0.)
X10.326 Y18.96 Z-6.472 B5. C=DC(0.)
X10.326 Y18.118 Z-6.302 B5. C=DC(0.)
X10.326 Y17.696 Z-6.219 B5. C=DC(0.)
X10.326 Y17.266 Z-6.14 B5. C=DC(0.)
X10.326 Y15.974 Z-5.906 B5. C=DC(0.)
X10.326 Y15.113 Z-5.767 B5. C=DC(0.)
X10.326 Y14.683 Z-5.698 B5. C=DC(0.)
X10.326 Y13.822 Z-5.564 B5. C=DC(0.)
X10.326 Y13.391 Z-5.504 B5. C=DC(0.)
X10.326 Y12.53 Z-5.387 B5. C=DC(0.)
X10.326 Y11.669 Z-5.273 B5. C=DC(0.)
X10.326 Y10.808 Z-5.175 B5. C=DC(0.)
X10.326 Y11.669 Z-5.273 B5. C=DC(0.),2
X10.326 Y9.947 Z-5.208 B5. C=DC(0.),1
X10.326 Y9.086 Z-4.992 B5. C=DC(0.)
X10.326 Y7.794 Z-4.881 B5. C=DC(0.)
X10.326 Y6.503 Z-4.781 B5. C=DC(0.)
X10.326 Y5.63 Z-4.728 B5. C=DC(0.)
X10.326 Y4.32 Z-4.662 B5. C=DC(0.)
X10.326 Y3.01 Z-4.61 B5. C=DC(0.)
X10.326 Y2.137 Z-4.586 B5. C=DC(0.)
X10.326 Y1.264 Z-4.569 B5. C=DC(0.)
X10.326 Y.391 Z-4.562 B5. C=DC(0.)
X10.326 Y-.919 Z-4.565 B5. C=DC(0.)
X10.326 Y-1.792 Z-4.578 B5. C=DC(0.),8
X10.326 Y-1.794 Z-4.578 B5. C=DC(0.),3
X10.326 Y-4.858 Z-3.659 B5. C=DC(0.)
X10.326 Y-5.286 Z-3.547 B5. C=DC(0.)
X10.326 Y-5.723 Z-3.513 B5. C=DC(0.)
X10.326 Y-6.151 Z-3.556 B5. C=DC(0.)
X10.326 Y-6.562 Z-3.666 B5. C=DC(0.)
X10.326 Y-6.949 Z-3.835 B5. C=DC(0.)
X10.326 Y-7.322 Z-4.053 B5. C=DC(0.)
X10.326 Y-8.851 Z-4.971 B5. C=DC(0.),8
X10.326 Y-8.853 Z-4.972 B5. C=DC(0.),3
X10.326 Y-9.31 Z-5.013 B5. C=DC(0.)
X10.326 Y-9.743 Z-5.059 B5. C=DC(0.)
X10.326 Y-11.477 Z-5.251 B5. C=DC(0.)
X10.326 Y-11.91 Z-5.305 B5. C=DC(0.)
X10.326 Y-12.777 Z-5.421 B5. C=DC(0.)
X10.326 Y-13.64 Z-5.539 B5. C=DC(0.)
X10.326 Y-14.07 Z-5.602 B5. C=DC(0.)
X10.326 Y-14.93 Z-5.737 B5. C=DC(0.)
X10.326 Y-15.789 Z-5.875 B5. C=DC(0.)
X10.326 Y-16.219 Z-5.95 B5. C=DC(0.)
X10.326 Y-17.508 Z-6.184 B5. C=DC(0.)
X10.326 Y-17.935 Z-6.265 B5. C=DC(0.)
X10.326 Y-18.787 Z-6.437 B5. C=DC(0.)
X10.326 Y-19.214 Z-6.524 B5. C=DC(0.)
X10.326 Y-19.64 Z-6.612 B5. C=DC(0.)
X10.326 Y-20.067 Z-6.706 B5. C=DC(0.)
X10.326 Y-20.919 Z-6.898 B5. C=DC(0.)
X10.326 Y-21.346 Z-6.995 B5. C=DC(0.)
X10.326 Y-21.769 Z-7.097 B5. C=DC(0.)
X10.326 Y-23.039 Z-7.41 B5. C=DC(0.)
X10.326 Y-23.46 Z-7.52 B5. C=DC(0.)
X10.326 Y-24.721 Z-7.86 B5. C=DC(0.)
X10.326 Y-25.138 Z-7.976 B5. C=DC(0.)
X10.326 Y-25.556 Z-8.097 B5. C=DC(0.)
X10.326 Y-26.391 Z-8.343 B5. C=DC(0.)
X10.326 Y-26.806 Z-8.468 B5. C=DC(0.)
X10.326 Y-28.051 Z-8.859 B5. C=DC(0.)
X10.326 Y-28.466 Z-8.992 B5. C=DC(0.),8
X10.326 Y-28.467 Z-8.992 B5. C=DC(0.),3
X10.326 Y-37.5 Z-8.992 B5. C=DC(0.),7
X11.326 Y-37.5 Z-8.992 B5. C=DC(0.),7
X11.326 Y-28.077 Z-8.992 B5. C=DC(0.),8
X11.326 Y-27.661 Z-8.86 B5. C=DC(0.)
X11.326 Y-26.407 Z-8.473 B5. C=DC(0.)
X11.326 Y-25.99 Z-8.348 B5. C=DC(0.)
X11.326 Y-25.154 Z-8.106 B5. C=DC(0.)
X11.326 Y-24.734 Z-7.987 B5. C=DC(0.)
X11.326 Y-24.313 Z-7.871 B5. C=DC(0.)
X11.326 Y-23.052 Z-7.537 B5. C=DC(0.)
X11.326 Y-22.631 Z-7.429 B5. C=DC(0.)
X11.326 Y-21.361 Z-7.121 B5. C=DC(0.)
X11.326 Y-19.231 Z-6.645 B5. C=DC(0.),6
X11.326 Y-18.805 Z-6.558 B5. C=DC(0.)
X11.326 Y-17.525 Z-6.306 B5. C=DC(0.)
X11.326 Y-17.099 Z-6.225 B5. C=DC(0.)
X11.326 Y-16.239 Z-6.074 B5. C=DC(0.)
X11.326 Y-15.379 Z-5.925 B5. C=DC(0.)
X11.326 Y-14.949 Z-5.855 B5. C=DC(0.)
X11.326 Y-14.089 Z-5.725 B5. C=DC(0.)
X11.326 Y-13.229 Z-5.597 B5. C=DC(0.)
X11.326 Y-12.799 Z-5.537 B5. C=DC(0.)
X11.326 Y-11.932 Z-5.426 B5. C=DC(0.)
X11.326 Y-11.065 Z-5.319 B5. C=DC(0.)
X11.326 Y-10.631 Z-5.268 B5. C=DC(0.)
X11.326 Y-10.198 Z-5.222 B5. C=DC(0.)
X11.326 Y-9.331 Z-5.135 B5. C=DC(0.)
X11.326 Y-9.085 Z-5.111 B5. C=DC(0.),8
X11.326 Y-7.967 Z-4.44 B5. C=DC(0.)
X11.326 Y-7.594 Z-4.218 B5. C=DC(0.)
X11.326 Y-7.215 Z-4.04 B5. C=DC(0.)
X11.326 Y-6.809 Z-3.919 B5. C=DC(0.)
X11.326 Y-6.383 Z-3.862 B5. C=DC(0.)
X11.326 Y-5.948 Z-3.88 B5. C=DC(0.)
X11.326 Y-5.518 Z-3.98 B5. C=DC(0.)
X11.326 Y-3.035 Z-4.725 B5. C=DC(0.),8
X11.326 Y-1.726 Z-4.694 B5. C=DC(0.)
X11.326 Y-.854 Z-4.683 B5. C=DC(0.)
X11.326 Y.018 Z-4.679 B5. C=DC(0.)
X11.326 Y1.325 Z-4.688 B5. C=DC(0.)
X11.326 Y2.197 Z-4.704 B5. C=DC(0.)
X11.326 Y3.504 Z-4.741 B5. C=DC(0.)
X11.326 Y4.376 Z-4.775 B5. C=DC(0.)
X11.326 Y5.248 Z-4.821 B5. C=DC(0.)
X11.326 Y6.555 Z-4.903 B5. C=DC(0.)
X11.326 Y7.863 Z-4.999 B5. C=DC(0.)
X11.326 Y8.728 Z-5.076 B5. C=DC(0.)
X11.326 Y9.587 Z-5.16 B5. C=DC(0.)
X11.326 Y10.446 Z-5.248 B5. C=DC(0.)
X11.326 Y10.875 Z-5.296 B5. C=DC(0.)
X11.326 Y11.734 Z-5.401 B5. C=DC(0.)
X11.326 Y12.593 Z-5.511 B5. C=DC(0.)
X11.326 Y13.022 Z-5.567 B5. C=DC(0.)
X11.326 Y13.881 Z-5.693 B5. C=DC(0.)
X11.326 Y14.74 Z-5.824 B5. C=DC(0.)
X11.326 Y15.169 Z-5.89 B5. C=DC(0.)
X11.326 Y16.028 Z-6.037 B5. C=DC(0.)
X11.326 Y16.887 Z-6.188 B5. C=DC(0.)
