;%_N_7_MPF
;MASTERCAM - 2024
;MCX PATH  - G:\ģͿ\㲩\
;MCAM FILE - ģ.MCAM
;POST      - HEN-Xxzy_LITZ_LU400_SIEMENS.PST
;PROGRAM   - 7.MPF
;DATE      - 2026.03.12
;TIME      - 2:50 PM
;T1   - 4 /Բϳ            - D1   - D4.000mm - R2.000mm
G00 G17 G40 G71 G90
G00 SUPA Z0. D0
G00 SUPA X-255. Y175.
D1
M51 ; C-Axis lock-off
M53 ; C-Axis lock-off
G00 B0. C=DC(0.)
M1

N1
;OPERATION NO - 15
;OPERATION TYPE - CONVERT 5AX
T1 ;4 /Բϳ
M06
D1
G54 G90
G00 X-36.674 Y-47.5
B5. C=DC(0.)
TRAORI
CYCLE832(.025,_ROUGH,1)
X-36.674 Y-47.5 Z50.008 S3000 M03
Z2.423
G94 G01 X-36.674 Y-47.5 Z1.923 B5. C=DC(0.) F360.
X-36.674 Y-47.489 Z1.462 B5. C=DC(0.)
X-36.674 Y-47.457 Z1.001 B5. C=DC(0.)
X-36.674 Y-47.404 Z.542 B5. C=DC(0.)
X-36.674 Y-47.33 Z.086 B5. C=DC(0.)
X-36.674 Y-47.234 Z-.366 B5. C=DC(0.)
X-36.674 Y-47.118 Z-.813 B5. C=DC(0.)
X-36.674 Y-46.982 Z-1.254 B5. C=DC(0.)
X-36.674 Y-46.825 Z-1.689 B5. C=DC(0.)
X-36.674 Y-46.648 Z-2.116 B5. C=DC(0.)
X-36.674 Y-46.452 Z-2.534 B5. C=DC(0.)
X-36.674 Y-46.236 Z-2.943 B5. C=DC(0.)
X-36.674 Y-46.002 Z-3.341 B5. C=DC(0.)
X-36.674 Y-45.75 Z-3.728 B5. C=DC(0.)
X-36.674 Y-45.48 Z-4.103 B5. C=DC(0.)
X-36.674 Y-45.193 Z-4.465 B5. C=DC(0.)
X-36.674 Y-44.89 Z-4.814 B5. C=DC(0.)
X-36.674 Y-44.571 Z-5.148 B5. C=DC(0.)
X-36.674 Y-44.237 Z-5.467 B5. C=DC(0.)
X-36.674 Y-43.888 Z-5.77 B5. C=DC(0.)
X-36.674 Y-43.526 Z-6.057 B5. C=DC(0.)
X-36.674 Y-43.151 Z-6.327 B5. C=DC(0.)
X-36.674 Y-42.764 Z-6.579 B5. C=DC(0.)
X-36.674 Y-42.366 Z-6.813 B5. C=DC(0.)
X-36.674 Y-41.957 Z-7.028 B5. C=DC(0.)
X-36.674 Y-41.539 Z-7.224 B5. C=DC(0.)
X-36.674 Y-41.112 Z-7.401 B5. C=DC(0.)
X-36.674 Y-40.678 Z-7.558 B5. C=DC(0.)
X-36.674 Y-40.237 Z-7.695 B5. C=DC(0.)
X-36.674 Y-39.79 Z-7.811 B5. C=DC(0.)
X-36.674 Y-39.337 Z-7.906 B5. C=DC(0.)
X-36.674 Y-38.882 Z-7.981 B5. C=DC(0.)
X-36.674 Y-38.423 Z-8.034 B5. C=DC(0.)
X-36.674 Y-37.962 Z-8.066 B5. C=DC(0.)
X-36.674 Y-37.5 Z-8.077 B5. C=DC(0.),7
X-36.674 Y37.5 Z-8.077 B5. C=DC(0.),7
X-35.674 Y37.5 Z-8.077 B5. C=DC(0.),7
X-35.674 Y-37.5 Z-8.077 B5. C=DC(0.),7
X-34.674 Y-37.5 Z-8.077 B5. C=DC(0.),7
X-34.674 Y37.5 Z-8.077 B5. C=DC(0.),7
X-33.674 Y37.5 Z-8.077 B5. C=DC(0.),7
X-33.674 Y-37.5 Z-8.077 B5. C=DC(0.),7
X-32.924 Y-37.5 Z-7.267 B5. C=DC(0.),3
X-32.674 Y-37.5 Z-7.008 B5. C=DC(0.),7
X-32.674 Y-37.064 Z-7.057 B5. C=DC(0.)
X-32.674 Y-30.599 Z-7.996 B5. C=DC(0.)
X-32.674 Y-30.038 Z-8.076 B5. C=DC(0.),8
X-32.674 Y-30.037 Z-8.077 B5. C=DC(0.),3
X-32.674 Y20.081 Z-8.077 B5. C=DC(0.),8
X-32.674 Y20.083 Z-5.064 B5. C=DC(0.)
X-32.674 Y20.126 Z-4.759 B5. C=DC(0.)
X-32.674 Y20.18 Z-4.456 B5. C=DC(0.)
X-32.674 Y20.289 Z-4.138 B5. C=DC(0.)
X-32.674 Y20.507 Z-3.753 B5. C=DC(0.)
X-32.674 Y20.734 Z-3.477 B5. C=DC(0.)
X-32.674 Y21.069 Z-3.249 B5. C=DC(0.)
X-32.674 Y21.418 Z-3.027 B5. C=DC(0.)
X-32.674 Y21.82 Z-2.944 B5. C=DC(0.)
X-32.674 Y22.244 Z-2.913 B5. C=DC(0.)
X-32.674 Y32.705 Z-2.913 B5. C=DC(0.)
X-32.674 Y33.141 Z-2.938 B5. C=DC(0.)
X-32.674 Y33.537 Z-3.011 B5. C=DC(0.)
X-32.674 Y33.736 Z-3.106 B5. C=DC(0.)
X-32.674 Y33.934 Z-3.242 B5. C=DC(0.)
X-32.674 Y34.29 Z-3.498 B5. C=DC(0.)
X-32.674 Y34.451 Z-3.686 B5. C=DC(0.)
X-32.674 Y34.611 Z-3.956 B5. C=DC(0.)
X-32.674 Y34.714 Z-4.144 B5. C=DC(0.)
X-32.674 Y34.818 Z-4.443 B5. C=DC(0.)
X-32.674 Y34.897 Z-4.878 B5. C=DC(0.)
X-32.674 Y34.916 Z-5.028 B5. C=DC(0.)
X-32.674 Y34.918 Z-8.077 B5. C=DC(0.),8
X-32.674 Y37.5 Z-8.077 B5. C=DC(0.),7
X-31.674 Y37.5 Z-8.077 B5. C=DC(0.),7
X-31.674 Y36.111 Z-8.077 B5. C=DC(0.),8
X-31.674 Y36.108 Z-4.993 B5. C=DC(0.)
X-31.674 Y36.103 Z-4.922 B5. C=DC(0.)
X-31.674 Y36.033 Z-4.335 B5. C=DC(0.)
X-31.674 Y35.963 Z-4.067 B5. C=DC(0.)
X-31.674 Y35.823 Z-3.669 B5. C=DC(0.)
X-31.674 Y35.718 Z-3.412 B5. C=DC(0.)
X-31.674 Y35.614 Z-3.232 B5. C=DC(0.)
X-31.674 Y35.378 Z-2.876 B5. C=DC(0.)
X-31.674 Y35.226 Z-2.688 B5. C=DC(0.)
X-31.674 Y35.075 Z-2.541 B5. C=DC(0.)
X-31.674 Y34.772 Z-2.259 B5. C=DC(0.)
X-31.674 Y34.577 Z-2.099 B5. C=DC(0.)
X-31.674 Y34.382 Z-1.985 B5. C=DC(0.)
X-31.674 Y33.992 Z-1.789 B5. C=DC(0.)
X-31.674 Y33.602 Z-1.642 B5. C=DC(0.)
X-31.674 Y33.169 Z-1.552 B5. C=DC(0.)
X-31.674 Y32.736 Z-1.507 B5. C=DC(0.)
X-31.674 Y22.342 Z-1.507 B5. C=DC(0.)
X-31.674 Y21.909 Z-1.543 B5. C=DC(0.)
X-31.674 Y21.488 Z-1.621 B5. C=DC(0.)
X-31.674 Y21.097 Z-1.745 B5. C=DC(0.)
X-31.674 Y20.706 Z-1.942 B5. C=DC(0.)
X-31.674 Y20.364 Z-2.143 B5. C=DC(0.)
X-31.674 Y20.046 Z-2.43 B5. C=DC(0.)
X-31.674 Y19.756 Z-2.707 B5. C=DC(0.)
X-31.674 Y19.516 Z-3.033 B5. C=DC(0.)
X-31.674 Y19.307 Z-3.364 B5. C=DC(0.)
X-31.674 Y19.162 Z-3.71 B5. C=DC(0.)
X-31.674 Y19.053 Z-4.021 B5. C=DC(0.)
X-31.674 Y18.999 Z-4.191 B5. C=DC(0.)
X-31.674 Y18.944 Z-4.516 B5. C=DC(0.)
X-31.674 Y18.891 Z-5.009 B5. C=DC(0.)
X-31.674 Y18.889 Z-8.077 B5. C=DC(0.),8
X-31.674 Y-23.189 Z-8.077 B5. C=DC(0.),8
X-31.674 Y-23.191 Z-8.077 B5. C=DC(0.),3
X-31.674 Y-26.289 Z-7.631 B5. C=DC(0.)
X-31.674 Y-37.064 Z-6.064 B5. C=DC(0.)
X-31.674 Y-37.5 Z-6.016 B5. C=DC(0.),7
X-31.174 Y-37.5 Z-5.563 B5. C=DC(0.),3
X-30.862 Y-37.5 Z-5.288 B5. C=DC(0.),3
X-30.674 Y-37.5 Z-5.137 B5. C=DC(0.),7
X-30.674 Y-37.064 Z-5.184 B5. C=DC(0.)
X-30.674 Y-20.255 Z-7.629 B5. C=DC(0.)
X-30.674 Y-17.148 Z-8.076 B5. C=DC(0.),8
X-30.674 Y-17.147 Z-8.077 B5. C=DC(0.),3
X-30.674 Y18.292 Z-8.077 B5. C=DC(0.),8
X-30.674 Y18.293 Z-5.007 B5. C=DC(0.)
X-30.674 Y18.346 Z-4.397 B5. C=DC(0.)
X-30.674 Y18.374 Z-4.233 B5. C=DC(0.)
X-30.674 Y18.483 Z-3.826 B5. C=DC(0.)
X-30.674 Y18.592 Z-3.483 B5. C=DC(0.)
X-30.674 Y18.702 Z-3.252 B5. C=DC(0.)
X-30.674 Y18.893 Z-2.871 B5. C=DC(0.)
X-30.674 Y19.105 Z-2.552 B5. C=DC(0.)
X-30.674 Y19.357 Z-2.214 B5. C=DC(0.)
X-30.674 Y19.624 Z-1.933 B5. C=DC(0.)
X-30.674 Y19.943 Z-1.658 B5. C=DC(0.)
X-30.674 Y20.274 Z-1.417 B5. C=DC(0.)
X-30.674 Y20.641 Z-1.208 B5. C=DC(0.)
X-30.674 Y21.024 Z-1.029 B5. C=DC(0.)
X-30.674 Y21.426 Z-.907 B5. C=DC(0.)
X-30.674 Y21.849 Z-.803 B5. C=DC(0.)
X-30.674 Y22.272 Z-.76 B5. C=DC(0.)
X-30.674 Y22.707 Z-.758 B5. C=DC(0.)
X-30.674 Y32.279 Z-.758 B5. C=DC(0.)
X-30.674 Y32.714 Z-.761 B5. C=DC(0.)
X-30.674 Y33.149 Z-.802 B5. C=DC(0.)
X-30.674 Y33.545 Z-.895 B5. C=DC(0.)
X-30.674 Y33.94 Z-1.015 B5. C=DC(0.)
X-30.674 Y34.336 Z-1.196 B5. C=DC(0.)
X-30.674 Y34.687 Z-1.393 B5. C=DC(0.)
X-30.674 Y35.039 Z-1.643 B5. C=DC(0.)
X-30.674 Y35.346 Z-1.906 B5. C=DC(0.)
X-30.674 Y35.654 Z-2.229 B5. C=DC(0.)
X-30.674 Y35.918 Z-2.586 B5. C=DC(0.)
X-30.674 Y36.144 Z-2.941 B5. C=DC(0.)
X-30.674 Y36.338 Z-3.331 B5. C=DC(0.)
X-30.674 Y36.421 Z-3.515 B5. C=DC(0.)
X-30.674 Y36.504 Z-3.778 B5. C=DC(0.)
X-30.674 Y36.614 Z-4.181 B5. C=DC(0.)
X-30.674 Y36.664 Z-4.498 B5. C=DC(0.)
X-30.674 Y36.707 Z-5.006 B5. C=DC(0.)
X-30.674 Y36.708 Z-8.077 B5. C=DC(0.),8
X-30.674 Y37.5 Z-8.077 B5. C=DC(0.),7
X-29.674 Y37.5 Z-8.077 B5. C=DC(0.),7
X-29.674 Y36.962 Z-8.077 B5. C=DC(0.),8
X-29.674 Y36.96 Z-5.018 B5. C=DC(0.)
X-29.674 Y36.935 Z-4.653 B5. C=DC(0.)
X-29.674 Y36.912 Z-4.39 B5. C=DC(0.)
X-29.674 Y36.867 Z-4.153 B5. C=DC(0.)
X-29.674 Y36.804 Z-3.866 B5. C=DC(0.)
X-29.674 Y36.74 Z-3.623 B5. C=DC(0.)
X-29.674 Y36.588 Z-3.216 B5. C=DC(0.)
X-29.674 Y36.406 Z-2.822 B5. C=DC(0.)
X-29.674 Y36.187 Z-2.442 B5. C=DC(0.)
X-29.674 Y35.925 Z-2.091 B5. C=DC(0.)
X-29.674 Y35.662 Z-1.779 B5. C=DC(0.)
X-29.674 Y35.356 Z-1.492 B5. C=DC(0.)
X-29.674 Y35.05 Z-1.229 B5. C=DC(0.)
X-29.674 Y34.7 Z-.999 B5. C=DC(0.)
X-29.674 Y34.35 Z-.803 B5. C=DC(0.)
X-29.674 Y33.956 Z-.624 B5. C=DC(0.)
X-29.674 Y33.562 Z-.494 B5. C=DC(0.)
X-29.674 Y33.169 Z-.392 B5. C=DC(0.)
X-29.674 Y32.735 Z-.336 B5. C=DC(0.)
X-29.674 Y32.302 Z-.309 B5. C=DC(0.)
X-29.674 Y31.003 Z-.313 B5. C=DC(0.),6
X-29.674 Y22.773 Z-.309 B5. C=DC(0.)
X-29.674 Y22.34 Z-.331 B5. C=DC(0.)
X-29.674 Y21.919 Z-.376 B5. C=DC(0.)
X-29.674 Y21.509 Z-.472 B5. C=DC(0.)
X-29.674 Y21.099 Z-.605 B5. C=DC(0.)
X-29.674 Y20.717 Z-.766 B5. C=DC(0.)
X-29.674 Y20.344 Z-.973 B5. C=DC(0.)
X-29.674 Y20.001 Z-1.189 B5. C=DC(0.)
X-29.674 Y19.671 Z-1.464 B5. C=DC(0.)
X-29.674 Y19.369 Z-1.746 B5. C=DC(0.)
X-29.674 Y19.094 Z-2.067 B5. C=DC(0.)
X-29.674 Y18.852 Z-2.38 B5. C=DC(0.)
X-29.674 Y18.638 Z-2.745 B5. C=DC(0.)
X-29.674 Y18.468 Z-3.072 B5. C=DC(0.)
X-29.674 Y18.314 Z-3.472 B5. C=DC(0.)
X-29.674 Y18.205 Z-3.823 B5. C=DC(0.)
X-29.674 Y18.096 Z-4.334 B5. C=DC(0.)
X-29.674 Y18.069 Z-4.594 B5. C=DC(0.)
X-29.674 Y18.04 Z-5.038 B5. C=DC(0.)
X-29.674 Y18.038 Z-8.077 B5. C=DC(0.),8
X-29.674 Y-11.773 Z-8.077 B5. C=DC(0.),8
X-29.674 Y-11.774 Z-8.077 B5. C=DC(0.),3
X-29.674 Y-37.064 Z-4.399 B5. C=DC(0.)
X-29.674 Y-37.5 Z-4.353 B5. C=DC(0.),7
X-28.674 Y-37.5 Z-3.654 B5. C=DC(0.),7
X-28.674 Y-37.064 Z-3.7 B5. C=DC(0.)
X-28.674 Y-6.971 Z-8.076 B5. C=DC(0.),8
X-28.674 Y-6.969 Z-8.077 B5. C=DC(0.),3
X-28.674 Y17.999 Z-8.077 B5. C=DC(0.),8
X-28.674 Y18. Z-5.037 B5. C=DC(0.)
X-28.674 Y18.017 Z-4.74 B5. C=DC(0.)
X-28.674 Y18.045 Z-4.411 B5. C=DC(0.)
X-28.674 Y18.099 Z-4.117 B5. C=DC(0.)
X-28.674 Y18.154 Z-3.847 B5. C=DC(0.)
X-28.674 Y18.208 Z-3.661 B5. C=DC(0.)
X-28.674 Y18.317 Z-3.333 B5. C=DC(0.)
X-28.674 Y18.454 Z-3.007 B5. C=DC(0.)
X-28.674 Y18.645 Z-2.621 B5. C=DC(0.)
X-28.674 Y18.854 Z-2.295 B5. C=DC(0.)
X-28.674 Y19.096 Z-1.954 B5. C=DC(0.)
X-28.674 Y19.375 Z-1.642 B5. C=DC(0.)
X-28.674 Y19.667 Z-1.355 B5. C=DC(0.)
X-28.674 Y20.004 Z-1.079 B5. C=DC(0.)
X-28.674 Y20.34 Z-.851 B5. C=DC(0.)
X-28.674 Y20.713 Z-.634 B5. C=DC(0.)
X-28.674 Y21.086 Z-.464 B5. C=DC(0.)
X-28.674 Y21.487 Z-.324 B5. C=DC(0.)
X-28.674 Y21.897 Z-.209 B5. C=DC(0.)
X-28.674 Y22.319 Z-.137 B5. C=DC(0.)
X-28.674 Y22.753 Z-.105 B5. C=DC(0.)
X-28.674 Y23.187 Z-.102 B5. C=DC(0.)
X-28.674 Y31.861 Z-.102 B5. C=DC(0.)
X-28.674 Y32.295 Z-.107 B5. C=DC(0.)
X-28.674 Y32.729 Z-.144 B5. C=DC(0.)
X-28.674 Y33.126 Z-.214 B5. C=DC(0.)
X-28.674 Y33.524 Z-.327 B5. C=DC(0.)
X-28.674 Y33.922 Z-.467 B5. C=DC(0.)
X-28.674 Y34.319 Z-.653 B5. C=DC(0.)
X-28.674 Y34.673 Z-.859 B5. C=DC(0.)
X-28.674 Y35.026 Z-1.103 B5. C=DC(0.)
X-28.674 Y35.335 Z-1.357 B5. C=DC(0.)
X-28.674 Y35.645 Z-1.664 B5. C=DC(0.)
X-28.674 Y35.91 Z-1.961 B5. C=DC(0.)
X-28.674 Y36.042 Z-2.14 B5. C=DC(0.)
X-28.674 Y36.175 Z-2.338 B5. C=DC(0.)
X-28.674 Y36.396 Z-2.698 B5. C=DC(0.)
X-28.674 Y36.58 Z-3.076 B5. C=DC(0.)
X-28.674 Y36.672 Z-3.3 B5. C=DC(0.)
X-28.674 Y36.764 Z-3.577 B5. C=DC(0.)
X-28.674 Y36.825 Z-3.767 B5. C=DC(0.)
X-28.674 Y36.886 Z-4.043 B5. C=DC(0.)
X-28.674 Y36.963 Z-4.472 B5. C=DC(0.)
X-28.674 Y36.988 Z-4.817 B5. C=DC(0.)
X-28.674 Y37. Z-5.044 B5. C=DC(0.)
X-28.674 Y37.001 Z-8.077 B5. C=DC(0.),8
X-28.674 Y37.5 Z-8.077 B5. C=DC(0.),7
X-27.674 Y37.5 Z-8.077 B5. C=DC(0.),7
X-27.674 Y37. Z-8.077 B5. C=DC(0.),8
X-27.674 Y36.999 Z-5.004 B5. C=DC(0.)
X-27.674 Y36.962 Z-4.462 B5. C=DC(0.)
X-27.674 Y36.885 Z-4.036 B5. C=DC(0.)
X-27.674 Y36.824 Z-3.762 B5. C=DC(0.)
X-27.674 Y36.762 Z-3.572 B5. C=DC(0.)
X-27.674 Y36.615 Z-3.152 B5. C=DC(0.)
X-27.674 Y36.437 Z-2.784 B5. C=DC(0.)
X-27.674 Y36.225 Z-2.413 B5. C=DC(0.)
X-27.674 Y35.97 Z-2.037 B5. C=DC(0.)
X-27.674 Y35.715 Z-1.742 B5. C=DC(0.)
X-27.674 Y35.417 Z-1.427 B5. C=DC(0.)
X-27.674 Y35.12 Z-1.18 B5. C=DC(0.)
X-27.674 Y34.78 Z-.922 B5. C=DC(0.)
X-27.674 Y34.44 Z-.722 B5. C=DC(0.)
X-27.674 Y34.057 Z-.522 B5. C=DC(0.)
X-27.674 Y33.675 Z-.375 B5. C=DC(0.)
X-27.674 Y33.25 Z-.239 B5. C=DC(0.)
X-27.674 Y32.825 Z-.148 B5. C=DC(0.)
X-27.674 Y32.4 Z-.095 B5. C=DC(0.)
X-27.674 Y31.975 Z-.077 B5. C=DC(0.)
X-27.674 Y23.05 Z-.077 B5. C=DC(0.)
X-27.674 Y22.625 Z-.094 B5. C=DC(0.)
X-27.674 Y22.2 Z-.144 B5. C=DC(0.)
X-27.674 Y21.775 Z-.233 B5. C=DC(0.)
X-27.674 Y21.372 Z-.357 B5. C=DC(0.)
X-27.674 Y20.968 Z-.512 B5. C=DC(0.)
X-27.674 Y20.593 Z-.703 B5. C=DC(0.)
X-27.674 Y20.225 Z-.919 B5. C=DC(0.)
X-27.674 Y19.893 Z-1.17 B5. C=DC(0.)
X-27.674 Y19.573 Z-1.436 B5. C=DC(0.)
X-27.674 Y19.993 Z-1.17 B5. C=DC(0.),2
X-27.674 Y19.284 Z-1.744 B5. C=DC(0.),6
X-27.674 Y19.024 Z-2.046 B5. C=DC(0.)
X-27.674 Y18.78 Z-2.405 B5. C=DC(0.)
X-27.674 Y18.589 Z-2.729 B5. C=DC(0.)
X-27.674 Y18.406 Z-3.107 B5. C=DC(0.)
X-27.674 Y18.268 Z-3.48 B5. C=DC(0.)
X-27.674 Y18.159 Z-3.825 B5. C=DC(0.)
X-27.674 Y18.105 Z-4.089 B5. C=DC(0.)
X-27.674 Y18.05 Z-4.376 B5. C=DC(0.)
X-27.674 Y18.023 Z-4.659 B5. C=DC(0.)
X-27.674 Y18. Z-5.038 B5. C=DC(0.)
X-27.674 Y17.999 Z-8.077 B5. C=DC(0.),8
X-27.674 Y-2.711 Z-8.077 B5. C=DC(0.),8
X-27.674 Y-2.713 Z-8.076 B5. C=DC(0.),3
X-27.674 Y-37.064 Z-3.088 B5. C=DC(0.)
X-27.674 Y-37.5 Z-3.043 B5. C=DC(0.),7
X-27.487 Y-37.5 Z-2.93 B5. C=DC(0.),3
X-27.174 Y-37.5 Z-2.76 B5. C=DC(0.),3
X-26.674 Y-37.5 Z-2.497 B5. C=DC(0.),7
X-26.674 Y-37.064 Z-2.542 B5. C=DC(0.)
X-26.674 Y-21.979 Z-4.736 B5. C=DC(0.),6
X-26.674 Y-15.945 Z-5.609 B5. C=DC(0.),6
X-26.674 Y1.062 Z-8.076 B5. C=DC(0.),8
X-26.674 Y1.063 Z-8.077 B5. C=DC(0.),3
X-26.674 Y17.999 Z-8.077 B5. C=DC(0.),8
X-26.674 Y18.001 Z-5.027 B5. C=DC(0.)
X-26.674 Y18.035 Z-4.494 B5. C=DC(0.)
X-26.674 Y18.089 Z-4.171 B5. C=DC(0.)
X-26.674 Y18.143 Z-3.894 B5. C=DC(0.)
X-26.674 Y18.197 Z-3.695 B5. C=DC(0.)
X-26.674 Y18.306 Z-3.368 B5. C=DC(0.)
X-26.674 Y18.414 Z-3.089 B5. C=DC(0.)
X-26.674 Y18.601 Z-2.705 B5. C=DC(0.)
X-26.674 Y18.794 Z-2.385 B5. C=DC(0.)
X-26.674 Y19.037 Z-2.028 B5. C=DC(0.)
X-26.674 Y19.301 Z-1.725 B5. C=DC(0.)
X-26.674 Y19.59 Z-1.421 B5. C=DC(0.)
X-26.674 Y19.915 Z-1.151 B5. C=DC(0.)
X-26.674 Y20.253 Z-.902 B5. C=DC(0.)
X-26.674 Y20.628 Z-.682 B5. C=DC(0.)
X-26.674 Y20.153 Z-.902 B5. C=DC(0.),2
X-26.674 Y21.003 Z-.498 B5. C=DC(0.)
X-26.674 Y21.406 Z-.344 B5. C=DC(0.)
X-26.674 Y21.808 Z-.226 B5. C=DC(0.)
X-26.674 Y22.221 Z-.14 B5. C=DC(0.)
X-26.674 Y22.645 Z-.093 B5. C=DC(0.)
X-26.674 Y23.082 Z-.077 B5. C=DC(0.)
X-26.674 Y31.82 Z-.077 B5. C=DC(0.)
X-26.674 Y32.257 Z-.088 B5. C=DC(0.)
X-26.674 Y32.694 Z-.127 B5. C=DC(0.)
X-26.674 Y33.095 Z-.2 B5. C=DC(0.)
X-26.674 Y33.095 Z-.308 B5. C=DC(0.),1
X-26.674 Y33.896 Z-.46 B5. C=DC(0.)
X-26.674 Y34.296 Z-.638 B5. C=DC(0.)
X-26.674 Y34.652 Z-.847 B5. C=DC(0.)
X-26.674 Y35.008 Z-1.089 B5. C=DC(0.)
X-26.674 Y35.32 Z-1.344 B5. C=DC(0.)
X-26.674 Y35.631 Z-1.649 B5. C=DC(0.)
X-26.674 Y35.898 Z-1.947 B5. C=DC(0.)
X-26.674 Y36.032 Z-2.124 B5. C=DC(0.)
X-26.674 Y36.165 Z-2.323 B5. C=DC(0.)
X-26.674 Y36.388 Z-2.682 B5. C=DC(0.)
X-26.674 Y36.573 Z-3.062 B5. C=DC(0.)
X-26.674 Y36.666 Z-3.282 B5. C=DC(0.)
X-26.674 Y36.758 Z-3.561 B5. C=DC(0.)
X-26.674 Y36.82 Z-3.75 B5. C=DC(0.)
X-26.674 Y36.882 Z-4.02 B5. C=DC(0.)
X-26.674 Y36.959 Z-4.439 B5. C=DC(0.)
X-26.674 Y36.986 Z-4.797 B5. C=DC(0.)
X-26.674 Y37. Z-5.046 B5. C=DC(0.)
X-26.674 Y37.001 Z-8.077 B5. C=DC(0.),8
X-26.674 Y37.5 Z-8.077 B5. C=DC(0.),7
X-25.674 Y37.5 Z-8.077 B5. C=DC(0.),7
X-25.674 Y37.001 Z-8.077 B5. C=DC(0.),8
X-25.674 Y36.999 Z-5.004 B5. C=DC(0.)
X-25.674 Y36.97 Z-4.541 B5. C=DC(0.)
X-25.674 Y36.932 Z-4.277 B5. C=DC(0.)
X-25.674 Y36.894 Z-4.081 B5. C=DC(0.)
X-25.674 Y36.833 Z-3.796 B5. C=DC(0.)
X-25.674 Y36.682 Z-3.33 B5. C=DC(0.)
X-25.674 Y36.591 Z-3.1 B5. C=DC(0.)
X-25.674 Y36.409 Z-2.726 B5. C=DC(0.)
X-25.674 Y36.191 Z-2.362 B5. C=DC(0.)
X-25.674 Y36.06 Z-2.166 B5. C=DC(0.)
X-25.674 Y35.929 Z-1.984 B5. C=DC(0.)
X-25.674 Y35.667 Z-1.689 B5. C=DC(0.)
X-25.674 Y35.362 Z-1.379 B5. C=DC(0.)
X-25.674 Y35.056 Z-1.128 B5. C=DC(0.)
X-25.674 Y34.707 Z-.879 B5. C=DC(0.)
X-25.674 Y34.358 Z-.675 B5. C=DC(0.)
X-25.674 Y33.965 Z-.486 B5. C=DC(0.)
X-25.674 Y33.573 Z-.336 B5. C=DC(0.)
X-25.674 Y33.18 Z-.336 B5. C=DC(0.),1
X-25.674 Y32.748 Z-.136 B5. C=DC(0.)
X-25.674 Y32.316 Z-.091 B5. C=DC(0.)
X-25.674 Y31.884 Z-.077 B5. C=DC(0.)
X-25.674 Y23.243 Z-.077 B5. C=DC(0.)
X-25.674 Y22.811 Z-.084 B5. C=DC(0.)
X-25.674 Y22.379 Z-.116 B5. C=DC(0.)
X-25.674 Y21.959 Z-.187 B5. C=DC(0.)
X-25.674 Y21.55 Z-.294 B5. C=DC(0.)
X-25.674 Y21.152 Z-.441 B5. C=DC(0.)
X-25.674 Y20.771 Z-.601 B5. C=DC(0.)
X-25.674 Y20.4 Z-.816 B5. C=DC(0.)
X-25.674 Y20.058 Z-1.036 B5. C=DC(0.)
X-25.674 Y19.722 Z-1.31 B5. C=DC(0.)
X-25.674 Y19.431 Z-1.58 B5. C=DC(0.)
X-25.674 Y19.139 Z-1.904 B5. C=DC(0.)
X-25.674 Y18.898 Z-2.229 B5. C=DC(0.)
X-25.674 Y18.676 Z-2.566 B5. C=DC(0.)
X-25.674 Y18.486 Z-2.941 B5. C=DC(0.)
X-25.674 Y18.339 Z-3.27 B5. C=DC(0.)
X-25.674 Y18.23 Z-3.596 B5. C=DC(0.)
X-25.674 Y18.121 Z-4.004 B5. C=DC(0.)
X-25.674 Y18.067 Z-4.285 B5. C=DC(0.)
X-25.674 Y18.039 Z-4.45 B5. C=DC(0.)
X-25.674 Y18.012 Z-4.821 B5. C=DC(0.)
X-25.674 Y18. Z-5.039 B5. C=DC(0.)
X-25.674 Y17.999 Z-8.077 B5. C=DC(0.),8
X-25.674 Y4.403 Z-8.077 B5. C=DC(0.),8
X-25.674 Y4.402 Z-8.077 B5. C=DC(0.),3
X-25.674 Y-37.064 Z-2.055 B5. C=DC(0.)
X-25.674 Y-37.5 Z-2.011 B5. C=DC(0.),7
X-24.924 Y-37.5 Z-1.679 B5. C=DC(0.),3
X-24.768 Y-37.5 Z-1.613 B5. C=DC(0.),3
X-24.674 Y-37.5 Z-1.578 B5. C=DC(0.),7
X-24.674 Y-37.064 Z-1.621 B5. C=DC(0.)
X-24.674 Y7.338 Z-8.076 B5. C=DC(0.),8
X-24.674 Y7.34 Z-8.077 B5. C=DC(0.),3
X-24.674 Y17.999 Z-8.077 B5. C=DC(0.),8
X-24.674 Y18.001 Z-5.014 B5. C=DC(0.)
X-24.674 Y18.021 Z-4.676 B5. C=DC(0.)
X-24.674 Y18.049 Z-4.383 B5. C=DC(0.)
X-24.674 Y18.103 Z-4.095 B5. C=DC(0.)
X-24.674 Y18.158 Z-3.829 B5. C=DC(0.)
X-24.674 Y18.267 Z-3.483 B5. C=DC(0.)
X-24.674 Y18.405 Z-3.109 B5. C=DC(0.)
X-24.674 Y18.587 Z-2.735 B5. C=DC(0.)
X-24.674 Y18.778 Z-2.409 B5. C=DC(0.)
X-24.674 Y19.021 Z-2.05 B5. C=DC(0.)
X-24.674 Y19.277 Z-1.751 B5. C=DC(0.)
X-24.674 Y19.567 Z-1.442 B5. C=DC(0.)
X-24.674 Y19.887 Z-1.175 B5. C=DC(0.)
X-24.674 Y20.219 Z-.923 B5. C=DC(0.)
X-24.674 Y20.587 Z-.707 B5. C=DC(0.)
X-24.674 Y20.963 Z-.514 B5. C=DC(0.)
X-24.674 Y21.366 Z-.359 B5. C=DC(0.)
X-24.674 Y21.769 Z-.235 B5. C=DC(0.)
X-24.674 Y22.183 Z-.146 B5. C=DC(0.)
X-24.674 Y22.609 Z-.095 B5. C=DC(0.)
X-24.674 Y23.034 Z-.077 B5. C=DC(0.)
X-24.674 Y31.969 Z-.077 B5. C=DC(0.)
X-24.674 Y32.394 Z-.095 B5. C=DC(0.)
X-24.674 Y32.82 Z-.147 B5. C=DC(0.)
X-24.674 Y33.245 Z-.239 B5. C=DC(0.)
X-24.674 Y33.632 Z-.359 B5. C=DC(0.)
X-24.674 Y34.019 Z-.507 B5. C=DC(0.)
X-24.674 Y34.406 Z-.702 B5. C=DC(0.)
X-24.674 Y34.75 Z-.904 B5. C=DC(0.)
X-24.674 Y35.093 Z-1.159 B5. C=DC(0.)
X-24.674 Y35.394 Z-1.407 B5. C=DC(0.)
X-24.674 Y35.695 Z-1.72 B5. C=DC(0.)
X-24.674 Y35.953 Z-2.015 B5. C=DC(0.)
X-24.674 Y36.082 Z-2.199 B5. C=DC(0.)
X-24.674 Y36.211 Z-2.392 B5. C=DC(0.)
X-24.674 Y36.426 Z-2.76 B5. C=DC(0.)
X-24.674 Y36.605 Z-3.13 B5. C=DC(0.)
X-24.674 Y36.754 Z-3.547 B5. C=DC(0.)
X-24.674 Y36.816 Z-3.736 B5. C=DC(0.)
X-24.674 Y36.878 Z-4.001 B5. C=DC(0.)
X-24.674 Y36.956 Z-4.415 B5. C=DC(0.)
X-24.674 Y36.986 Z-4.796 B5. C=DC(0.)
X-24.674 Y36.999 Z-5.028 B5. C=DC(0.)
X-24.674 Y37.001 Z-8.077 B5. C=DC(0.),8
X-24.674 Y37.5 Z-8.077 B5. C=DC(0.),7
X-23.674 Y37.5 Z-8.077 B5. C=DC(0.),7
X-23.674 Y37.001 Z-8.077 B5. C=DC(0.),8
X-23.674 Y36.999 Z-5.012 B5. C=DC(0.)
X-23.674 Y36.96 Z-4.447 B5. C=DC(0.)
X-23.674 Y36.883 Z-4.025 B5. C=DC(0.)
X-23.674 Y36.821 Z-3.754 B5. C=DC(0.)
X-23.674 Y36.667 Z-3.287 B5. C=DC(0.)
X-23.674 Y36.575 Z-3.066 B5. C=DC(0.)
X-23.674 Y36.389 Z-2.686 B5. C=DC(0.)
X-23.674 Y36.167 Z-2.327 B5. C=DC(0.)
X-23.674 Y36.034 Z-2.128 B5. C=DC(0.)
X-23.674 Y35.901 Z-1.95 B5. C=DC(0.)
X-23.674 Y35.634 Z-1.653 B5. C=DC(0.)
X-23.674 Y35.323 Z-1.347 B5. C=DC(0.)
X-23.674 Y35.012 Z-1.092 B5. C=DC(0.)
X-23.674 Y34.657 Z-.85 B5. C=DC(0.)
X-23.674 Y34.302 Z-.85 B5. C=DC(0.),1
X-23.674 Y33.902 Z-.462 B5. C=DC(0.)
X-23.674 Y33.502 Z-.312 B5. C=DC(0.)
X-23.674 Y33.102 Z-.202 B5. C=DC(0.)
X-23.674 Y32.703 Z-.129 B5. C=DC(0.)
X-23.674 Y32.266 Z-.088 B5. C=DC(0.)
X-23.674 Y31.83 Z-.077 B5. C=DC(0.)
X-23.674 Y23.108 Z-.077 B5. C=DC(0.)
X-23.674 Y22.671 Z-.091 B5. C=DC(0.)
X-23.674 Y22.248 Z-.136 B5. C=DC(0.)
X-23.674 Y21.824 Z-.22 B5. C=DC(0.)
X-23.674 Y21.422 Z-.338 B5. C=DC(0.)
X-23.674 Y21.02 Z-.492 B5. C=DC(0.)
X-23.674 Y20.646 Z-.672 B5. C=DC(0.)
X-23.674 Y20.271 Z-.892 B5. C=DC(0.)
X-23.674 Y19.933 Z-1.137 B5. C=DC(0.)
X-23.674 Y19.608 Z-1.405 B5. C=DC(0.)
X-23.674 Y19.319 Z-1.704 B5. C=DC(0.)
X-23.674 Y19.052 Z-2.008 B5. C=DC(0.)
X-23.674 Y18.809 Z-2.362 B5. C=DC(0.)
X-23.674 Y18.613 Z-2.682 B5. C=DC(0.)
X-23.674 Y18.422 Z-3.073 B5. C=DC(0.)
X-23.674 Y18.285 Z-3.431 B5. C=DC(0.)
X-23.674 Y18.169 Z-3.789 B5. C=DC(0.)
X-23.674 Y18.086 Z-4.186 B5. C=DC(0.)
X-23.674 Y18.032 Z-4.522 B5. C=DC(0.)
X-23.674 Y18.002 Z-4.998 B5. C=DC(0.)
X-23.674 Y18. Z-8.077 B5. C=DC(0.),8
X-23.674 Y9.889 Z-8.077 B5. C=DC(0.),8
X-23.674 Y9.887 Z-8.076 B5. C=DC(0.),3
X-23.674 Y-37.064 Z-1.252 B5. C=DC(0.)
X-23.674 Y-37.5 Z-1.209 B5. C=DC(0.),7
X-23.549 Y-37.5 Z-1.164 B5. C=DC(0.),3
X-23.424 Y-37.5 Z-1.121 B5. C=DC(0.),3
X-22.674 Y-37.5 Z-.897 B5. C=DC(0.),7
X-22.674 Y-37.064 Z-.94 B5. C=DC(0.)
X-22.674 Y12.072 Z-8.076 B5. C=DC(0.),8
X-22.674 Y12.074 Z-8.077 B5. C=DC(0.),3
X-22.674 Y18. Z-8.077 B5. C=DC(0.),8
X-22.674 Y18.001 Z-5.005 B5. C=DC(0.)
X-22.674 Y18.027 Z-4.597 B5. C=DC(0.)
X-22.674 Y18.053 Z-4.355 B5. C=DC(0.)
X-22.674 Y18.107 Z-4.075 B5. C=DC(0.)
X-22.674 Y18.191 Z-3.715 B5. C=DC(0.)
X-22.674 Y18.322 Z-3.319 B5. C=DC(0.)
X-22.674 Y18.459 Z-2.997 B5. C=DC(0.)
X-22.674 Y18.649 Z-2.613 B5. C=DC(0.)
X-22.674 Y18.861 Z-2.284 B5. C=DC(0.)
X-22.674 Y19.103 Z-1.945 B5. C=DC(0.)
X-22.674 Y19.382 Z-1.635 B5. C=DC(0.)
X-22.674 Y19.674 Z-1.349 B5. C=DC(0.)
X-22.674 Y20.01 Z-1.073 B5. C=DC(0.)
X-22.674 Y20.347 Z-.847 B5. C=DC(0.)
X-22.674 Y20.72 Z-.629 B5. C=DC(0.)
X-22.674 Y21.101 Z-.461 B5. C=DC(0.)
X-22.674 Y21.501 Z-.311 B5. C=DC(0.)
X-22.674 Y21.911 Z-.198 B5. C=DC(0.)
X-22.674 Y22.333 Z-.123 B5. C=DC(0.)
X-22.674 Y22.754 Z-.087 B5. C=DC(0.)
X-22.674 Y23.188 Z-.077 B5. C=DC(0.)
X-22.674 Y31.862 Z-.077 B5. C=DC(0.)
X-22.674 Y32.296 Z-.09 B5. C=DC(0.)
X-22.674 Y32.729 Z-.133 B5. C=DC(0.)
X-22.674 Y33.127 Z-.208 B5. C=DC(0.)
X-22.674 Y33.524 Z-.319 B5. C=DC(0.)
X-22.674 Y33.922 Z-.47 B5. C=DC(0.)
X-22.674 Y34.319 Z-.652 B5. C=DC(0.)
X-22.674 Y34.673 Z-.859 B5. C=DC(0.)
X-22.674 Y35.026 Z-1.103 B5. C=DC(0.)
X-22.674 Y35.335 Z-1.357 B5. C=DC(0.)
X-22.674 Y35.645 Z-1.664 B5. C=DC(0.)
X-22.674 Y35.91 Z-1.961 B5. C=DC(0.)
X-22.674 Y36.042 Z-2.14 B5. C=DC(0.)
X-22.674 Y36.175 Z-2.338 B5. C=DC(0.)
X-22.674 Y36.396 Z-2.698 B5. C=DC(0.)
X-22.674 Y36.58 Z-3.076 B5. C=DC(0.)
X-22.674 Y36.672 Z-3.3 B5. C=DC(0.)
X-22.674 Y36.764 Z-3.577 B5. C=DC(0.)
X-22.674 Y36.825 Z-3.767 B5. C=DC(0.)
X-22.674 Y36.886 Z-4.043 B5. C=DC(0.)
X-22.674 Y36.963 Z-4.472 B5. C=DC(0.)
X-22.674 Y37. Z-5.032 B5. C=DC(0.)
X-22.674 Y37.002 Z-8.077 B5. C=DC(0.),8
X-22.674 Y37.5 Z-8.077 B5. C=DC(0.),7
X-21.674 Y37.5 Z-8.077 B5. C=DC(0.),7
X-21.674 Y37. Z-8.077 B5. C=DC(0.),8
X-21.674 Y36.999 Z-5.003 B5. C=DC(0.)
X-21.674 Y36.96 Z-4.444 B5. C=DC(0.)
X-21.674 Y36.883 Z-4.023 B5. C=DC(0.)
X-21.674 Y36.821 Z-3.753 B5. C=DC(0.)
X-21.674 Y36.667 Z-3.285 B5. C=DC(0.)
X-21.674 Y36.574 Z-3.065 B5. C=DC(0.)
X-21.674 Y36.389 Z-2.684 B5. C=DC(0.)
X-21.674 Y36.167 Z-2.326 B5. C=DC(0.)
X-21.674 Y36.033 Z-2.126 B5. C=DC(0.)
X-21.674 Y35.9 Z-1.949 B5. C=DC(0.)
X-21.674 Y35.633 Z-1.651 B5. C=DC(0.)
X-21.674 Y35.322 Z-1.346 B5. C=DC(0.)
X-21.674 Y35.011 Z-1.091 B5. C=DC(0.)
X-21.674 Y34.655 Z-.848 B5. C=DC(0.)
X-21.674 Y34.3 Z-.64 B5. C=DC(0.)
X-21.674 Y33.9 Z-.461 B5. C=DC(0.)
X-21.674 Y33.5 Z-.312 B5. C=DC(0.)
X-21.674 Y33.1 Z-.201 B5. C=DC(0.)
X-21.674 Y32.7 Z-.128 B5. C=DC(0.)
X-21.674 Y32.263 Z-.088 B5. C=DC(0.)
X-21.674 Y31.827 Z-.077 B5. C=DC(0.)
X-21.674 Y23.099 Z-.077 B5. C=DC(0.)
X-21.674 Y22.662 Z-.092 B5. C=DC(0.)
X-21.674 Y22.238 Z-.138 B5. C=DC(0.)
X-21.674 Y21.814 Z-.222 B5. C=DC(0.)
X-21.674 Y21.412 Z-.342 B5. C=DC(0.)
X-21.674 Y21.01 Z-.496 B5. C=DC(0.)
X-21.674 Y20.635 Z-.678 B5. C=DC(0.)
X-21.674 Y20.26 Z-.898 B5. C=DC(0.)
X-21.674 Y19.922 Z-1.146 B5. C=DC(0.)
X-21.674 Y19.597 Z-1.415 B5. C=DC(0.)
X-21.674 Y19.308 Z-1.717 B5. C=DC(0.)
X-21.674 Y19.044 Z-2.018 B5. C=DC(0.)
X-21.674 Y18.802 Z-2.373 B5. C=DC(0.)
X-21.674 Y18.607 Z-2.693 B5. C=DC(0.)
X-21.674 Y18.418 Z-3.081 B5. C=DC(0.)
X-21.674 Y18.281 Z-3.443 B5. C=DC(0.)
X-21.674 Y18.171 Z-3.779 B5. C=DC(0.)
X-21.674 Y18.117 Z-4.026 B5. C=DC(0.)
X-21.674 Y18.062 Z-4.308 B5. C=DC(0.)
X-21.674 Y18.035 Z-4.49 B5. C=DC(0.)
X-21.674 Y18.001 Z-5.021 B5. C=DC(0.)
X-21.674 Y17.999 Z-8.077 B5. C=DC(0.),8
X-21.674 Y13.913 Z-8.077 B5. C=DC(0.),8
X-21.674 Y13.911 Z-8.077 B5. C=DC(0.),3
X-21.674 Y-37.064 Z-.671 B5. C=DC(0.)
X-21.674 Y-37.5 Z-.628 B5. C=DC(0.),7
X-20.924 Y-37.5 Z-.457 B5. C=DC(0.),3
X-20.674 Y-37.5 Z-.401 B5. C=DC(0.),7
X-20.674 Y-37.064 Z-.444 B5. C=DC(0.)
X-20.674 Y15.088 Z-8.029 B5. C=DC(0.)
X-20.674 Y15.519 Z-8.077 B5. C=DC(0.),8
X-20.674 Y17.999 Z-8.077 B5. C=DC(0.),8
X-20.674 Y18. Z-5.038 B5. C=DC(0.)
X-20.674 Y18.024 Z-4.638 B5. C=DC(0.)
X-20.674 Y18.051 Z-4.37 B5. C=DC(0.)
X-20.674 Y18.105 Z-4.088 B5. C=DC(0.)
X-20.674 Y18.188 Z-3.723 B5. C=DC(0.)
X-20.674 Y18.318 Z-3.332 B5. C=DC(0.)
X-20.674 Y18.455 Z-3.006 B5. C=DC(0.)
X-20.674 Y18.645 Z-2.62 B5. C=DC(0.)
X-20.674 Y18.855 Z-2.294 B5. C=DC(0.)
X-20.674 Y19.097 Z-1.953 B5. C=DC(0.)
X-20.674 Y19.376 Z-1.642 B5. C=DC(0.)
X-20.674 Y19.668 Z-1.354 B5. C=DC(0.)
X-20.674 Y20.004 Z-1.078 B5. C=DC(0.)
X-20.674 Y20.341 Z-.851 B5. C=DC(0.)
X-20.674 Y20.714 Z-.633 B5. C=DC(0.)
X-20.674 Y21.087 Z-.466 B5. C=DC(0.)
X-20.674 Y21.987 Z-.317 B5. C=DC(0.)
X-20.674 Y21.898 Z-.202 B5. C=DC(0.),2
X-20.674 Y22.319 Z-.125 B5. C=DC(0.)
X-20.674 Y22.741 Z-.088 B5. C=DC(0.)
X-20.674 Y23.175 Z-.077 B5. C=DC(0.)
X-20.674 Y31.857 Z-.077 B5. C=DC(0.)
X-20.674 Y32.291 Z-.089 B5. C=DC(0.)
X-20.674 Y32.725 Z-.132 B5. C=DC(0.)
X-20.674 Y33.123 Z-.207 B5. C=DC(0.)
X-20.674 Y33.521 Z-.319 B5. C=DC(0.)
X-20.674 Y33.919 Z-.468 B5. C=DC(0.)
X-20.674 Y34.317 Z-.65 B5. C=DC(0.)
X-20.674 Y34.67 Z-.857 B5. C=DC(0.)
X-20.674 Y35.024 Z-1.102 B5. C=DC(0.)
X-20.674 Y35.334 Z-1.356 B5. C=DC(0.)
X-20.674 Y35.643 Z-1.662 B5. C=DC(0.)
X-20.674 Y35.908 Z-1.959 B5. C=DC(0.)
X-20.674 Y36.041 Z-2.138 B5. C=DC(0.)
X-20.674 Y36.174 Z-2.336 B5. C=DC(0.)
X-20.674 Y36.395 Z-2.696 B5. C=DC(0.)
X-20.674 Y36.579 Z-3.075 B5. C=DC(0.)
X-20.674 Y36.671 Z-3.298 B5. C=DC(0.)
X-20.674 Y36.763 Z-3.575 B5. C=DC(0.)
X-20.674 Y36.825 Z-3.765 B5. C=DC(0.)
X-20.674 Y36.886 Z-4.04 B5. C=DC(0.)
X-20.674 Y36.963 Z-4.468 B5. C=DC(0.)
X-20.674 Y36.999 Z-5.025 B5. C=DC(0.)
X-20.674 Y37.001 Z-8.077 B5. C=DC(0.),8
X-20.674 Y37.5 Z-8.077 B5. C=DC(0.),7
X-19.674 Y37.5 Z-8.077 B5. C=DC(0.),7
X-19.674 Y37.001 Z-8.077 B5. C=DC(0.),8
X-19.674 Y36.999 Z-5.013 B5. C=DC(0.)
X-19.674 Y36.962 Z-4.465 B5. C=DC(0.)
X-19.674 Y36.886 Z-4.038 B5. C=DC(0.)
X-19.674 Y36.824 Z-3.763 B5. C=DC(0.)
X-19.674 Y36.67 Z-3.296 B5. C=DC(0.)
X-19.674 Y36.578 Z-3.074 B5. C=DC(0.)
X-19.674 Y36.394 Z-2.695 B5. C=DC(0.)
X-19.674 Y36.173 Z-2.335 B5. C=DC(0.)
X-19.674 Y36.04 Z-2.137 B5. C=DC(0.)
X-19.674 Y35.907 Z-1.958 B5. C=DC(0.)
X-19.674 Y35.642 Z-1.661 B5. C=DC(0.)
X-19.674 Y35.332 Z-1.354 B5. C=DC(0.)
X-19.674 Y35.022 Z-1.1 B5. C=DC(0.)
X-19.674 Y34.669 Z-.856 B5. C=DC(0.)
X-19.674 Y34.315 Z-.649 B5. C=DC(0.)
X-19.674 Y33.216 Z-.468 B5. C=DC(0.),1
X-19.674 Y33.518 Z-.318 B5. C=DC(0.)
X-19.674 Y33.12 Z-.206 B5. C=DC(0.)
X-19.674 Y32.722 Z-.132 B5. C=DC(0.)
X-19.674 Y32.288 Z-.089 B5. C=DC(0.)
X-19.674 Y31.853 Z-.077 B5. C=DC(0.)
X-19.674 Y23.166 Z-.077 B5. C=DC(0.)
X-19.674 Y22.731 Z-.088 B5. C=DC(0.)
X-19.674 Y22.309 Z-.127 B5. C=DC(0.)
X-19.674 Y21.887 Z-.104 B5. C=DC(0.),1
X-19.674 Y21.487 Z-.316 B5. C=DC(0.)
X-19.674 Y21.087 Z-.466 B5. C=DC(0.)
X-19.674 Y20.714 Z-.633 B5. C=DC(0.)
X-19.674 Y20.341 Z-.851 B5. C=DC(0.)
X-19.674 Y20.004 Z-1.078 B5. C=DC(0.)
X-19.674 Y19.668 Z-1.354 B5. C=DC(0.)
X-19.674 Y19.376 Z-1.642 B5. C=DC(0.)
X-19.674 Y19.097 Z-1.953 B5. C=DC(0.)
X-19.674 Y18.855 Z-2.294 B5. C=DC(0.)
X-19.674 Y18.645 Z-2.62 B5. C=DC(0.)
X-19.674 Y18.455 Z-3.006 B5. C=DC(0.)
X-19.674 Y18.318 Z-3.332 B5. C=DC(0.)
X-19.674 Y18.188 Z-3.723 B5. C=DC(0.)
X-19.674 Y18.105 Z-4.088 B5. C=DC(0.)
X-19.674 Y18.051 Z-4.37 B5. C=DC(0.)
X-19.674 Y18.024 Z-4.638 B5. C=DC(0.)
X-19.674 Y18. Z-5.038 B5. C=DC(0.)
X-19.674 Y17.999 Z-8.077 B5. C=DC(0.),8
X-19.674 Y16.812 Z-8.077 B5. C=DC(0.)
X-19.674 Y16.381 Z-8.046 B5. C=DC(0.),8
X-19.674 Y-37.064 Z-.281 B5. C=DC(0.)
X-19.674 Y-37.5 Z-.239 B5. C=DC(0.),7
X-19.424 Y-37.5 Z-.199 B5. C=DC(0.),3
X-19.174 Y-37.5 Z-.166 B5. C=DC(0.),3
X-18.674 Y-37.5 Z-.117 B5. C=DC(0.),7
X-18.674 Y-37.064 Z-.159 B5. C=DC(0.)
X-18.674 Y17.243 Z-8.048 B5. C=DC(0.),8
X-18.674 Y17.674 Z-8.077 B5. C=DC(0.)
X-18.674 Y17.999 Z-8.077 B5. C=DC(0.),8
X-18.674 Y18. Z-5.038 B5. C=DC(0.)
X-18.674 Y18.024 Z-4.638 B5. C=DC(0.)
X-18.674 Y18.051 Z-4.37 B5. C=DC(0.)
X-18.674 Y18.105 Z-4.088 B5. C=DC(0.)
X-18.674 Y18.188 Z-3.723 B5. C=DC(0.)
X-18.674 Y18.318 Z-3.332 B5. C=DC(0.)
X-18.674 Y18.455 Z-3.006 B5. C=DC(0.)
X-18.674 Y18.645 Z-2.62 B5. C=DC(0.)
X-18.674 Y18.855 Z-2.294 B5. C=DC(0.)
X-18.674 Y19.097 Z-1.953 B5. C=DC(0.)
X-18.674 Y19.376 Z-1.642 B5. C=DC(0.)
X-18.674 Y19.668 Z-1.354 B5. C=DC(0.)
X-18.674 Y20.004 Z-1.078 B5. C=DC(0.)
X-18.674 Y20.341 Z-.851 B5. C=DC(0.)
X-18.674 Y20.714 Z-.634 B5. C=DC(0.)
X-18.674 Y21.087 Z-.464 B5. C=DC(0.)
X-18.674 Y21.487 Z-.324 B5. C=DC(0.)
X-18.674 Y21.298 Z-.209 B5. C=DC(0.),2
X-18.674 Y22.319 Z-.137 B5. C=DC(0.)
X-18.674 Y22.753 Z-.105 B5. C=DC(0.)
X-18.674 Y23.187 Z-.102 B5. C=DC(0.)
X-18.674 Y31.862 Z-.102 B5. C=DC(0.)
X-18.674 Y32.295 Z-.107 B5. C=DC(0.)
X-18.674 Y32.729 Z-.144 B5. C=DC(0.)
X-18.674 Y33.127 Z-.214 B5. C=DC(0.)
X-18.674 Y33.524 Z-.327 B5. C=DC(0.)
X-18.674 Y33.922 Z-.467 B5. C=DC(0.)
X-18.674 Y34.319 Z-.653 B5. C=DC(0.)
X-18.674 Y34.673 Z-.859 B5. C=DC(0.)
X-18.674 Y35.026 Z-1.103 B5. C=DC(0.)
X-18.674 Y35.335 Z-1.357 B5. C=DC(0.)
X-18.674 Y35.645 Z-1.664 B5. C=DC(0.)
X-18.674 Y35.91 Z-1.961 B5. C=DC(0.)
X-18.674 Y36.042 Z-2.14 B5. C=DC(0.)
X-18.674 Y36.175 Z-2.338 B5. C=DC(0.)
X-18.674 Y36.396 Z-2.698 B5. C=DC(0.)
X-18.674 Y36.58 Z-3.076 B5. C=DC(0.)
X-18.674 Y36.672 Z-3.3 B5. C=DC(0.)
X-18.674 Y36.764 Z-3.577 B5. C=DC(0.)
X-18.674 Y36.825 Z-3.767 B5. C=DC(0.)
X-18.674 Y36.886 Z-4.043 B5. C=DC(0.)
X-18.674 Y36.963 Z-4.472 B5. C=DC(0.)
X-18.674 Y36.988 Z-4.818 B5. C=DC(0.)
X-18.674 Y37. Z-5.044 B5. C=DC(0.)
X-18.674 Y37.001 Z-8.077 B5. C=DC(0.),8
X-18.674 Y37.5 Z-8.077 B5. C=DC(0.),7
X-17.674 Y37.5 Z-8.077 B5. C=DC(0.),7
X-17.674 Y36.961 Z-8.077 B5. C=DC(0.),8
X-17.674 Y36.959 Z-5.009 B5. C=DC(0.)
X-17.674 Y36.926 Z-4.518 B5. C=DC(0.)
X-17.674 Y36.857 Z-4.106 B5. C=DC(0.)
X-17.674 Y36.792 Z-3.812 B5. C=DC(0.)
X-17.674 Y36.728 Z-3.585 B5. C=DC(0.)
X-17.674 Y36.574 Z-3.176 B5. C=DC(0.)
X-17.674 Y36.388 Z-2.79 B5. C=DC(0.)
X-17.674 Y36.166 Z-2.407 B5. C=DC(0.)
X-17.674 Y35.899 Z-2.059 B5. C=DC(0.)
X-17.674 Y35.632 Z-1.747 B5. C=DC(0.)
X-17.674 Y35.321 Z-1.457 B5. C=DC(0.)
X-17.674 Y35.01 Z-1.197 B5. C=DC(0.)
X-17.674 Y34.654 Z-.972 B5. C=DC(0.)
X-17.674 Y34.298 Z-.775 B5. C=DC(0.)
X-17.674 Y33.898 Z-.604 B5. C=DC(0.)
X-17.674 Y33.498 Z-.474 B5. C=DC(0.)
X-17.674 Y33.097 Z-.378 B5. C=DC(0.)
X-17.674 Y32.697 Z-.333 B5. C=DC(0.)
X-17.674 Y32.26 Z-.309 B5. C=DC(0.)
X-17.674 Y30.951 Z-.313 B5. C=DC(0.),6
X-17.674 Y23.091 Z-.309 B5. C=DC(0.)
X-17.674 Y22.655 Z-.31 B5. C=DC(0.)
X-17.674 Y22.23 Z-.34 B5. C=DC(0.)
X-17.674 Y21.806 Z-.397 B5. C=DC(0.)
X-17.674 Y21.893 Z-.508 B5. C=DC(0.),2
X-17.674 Y20.991 Z-.643 B5. C=DC(0.)
X-17.674 Y20.615 Z-.822 B5. C=DC(0.)
X-17.674 Y20.24 Z-1.033 B5. C=DC(0.)
X-17.674 Y19.908 Z-1.264 B5. C=DC(0.)
X-17.674 Y19.582 Z-1.546 B5. C=DC(0.)
X-17.674 Y19.293 Z-1.828 B5. C=DC(0.)
X-17.674 Y19.022 Z-2.156 B5. C=DC(0.)
X-17.674 Y18.799 Z-2.464 B5. C=DC(0.)
X-17.674 Y18.584 Z-2.839 B5. C=DC(0.)
X-17.674 Y18.428 Z-3.173 B5. C=DC(0.)
X-17.674 Y18.28 Z-3.563 B5. C=DC(0.)
X-17.674 Y18.186 Z-3.911 B5. C=DC(0.)
X-17.674 Y18.105 Z-4.286 B5. C=DC(0.)
X-17.674 Y18.078 Z-4.477 B5. C=DC(0.)
X-17.674 Y18.041 Z-5.007 B5. C=DC(0.)
X-17.674 Y18.039 Z-8.077 B5. C=DC(0.),8
X-17.674 Y17.674 Z-8.031 B5. C=DC(0.),8
X-17.674 Y-37.064 Z-.074 B5. C=DC(0.)
X-17.674 Y-37.5 Z-.032 B5. C=DC(0.),7
X-16.674 Y-37.5 Z.001 B5. C=DC(0.),7
X-16.674 Y-37.064 Z-.042 B5. C=DC(0.)
X-16.674 Y18.105 Z-8.06 B5. C=DC(0.),8
X-16.674 Y18.292 Z-8.077 B5. C=DC(0.),8
X-16.674 Y18.293 Z-5.008 B5. C=DC(0.)
X-16.674 Y18.347 Z-4.39 B5. C=DC(0.)
X-16.674 Y18.428 Z-4.024 B5. C=DC(0.)
X-16.674 Y18.536 Z-3.64 B5. C=DC(0.)
X-16.674 Y18.665 Z-3.326 B5. C=DC(0.)
X-16.674 Y18.857 Z-2.939 B5. C=DC(0.)
X-16.674 Y19.055 Z-2.622 B5. C=DC(0.)
X-16.674 Y19.311 Z-2.275 B5. C=DC(0.)
X-16.674 Y19.571 Z-1.981 B5. C=DC(0.)
X-16.674 Y19.891 Z-1.701 B5. C=DC(0.)
X-16.674 Y20.224 Z-1.449 B5. C=DC(0.)
X-16.674 Y20.584 Z-1.238 B5. C=DC(0.)
X-16.674 Y20.968 Z-1.052 B5. C=DC(0.)
X-16.674 Y21.371 Z-.919 B5. C=DC(0.)
X-16.674 Y21.785 Z-.814 B5. C=DC(0.)
X-16.674 Y22.21 Z-.763 B5. C=DC(0.)
X-16.674 Y22.646 Z-.758 B5. C=DC(0.)
X-16.674 Y32.258 Z-.758 B5. C=DC(0.)
X-16.674 Y32.694 Z-.759 B5. C=DC(0.)
X-16.674 Y33.131 Z-.799 B5. C=DC(0.)
X-16.674 Y33.528 Z-.895 B5. C=DC(0.)
X-16.674 Y33.926 Z-1.01 B5. C=DC(0.)
X-16.674 Y34.323 Z-1.19 B5. C=DC(0.)
X-16.674 Y34.676 Z-1.386 B5. C=DC(0.)
X-16.674 Y35.029 Z-1.635 B5. C=DC(0.)
X-16.674 Y35.338 Z-1.898 B5. C=DC(0.)
X-16.674 Y35.647 Z-2.219 B5. C=DC(0.)
X-16.674 Y35.911 Z-2.575 B5. C=DC(0.)
X-16.674 Y36.138 Z-2.93 B5. C=DC(0.)
X-16.674 Y36.333 Z-3.322 B5. C=DC(0.)
X-16.674 Y36.416 Z-3.504 B5. C=DC(0.)
X-16.674 Y36.5 Z-3.763 B5. C=DC(0.)
X-16.674 Y36.611 Z-4.166 B5. C=DC(0.)
X-16.674 Y36.66 Z-4.46 B5. C=DC(0.)
X-16.674 Y36.706 Z-5.002 B5. C=DC(0.)
X-16.674 Y36.708 Z-8.077 B5. C=DC(0.),8
X-16.674 Y37.5 Z-8.077 B5. C=DC(0.),7
X-15.674 Y37.5 Z-8.077 B5. C=DC(0.),7
X-15.674 Y36.111 Z-8.077 B5. C=DC(0.),8
X-15.674 Y36.109 Z-5.011 B5. C=DC(0.)
X-15.674 Y36.091 Z-4.817 B5. C=DC(0.)
X-15.674 Y36.056 Z-4.512 B5. C=DC(0.)
X-15.674 Y36.02 Z-4.27 B5. C=DC(0.)
X-15.674 Y35.95 Z-4.029 B5. C=DC(0.)
X-15.674 Y35.809 Z-3.628 B5. C=DC(0.)
X-15.674 Y35.703 Z-3.382 B5. C=DC(0.)
X-15.674 Y35.598 Z-3.207 B5. C=DC(0.)
X-15.674 Y35.36 Z-2.851 B5. C=DC(0.)
X-15.674 Y35.207 Z-2.667 B5. C=DC(0.)
X-15.674 Y35.054 Z-2.522 B5. C=DC(0.)
X-15.674 Y34.748 Z-2.238 B5. C=DC(0.)
X-15.674 Y34.552 Z-2.083 B5. C=DC(0.)
X-15.674 Y34.355 Z-1.972 B5. C=DC(0.)
X-15.674 Y34.006 Z-1.796 B5. C=DC(0.)
X-15.674 Y33.618 Z-1.646 B5. C=DC(0.)
X-15.674 Y33.186 Z-1.555 B5. C=DC(0.)
X-15.674 Y32.755 Z-1.508 B5. C=DC(0.)
X-15.674 Y32.323 Z-1.507 B5. C=DC(0.)
X-15.674 Y22.401 Z-1.507 B5. C=DC(0.)
X-15.674 Y21.97 Z-1.539 B5. C=DC(0.)
X-15.674 Y21.55 Z-1.608 B5. C=DC(0.)
X-15.674 Y21.152 Z-1.721 B5. C=DC(0.)
X-15.674 Y20.762 Z-1.912 B5. C=DC(0.)
X-15.674 Y20.406 Z-2.112 B5. C=DC(0.)
X-15.674 Y20.09 Z-2.388 B5. C=DC(0.)
X-15.674 Y19.789 Z-2.671 B5. C=DC(0.)
X-15.674 Y19.547 Z-2.986 B5. C=DC(0.)
X-15.674 Y19.328 Z-3.326 B5. C=DC(0.)
X-15.674 Y19.184 Z-3.649 B5. C=DC(0.)
X-15.674 Y19.039 Z-4.06 B5. C=DC(0.)
X-15.674 Y18.967 Z-4.337 B5. C=DC(0.)
X-15.674 Y18.913 Z-4.786 B5. C=DC(0.)
X-15.674 Y18.891 Z-5.01 B5. C=DC(0.)
X-15.674 Y18.889 Z-8.077 B5. C=DC(0.),8
X-15.674 Y18.536 Z-8.077 B5. C=DC(0.)
X-15.674 Y18.105 Z-8.071 B5. C=DC(0.),8
X-15.674 Y-9.049 Z-4.132 B5. C=DC(0.),6
X-15.674 Y-37.064 Z-.058 B5. C=DC(0.)
X-15.674 Y-37.5 Z-.015 B5. C=DC(0.),7
X-15.174 Y-37.5 Z-.032 B5. C=DC(0.),3
X-14.924 Y-37.5 Z-.045 B5. C=DC(0.),3
X-14.674 Y-37.5 Z-.068 B5. C=DC(0.),7
X-14.674 Y-37.064 Z-.111 B5. C=DC(0.)
X-14.674 Y17.674 Z-8.065 B5. C=DC(0.),8
X-14.674 Y18.105 Z-8.077 B5. C=DC(0.)
X-14.674 Y20.083 Z-8.077 B5. C=DC(0.),8
X-14.674 Y20.085 Z-5.021 B5. C=DC(0.)
X-14.674 Y20.152 Z-4.609 B5. C=DC(0.)
X-14.674 Y20.26 Z-4.197 B5. C=DC(0.)
X-14.674 Y20.439 Z-3.867 B5. C=DC(0.)
X-14.674 Y20.658 Z-3.547 B5. C=DC(0.)
X-14.674 Y20.959 Z-3.317 B5. C=DC(0.)
X-14.674 Y21.318 Z-3.074 B5. C=DC(0.)
X-14.674 Y21.695 Z-2.963 B5. C=DC(0.)
X-14.674 Y22.122 Z-2.913 B5. C=DC(0.)
X-14.674 Y32.801 Z-2.913 B5. C=DC(0.)
X-14.674 Y33.228 Z-2.951 B5. C=DC(0.)
X-14.674 Y33.655 Z-3.06 B5. C=DC(0.)
X-14.674 Y33.848 Z-3.186 B5. C=DC(0.)
X-14.674 Y34.04 Z-3.323 B5. C=DC(0.)
X-14.674 Y34.386 Z-3.597 B5. C=DC(0.)
X-14.674 Y34.516 Z-3.791 B5. C=DC(0.)
X-14.674 Y34.645 Z-4.018 B5. C=DC(0.)
X-14.674 Y34.747 Z-4.213 B5. C=DC(0.)
X-14.674 Y34.849 Z-4.621 B5. C=DC(0.)
X-14.674 Y34.916 Z-5.026 B5. C=DC(0.)
X-14.674 Y34.918 Z-8.077 B5. C=DC(0.),8
X-14.674 Y37.5 Z-8.077 B5. C=DC(0.),7
X-13.674 Y37.5 Z-8.077 B5. C=DC(0.),7
X-13.674 Y17.243 Z-8.077 B5. C=DC(0.),8
X-13.674 Y16.812 Z-8.042 B5. C=DC(0.)
X-13.674 Y-37.064 Z-.207 B5. C=DC(0.)
X-13.674 Y-37.5 Z-.165 B5. C=DC(0.),7
X-13.424 Y-37.5 Z-.199 B5. C=DC(0.),3
X-12.674 Y-37.5 Z-.32 B5. C=DC(0.),7
X-12.674 Y-37.064 Z-.363 B5. C=DC(0.)
X-12.674 Y-4.308 Z-5.127 B5. C=DC(0.),6
X-12.674 Y15.95 Z-8.064 B5. C=DC(0.),8
X-12.674 Y16.381 Z-8.077 B5. C=DC(0.)
X-12.674 Y37.5 Z-8.077 B5. C=DC(0.),7
X-11.674 Y37.5 Z-8.077 B5. C=DC(0.),7
X-11.674 Y15.088 Z-8.077 B5. C=DC(0.)
X-11.674 Y14.657 Z-8.07 B5. C=DC(0.),8
X-11.674 Y-3.877 Z-5.377 B5. C=DC(0.),6
X-11.674 Y-21.548 Z-2.813 B5. C=DC(0.),6
X-11.674 Y-37.064 Z-.557 B5. C=DC(0.)
X-11.674 Y-37.5 Z-.514 B5. C=DC(0.),7
X-10.924 Y-37.5 Z-.686 B5. C=DC(0.),3
X-10.674 Y-37.5 Z-.748 B5. C=DC(0.),7
X-10.674 Y-37.064 Z-.791 B5. C=DC(0.)
X-10.674 Y13.035 Z-8.076 B5. C=DC(0.),8
X-10.674 Y13.037 Z-8.077 B5. C=DC(0.),3
X-10.674 Y37.5 Z-8.077 B5. C=DC(0.),7
X-9.674 Y37.5 Z-8.077 B5. C=DC(0.),7
X-9.674 Y11.025 Z-8.077 B5. C=DC(0.),8
X-9.674 Y11.023 Z-8.076 B5. C=DC(0.),3
X-9.674 Y1.296 Z-6.668 B5. C=DC(0.),6
X-9.674 Y-37.064 Z-1.089 B5. C=DC(0.)
X-9.674 Y-37.5 Z-1.046 B5. C=DC(0.),7
X-9.432 Y-37.5 Z-1.119 B5. C=DC(0.),3
X-9.174 Y-37.5 Z-1.21 B5. C=DC(0.),3
X-8.674 Y-37.5 Z-1.393 B5. C=DC(0.),7
X-8.674 Y-37.064 Z-1.437 B5. C=DC(0.)
X-8.674 Y-14.221 Z-4.759 B5. C=DC(0.),6
X-8.674 Y8.66 Z-8.076 B5. C=DC(0.),8
X-8.674 Y8.661 Z-8.077 B5. C=DC(0.),3
X-8.674 Y37.5 Z-8.077 B5. C=DC(0.),7
X-7.674 Y37.5 Z-8.077 B5. C=DC(0.),7
X-7.674 Y5.924 Z-8.077 B5. C=DC(0.),8
X-7.674 Y5.922 Z-8.076 B5. C=DC(0.),3
X-7.674 Y-37.064 Z-1.833 B5. C=DC(0.)
X-7.674 Y-37.5 Z-1.789 B5. C=DC(0.),7
X-6.799 Y-37.5 Z-2.178 B5. C=DC(0.),3
X-6.721 Y-37.5 Z-2.214 B5. C=DC(0.),3
X-6.674 Y-37.5 Z-2.236 B5. C=DC(0.),7
X-6.674 Y-37.064 Z-2.281 B5. C=DC(0.)
X-6.674 Y2.789 Z-8.076 B5. C=DC(0.),8
X-6.674 Y2.791 Z-8.077 B5. C=DC(0.),3
X-6.674 Y37.5 Z-8.077 B5. C=DC(0.),7
X-5.674 Y37.5 Z-8.077 B5. C=DC(0.),7
X-5.674 Y-.779 Z-8.077 B5. C=DC(0.),8
X-5.674 Y-.78 Z-8.076 B5. C=DC(0.),3
X-5.674 Y-6.032 Z-7.317 B5. C=DC(0.),6
X-5.674 Y-37.064 Z-2.804 B5. C=DC(0.)
X-5.674 Y-37.5 Z-2.759 B5. C=DC(0.),7
X-5.549 Y-37.5 Z-2.825 B5. C=DC(0.),3
X-5.424 Y-37.5 Z-2.893 B5. C=DC(0.),3
X-4.674 Y-37.5 Z-3.347 B5. C=DC(0.),7
X-4.674 Y-37.064 Z-3.392 B5. C=DC(0.)
X-4.674 Y-16.807 Z-6.338 B5. C=DC(0.),6
X-4.674 Y-4.789 Z-8.077 B5. C=DC(0.),8
X-4.674 Y-4.787 Z-8.077 B5. C=DC(0.),3
X-4.674 Y37.5 Z-8.077 B5. C=DC(0.),7
X-3.674 Y37.5 Z-8.077 B5. C=DC(0.),7
X-3.674 Y-9.293 Z-8.077 B5. C=DC(0.),8
X-3.674 Y-9.294 Z-8.076 B5. C=DC(0.),3
X-3.674 Y-24.996 Z-5.805 B5. C=DC(0.),6
X-3.674 Y-37.064 Z-4.049 B5. C=DC(0.)
X-3.674 Y-37.5 Z-4.003 B5. C=DC(0.),7
X-3.174 Y-37.5 Z-4.354 B5. C=DC(0.),3
X-2.924 Y-37.5 Z-4.54 B5. C=DC(0.),3
X-2.674 Y-37.5 Z-4.738 B5. C=DC(0.),7
X-2.674 Y-37.064 Z-4.785 B5. C=DC(0.)
X-2.674 Y-30.599 Z-5.725 B5. C=DC(0.),6
X-2.674 Y-21.979 Z-6.971 B5. C=DC(0.),6
X-2.674 Y-14.362 Z-8.076 B5. C=DC(0.),8
X-2.674 Y-14.36 Z-8.077 B5. C=DC(0.),3
X-2.674 Y37.5 Z-8.077 B5. C=DC(0.),7
X-1.674 Y37.5 Z-8.077 B5. C=DC(0.),7
X-1.674 Y-20.044 Z-8.077 B5. C=DC(0.),8
X-1.674 Y-20.046 Z-8.076 B5. C=DC(0.),3
X-1.674 Y-37.064 Z-5.61 B5. C=DC(0.)
X-1.674 Y-37.5 Z-5.562 B5. C=DC(0.),7
X-.924 Y-37.5 Z-6.245 B5. C=DC(0.),3
X-.799 Y-37.5 Z-6.364 B5. C=DC(0.),3
X-.674 Y-37.5 Z-6.492 B5. C=DC(0.),7
X-.674 Y-37.064 Z-6.541 B5. C=DC(0.)
X-.674 Y-26.454 Z-8.076 B5. C=DC(0.),8
X-.674 Y-26.452 Z-8.077 B5. C=DC(0.),3
X-.674 Y33.726 Z-8.077 B5. C=DC(0.),8
X-.674 Y33.727 Z-8.076 B5. C=DC(0.),3
X-.674 Y37.081 Z-7.595 B5. C=DC(0.)
X-.674 Y37.5 Z-7.548 B5. C=DC(0.),7
X-.549 Y37.5 Z-7.403 B5. C=DC(0.),3
X-.424 Y37.5 Z-7.267 B5. C=DC(0.),3
X.326 Y37.5 Z-6.492 B5. C=DC(0.),7
X.326 Y37.075 Z-6.539 B5. C=DC(0.)
X.326 Y26.455 Z-8.076 B5. C=DC(0.),8
X.326 Y26.453 Z-8.077 B5. C=DC(0.),3
X.326 Y-33.725 Z-8.077 B5. C=DC(0.),8
X.326 Y-33.727 Z-8.076 B5. C=DC(0.),3
X.326 Y-37.064 Z-7.598 B5. C=DC(0.)
X.326 Y-37.5 Z-7.548 B5. C=DC(0.),7
X1.326 Y-37.5 Z-8.077 B5. C=DC(0.),7
X1.326 Y20.045 Z-8.077 B5. C=DC(0.),8
X1.326 Y20.046 Z-8.076 B5. C=DC(0.),3
X1.326 Y37.074 Z-5.609 B5. C=DC(0.)
X1.326 Y37.5 Z-5.562 B5. C=DC(0.),7
X1.451 Y37.5 Z-5.45 B5. C=DC(0.),3
X1.576 Y37.5 Z-5.338 B5. C=DC(0.),3
X1.826 Y37.5 Z-5.138 B5. C=DC(0.),3
X2.326 Y37.5 Z-4.738 B5. C=DC(0.),7
X2.326 Y37.072 Z-4.784 B5. C=DC(0.)
X2.326 Y30.644 Z-5.719 B5. C=DC(0.),6
X2.326 Y22.075 Z-6.957 B5. C=DC(0.),6
X2.326 Y14.362 Z-8.076 B5. C=DC(0.),8
X2.326 Y14.361 Z-8.077 B5. C=DC(0.),3
X2.326 Y-37.5 Z-8.077 B5. C=DC(0.),7
X3.326 Y-37.5 Z-8.077 B5. C=DC(0.),7
X3.326 Y9.293 Z-8.077 B5. C=DC(0.),8
X3.326 Y9.295 Z-8.076 B5. C=DC(0.),3
X3.326 Y25.107 Z-5.788 B5. C=DC(0.),6
X3.326 Y37.073 Z-4.048 B5. C=DC(0.)
X3.326 Y37.5 Z-4.003 B5. C=DC(0.),7
X3.81 Y37.5 Z-3.666 B5. C=DC(0.),3
X4.076 Y37.5 Z-3.499 B5. C=DC(0.),3
X4.326 Y37.5 Z-3.347 B5. C=DC(0.),7
X4.326 Y37.07 Z-3.391 B5. C=DC(0.)
X4.326 Y16.841 Z-6.333 B5. C=DC(0.),6
X4.326 Y4.79 Z-8.076 B5. C=DC(0.),8
X4.326 Y4.788 Z-8.077 B5. C=DC(0.),3
X4.326 Y-37.5 Z-8.077 B5. C=DC(0.),7
X5.326 Y-37.5 Z-8.077 B5. C=DC(0.),7
X5.326 Y.778 Z-8.077 B5. C=DC(0.),8
X5.326 Y.78 Z-8.076 B5. C=DC(0.),3
X5.326 Y5.964 Z-7.327 B5. C=DC(0.),6
X5.326 Y37.068 Z-2.803 B5. C=DC(0.)
X5.326 Y37.5 Z-2.759 B5. C=DC(0.),7
X6.326 Y37.5 Z-2.236 B5. C=DC(0.),7
X6.326 Y37.071 Z-2.28 B5. C=DC(0.)
X6.326 Y-2.788 Z-8.076 B5. C=DC(0.),8
X6.326 Y-2.79 Z-8.077 B5. C=DC(0.),3
X6.326 Y-37.5 Z-8.077 B5. C=DC(0.),7
X7.326 Y-37.5 Z-8.077 B5. C=DC(0.),7
X7.326 Y-5.924 Z-8.077 B5. C=DC(0.),8
X7.326 Y-5.922 Z-8.076 B5. C=DC(0.),3
X7.326 Y37.07 Z-1.832 B5. C=DC(0.)
X7.326 Y37.5 Z-1.789 B5. C=DC(0.),7
X7.576 Y37.5 Z-1.679 B5. C=DC(0.),3
X7.826 Y37.5 Z-1.579 B5. C=DC(0.),3
X8.326 Y37.5 Z-1.393 B5. C=DC(0.),7
X8.326 Y37.069 Z-1.436 B5. C=DC(0.)
X8.326 Y14.204 Z-4.762 B5. C=DC(0.),6
X8.326 Y-8.66 Z-8.076 B5. C=DC(0.),8
X8.326 Y-8.661 Z-8.077 B5. C=DC(0.),3
X8.326 Y-37.5 Z-8.077 B5. C=DC(0.),7
X9.326 Y-37.5 Z-8.077 B5. C=DC(0.),7
X9.326 Y-11.026 Z-8.077 B5. C=DC(0.),8
X9.326 Y-11.024 Z-8.076 B5. C=DC(0.),3
X9.326 Y-1.147 Z-6.646 B5. C=DC(0.),6
X9.326 Y37.071 Z-1.088 B5. C=DC(0.)
X9.326 Y37.5 Z-1.046 B5. C=DC(0.),7
X10.326 Y37.5 Z-.748 B5. C=DC(0.),7
X10.326 Y37.068 Z-.791 B5. C=DC(0.)
X10.326 Y-13.035 Z-8.076 B5. C=DC(0.),8
X10.326 Y-13.037 Z-8.077 B5. C=DC(0.),3
X10.326 Y-37.5 Z-8.077 B5. C=DC(0.),7
X11.326 Y-37.5 Z-8.077 B5. C=DC(0.),7
X11.326 Y-14.826 Z-8.077 B5. C=DC(0.),8
X11.326 Y-14.39 Z-8.031 B5. C=DC(0.)
X11.326 Y3.772 Z-5.392 B5. C=DC(0.),6
X11.326 Y21.501 Z-2.82 B5. C=DC(0.),6
X11.326 Y37.068 Z-.556 B5. C=DC(0.)
X11.326 Y37.5 Z-.514 B5. C=DC(0.),7
X11.576 Y37.5 Z-.457 B5. C=DC(0.),3
X11.826 Y37.5 Z-.402 B5. C=DC(0.),3
X12.326 Y37.5 Z-.32 B5. C=DC(0.),7
X12.326 Y37.067 Z-.362 B5. C=DC(0.)
X12.326 Y3.765 Z-5.205 B5. C=DC(0.),6
X12.326 Y-15.698 Z-8.027 B5. C=DC(0.)
X12.326 Y-16.134 Z-8.077 B5. C=DC(0.),8
X12.326 Y-37.5 Z-8.077 B5. C=DC(0.),7
X13.326 Y-37.5 Z-8.077 B5. C=DC(0.),7
X13.326 Y-17.442 Z-8.077 B5. C=DC(0.),8
X13.326 Y-17.006 Z-8.07 B5. C=DC(0.)
X13.326 Y37.067 Z-.207 B5. C=DC(0.)
X13.326 Y37.5 Z-.165 B5. C=DC(0.),7
X14.326 Y37.5 Z-.068 B5. C=DC(0.),7
X14.326 Y37.067 Z-.11 B5. C=DC(0.)
X14.326 Y-17.465 Z-8.034 B5. C=DC(0.)
X14.326 Y-17.901 Z-8.077 B5. C=DC(0.),8
X14.326 Y-20.082 Z-8.077 B5. C=DC(0.),8
X14.326 Y-20.084 Z-5.025 B5. C=DC(0.)
X14.326 Y-20.13 Z-4.729 B5. C=DC(0.)
X14.326 Y-20.183 Z-4.441 B5. C=DC(0.)
X14.326 Y-20.341 Z-4.043 B5. C=DC(0.)
X14.326 Y-20.482 Z-3.794 B5. C=DC(0.)
X14.326 Y-20.624 Z-3.585 B5. C=DC(0.)
X14.326 Y-20.804 Z-3.424 B5. C=DC(0.)
X14.326 Y-21.182 Z-3.163 B5. C=DC(0.)
X14.326 Y-21.381 Z-3.043 B5. C=DC(0.)
X14.326 Y-21.811 Z-2.946 B5. C=DC(0.)
X14.326 Y-22.247 Z-2.913 B5. C=DC(0.)
X14.326 Y-32.713 Z-2.913 B5. C=DC(0.)
X14.326 Y-33.144 Z-2.939 B5. C=DC(0.)
X14.326 Y-33.555 Z-3.017 B5. C=DC(0.)
X14.326 Y-33.903 Z-3.228 B5. C=DC(0.)
X14.326 Y-34.246 Z-3.461 B5. C=DC(0.)
X14.326 Y-34.477 Z-3.727 B5. C=DC(0.)
X14.326 Y-34.693 Z-4.104 B5. C=DC(0.)
X14.326 Y-34.802 Z-4.37 B5. C=DC(0.)
X14.326 Y-34.881 Z-4.795 B5. C=DC(0.)
X14.326 Y-34.916 Z-5.036 B5. C=DC(0.)
X14.326 Y-34.918 Z-8.077 B5. C=DC(0.),8
X14.326 Y-37.5 Z-8.077 B5. C=DC(0.),7
X15.326 Y-37.5 Z-8.077 B5. C=DC(0.),7
X15.326 Y-36.112 Z-8.077 B5. C=DC(0.),8
X15.326 Y-36.11 Z-5.045 B5. C=DC(0.)
X15.326 Y-36.083 Z-4.748 B5. C=DC(0.)
X15.326 Y-36.028 Z-4.31 B5. C=DC(0.)
X15.326 Y-35.974 Z-4.099 B5. C=DC(0.)
X15.326 Y-35.865 Z-3.787 B5. C=DC(0.)
X15.326 Y-35.756 Z-3.491 B5. C=DC(0.)
X15.326 Y-35.581 Z-3.18 B5. C=DC(0.)
X15.326 Y-35.345 Z-2.83 B5. C=DC(0.)
X15.326 Y-35.087 Z-2.552 B5. C=DC(0.)
X15.326 Y-34.765 Z-2.253 B5. C=DC(0.)
X15.326 Y-34.444 Z-2.018 B5. C=DC(0.)
X15.326 Y-34.061 Z-1.826 B5. C=DC(0.)
X15.326 Y-33.677 Z-1.661 B5. C=DC(0.)
X15.326 Y-33.256 Z-1.566 B5. C=DC(0.)
X15.326 Y-32.827 Z-1.513 B5. C=DC(0.)
X15.326 Y-32.393 Z-1.507 B5. C=DC(0.)
X15.326 Y-22.346 Z-1.507 B5. C=DC(0.)
X15.326 Y-21.909 Z-1.544 B5. C=DC(0.)
X15.326 Y-21.475 Z-1.624 B5. C=DC(0.)
X15.326 Y-21.261 Z-1.68 B5. C=DC(0.)
X15.326 Y-21.048 Z-1.769 B5. C=DC(0.)
X15.326 Y-20.657 Z-1.965 B5. C=DC(0.)
X15.326 Y-20.464 Z-2.073 B5. C=DC(0.)
X15.326 Y-20.27 Z-2.221 B5. C=DC(0.)
X15.326 Y-19.945 Z-2.522 B5. C=DC(0.)
X15.326 Y-19.786 Z-2.675 B5. C=DC(0.)
X15.326 Y-19.626 Z-2.871 B5. C=DC(0.)
X15.326 Y-19.501 Z-3.055 B5. C=DC(0.)
X15.326 Y-19.377 Z-3.247 B5. C=DC(0.)
X15.326 Y-19.26 Z-3.456 B5. C=DC(0.)
X15.326 Y-19.143 Z-3.764 B5. C=DC(0.)
X15.326 Y-19.071 Z-3.97 B5. C=DC(0.)
X15.326 Y-18.999 Z-4.191 B5. C=DC(0.)
X15.326 Y-18.942 Z-4.532 B5. C=DC(0.)
X15.326 Y-18.9 Z-4.898 B5. C=DC(0.)
X15.326 Y-18.891 Z-5.008 B5. C=DC(0.)
X15.326 Y-18.889 Z-8.077 B5. C=DC(0.),8
X15.326 Y-18.452 Z-8.077 B5. C=DC(0.),8
X15.326 Y-18.015 Z-8.058 B5. C=DC(0.)
X15.326 Y9.097 Z-4.125 B5. C=DC(0.),6
X15.326 Y37.07 Z-.057 B5. C=DC(0.)
X15.326 Y37.5 Z-.015 B5. C=DC(0.),7
X15.826 Y37.5 Z0. B5. C=DC(0.),3
X16.076 Y37.5 Z.007 B5. C=DC(0.),3
X16.326 Y37.5 Z.001 B5. C=DC(0.),7
X16.326 Y37.068 Z-.041 B5. C=DC(0.)
X16.326 Y-17.856 Z-8.024 B5. C=DC(0.),8
X16.326 Y-18.291 Z-8.077 B5. C=DC(0.),8
X16.326 Y-18.294 Z-5.001 B5. C=DC(0.)
X16.326 Y-18.322 Z-4.662 B5. C=DC(0.)
X16.326 Y-18.356 Z-4.326 B5. C=DC(0.)
X16.326 Y-18.415 Z-4.072 B5. C=DC(0.)
X16.326 Y-18.473 Z-3.86 B5. C=DC(0.)
X16.326 Y-18.57 Z-3.541 B5. C=DC(0.)
X16.326 Y-18.666 Z-3.324 B5. C=DC(0.)
X16.326 Y-18.869 Z-2.915 B5. C=DC(0.)
X16.326 Y-18.999 Z-2.701 B5. C=DC(0.)
X16.326 Y-19.269 Z-2.333 B5. C=DC(0.)
X16.326 Y-19.41 Z-2.149 B5. C=DC(0.)
X16.326 Y-19.574 Z-1.978 B5. C=DC(0.)
X16.326 Y-19.739 Z-1.831 B5. C=DC(0.)
X16.326 Y-19.914 Z-1.683 B5. C=DC(0.)
X16.326 Y-20.09 Z-1.542 B5. C=DC(0.)
X16.326 Y-20.279 Z-1.414 B5. C=DC(0.)
X16.326 Y-20.469 Z-1.301 B5. C=DC(0.)
X16.326 Y-20.866 Z-1.097 B5. C=DC(0.)
X16.326 Y-21.076 Z-1.009 B5. C=DC(0.)
X16.326 Y-21.285 Z-.942 B5. C=DC(0.)
X16.326 Y-21.711 Z-.829 B5. C=DC(0.)
X16.326 Y-22.147 Z-.767 B5. C=DC(0.)
X16.326 Y-22.582 Z-.758 B5. C=DC(0.)
X16.326 Y-32.596 Z-.758 B5. C=DC(0.)
X16.326 Y-33.029 Z-.785 B5. C=DC(0.)
X16.326 Y-33.446 Z-.871 B5. C=DC(0.)
X16.326 Y-33.861 Z-.987 B5. C=DC(0.)
X16.326 Y-34.251 Z-1.154 B5. C=DC(0.)
X16.326 Y-34.626 Z-1.356 B5. C=DC(0.)
X16.326 Y-34.97 Z-1.587 B5. C=DC(0.)
X16.326 Y-35.298 Z-1.863 B5. C=DC(0.)
X16.326 Y-35.582 Z-2.139 B5. C=DC(0.)
X16.326 Y-35.844 Z-2.482 B5. C=DC(0.)
X16.326 Y-36.07 Z-2.807 B5. C=DC(0.)
X16.326 Y-36.263 Z-3.179 B5. C=DC(0.)
X16.326 Y-36.422 Z-3.517 B5. C=DC(0.)
X16.326 Y-36.538 Z-3.903 B5. C=DC(0.)
X16.326 Y-36.628 Z-4.241 B5. C=DC(0.)
X16.326 Y-36.655 Z-4.41 B5. C=DC(0.)
X16.326 Y-36.706 Z-4.997 B5. C=DC(0.)
X16.326 Y-36.708 Z-8.077 B5. C=DC(0.),8
X16.326 Y-37.5 Z-8.077 B5. C=DC(0.),7
X17.326 Y-37.5 Z-8.077 B5. C=DC(0.),7
X17.326 Y-36.962 Z-8.077 B5. C=DC(0.),8
X17.326 Y-36.96 Z-5.038 B5. C=DC(0.)
X17.326 Y-36.955 Z-4.928 B5. C=DC(0.)
X17.326 Y-36.928 Z-4.547 B5. C=DC(0.)
X17.326 Y-36.9 Z-4.314 B5. C=DC(0.)
X17.326 Y-36.791 Z-3.808 B5. C=DC(0.)
X17.326 Y-36.737 Z-3.612 B5. C=DC(0.)
X17.326 Y-36.628 Z-3.319 B5. C=DC(0.)
X17.326 Y-36.473 Z-2.943 B5. C=DC(0.)
X17.326 Y-36.274 Z-2.591 B5. C=DC(0.)
X17.326 Y-36.057 Z-2.254 B5. C=DC(0.)
X17.326 Y-35.786 Z-1.92 B5. C=DC(0.)
X17.326 Y-35.509 Z-1.626 B5. C=DC(0.)
X17.326 Y-35.188 Z-1.345 B5. C=DC(0.)
X17.326 Y-34.855 Z-1.09 B5. C=DC(0.)
X17.326 Y-34.484 Z-.874 B5. C=DC(0.)
X17.326 Y-34.101 Z-.679 B5. C=DC(0.)
X17.326 Y-33.699 Z-.538 B5. C=DC(0.)
X17.326 Y-33.282 Z-.417 B5. C=DC(0.)
X17.326 Y-32.858 Z-.35 B5. C=DC(0.)
X17.326 Y-32.424 Z-.315 B5. C=DC(0.)
X17.326 Y-31.99 Z-.309 B5. C=DC(0.)
X17.326 Y-24.123 Z-.313 B5. C=DC(0.),6
X17.326 Y-22.812 Z-.309 B5. C=DC(0.)
X17.326 Y-22.375 Z-.326 B5. C=DC(0.)
X17.326 Y-21.941 Z-.372 B5. C=DC(0.)
X17.326 Y-21.51 Z-.472 B5. C=DC(0.)
X17.326 Y-21.092 Z-.608 B5. C=DC(0.)
X17.326 Y-20.885 Z-.684 B5. C=DC(0.)
X17.326 Y-20.679 Z-.787 B5. C=DC(0.)
X17.326 Y-20.296 Z-1.001 B5. C=DC(0.)
X17.326 Y-20.108 Z-1.114 B5. C=DC(0.)
X17.326 Y-19.919 Z-1.255 B5. C=DC(0.)
X17.326 Y-19.585 Z-1.544 B5. C=DC(0.)
X17.326 Y-19.421 Z-1.694 B5. C=DC(0.)
X17.326 Y-19.257 Z-1.87 B5. C=DC(0.)
X17.326 Y-18.974 Z-2.215 B5. C=DC(0.)
X17.326 Y-18.838 Z-2.401 B5. C=DC(0.)
X17.326 Y-18.593 Z-2.824 B5. C=DC(0.)
X17.326 Y-18.485 Z-3.033 B5. C=DC(0.)
X17.326 Y-18.306 Z-3.493 B5. C=DC(0.)
X17.326 Y-18.229 Z-3.725 B5. C=DC(0.)
X17.326 Y-18.152 Z-4.066 B5. C=DC(0.)
X17.326 Y-18.081 Z-4.441 B5. C=DC(0.)
X17.326 Y-18.04 Z-5.017 B5. C=DC(0.)
X17.326 Y-18.038 Z-8.077 B5. C=DC(0.),8
X17.326 Y-17.601 Z-8.021 B5. C=DC(0.),8
X17.326 Y37.07 Z-.073 B5. C=DC(0.)
X17.326 Y37.5 Z-.032 B5. C=DC(0.),7
X17.576 Y37.5 Z-.045 B5. C=DC(0.),3
X18.326 Y37.5 Z-.117 B5. C=DC(0.),7
X18.326 Y37.07 Z-.158 B5. C=DC(0.)
X18.326 Y-17.124 Z-8.03 B5. C=DC(0.),8
X18.326 Y-17.561 Z-8.077 B5. C=DC(0.)
X18.326 Y-17.998 Z-8.077 B5. C=DC(0.),8
X18.326 Y-18. Z-5.058 B5. C=DC(0.)
X18.326 Y-18.016 Z-4.756 B5. C=DC(0.)
X18.326 Y-18.054 Z-4.354 B5. C=DC(0.)
X18.326 Y-18.113 Z-4.046 B5. C=DC(0.)
X18.326 Y-18.172 Z-3.777 B5. C=DC(0.)
X18.326 Y-18.31 Z-3.355 B5. C=DC(0.)
X18.326 Y-18.405 Z-3.108 B5. C=DC(0.)
X18.326 Y-18.622 Z-2.663 B5. C=DC(0.)
X18.326 Y-18.743 Z-2.46 B5. C=DC(0.)
X18.326 Y-18.995 Z-2.086 B5. C=DC(0.)
X18.326 Y-19.141 Z-1.902 B5. C=DC(0.)
X18.326 Y-19.452 Z-1.557 B5. C=DC(0.)
X18.326 Y-19.617 Z-1.397 B5. C=DC(0.)
X18.326 Y-19.955 Z-1.118 B5. C=DC(0.)
X18.326 Y-20.143 Z-.973 B5. C=DC(0.)
X18.326 Y-20.331 Z-.857 B5. C=DC(0.)
X18.326 Y-20.711 Z-.635 B5. C=DC(0.)
X18.326 Y-20.915 Z-.534 B5. C=DC(0.)
X18.326 Y-21.118 Z-.452 B5. C=DC(0.)
X18.326 Y-21.534 Z-.308 B5. C=DC(0.)
X18.326 Y-21.962 Z-.196 B5. C=DC(0.)
X18.326 Y-22.396 Z-.129 B5. C=DC(0.)
X18.326 Y-22.833 Z-.102 B5. C=DC(0.)
X18.326 Y-32.014 Z-.102 B5. C=DC(0.)
X18.326 Y-32.449 Z-.116 B5. C=DC(0.)
X18.326 Y-32.878 Z-.167 B5. C=DC(0.)
X18.326 Y-33.299 Z-.256 B5. C=DC(0.)
X18.326 Y-33.711 Z-.391 B5. C=DC(0.)
X18.326 Y-34.109 Z-.545 B5. C=DC(0.)
X18.326 Y-34.486 Z-.749 B5. C=DC(0.)
X18.326 Y-34.846 Z-.965 B5. C=DC(0.)
X18.326 Y-35.184 Z-1.233 B5. C=DC(0.)
X18.326 Y-35.492 Z-1.498 B5. C=DC(0.)
X18.326 Y-35.784 Z-1.818 B5. C=DC(0.)
X18.326 Y-36.028 Z-2.119 B5. C=DC(0.)
X18.326 Y-36.27 Z-2.48 B5. C=DC(0.)
X18.326 Y-36.461 Z-2.832 B5. C=DC(0.)
X18.326 Y-36.628 Z-3.184 B5. C=DC(0.)
X18.326 Y-36.737 Z-3.496 B5. C=DC(0.)
X18.326 Y-36.846 Z-3.846 B5. C=DC(0.)
X18.326 Y-36.9 Z-4.115 B5. C=DC(0.)
X18.326 Y-36.955 Z-4.408 B5. C=DC(0.)
X18.326 Y-36.982 Z-4.734 B5. C=DC(0.)
X18.326 Y-36.999 Z-5.021 B5. C=DC(0.)
X18.326 Y-37.001 Z-8.077 B5. C=DC(0.),8
X18.326 Y-37.5 Z-8.077 B5. C=DC(0.),7
X19.326 Y-37.5 Z-8.077 B5. C=DC(0.),7
X19.326 Y-37.001 Z-8.077 B5. C=DC(0.),8
X19.326 Y-36.999 Z-5.021 B5. C=DC(0.)
X19.326 Y-36.982 Z-4.734 B5. C=DC(0.)
X19.326 Y-36.955 Z-4.408 B5. C=DC(0.)
X19.326 Y-36.9 Z-4.115 B5. C=DC(0.)
X19.326 Y-36.846 Z-3.846 B5. C=DC(0.)
X19.326 Y-36.737 Z-3.496 B5. C=DC(0.)
X19.326 Y-36.628 Z-3.184 B5. C=DC(0.)
X19.326 Y-36.461 Z-2.832 B5. C=DC(0.)
X19.326 Y-36.27 Z-2.48 B5. C=DC(0.)
X19.326 Y-36.028 Z-2.119 B5. C=DC(0.)
X19.326 Y-35.784 Z-1.818 B5. C=DC(0.)
X19.326 Y-35.492 Z-1.498 B5. C=DC(0.)
X19.326 Y-35.184 Z-1.233 B5. C=DC(0.)
X19.326 Y-34.846 Z-.965 B5. C=DC(0.)
X19.326 Y-34.486 Z-.749 B5. C=DC(0.)
X19.326 Y-34.109 Z-.544 B5. C=DC(0.)
X19.326 Y-33.709 Z-.388 B5. C=DC(0.)
X19.326 Y-33.302 Z-.25 B5. C=DC(0.)
X19.326 Y-32.878 Z-.156 B5. C=DC(0.)
X19.326 Y-32.446 Z-.098 B5. C=DC(0.)
X19.326 Y-32.012 Z-.077 B5. C=DC(0.)
X19.326 Y-23.268 Z-.077 B5. C=DC(0.)
X19.326 Y-22.831 Z-.083 B5. C=DC(0.)
X19.326 Y-22.397 Z-.114 B5. C=DC(0.)
X19.326 Y-21.966 Z-.185 B5. C=DC(0.)
X19.326 Y-21.541 Z-.295 B5. C=DC(0.)
X19.326 Y-21.125 Z-.452 B5. C=DC(0.)
X19.326 Y-20.718 Z-.63 B5. C=DC(0.)
X19.326 Y-20.338 Z-.853 B5. C=DC(0.)
X19.326 Y-20.15 Z-.968 B5. C=DC(0.)
X19.326 Y-19.962 Z-1.113 B5. C=DC(0.)
X19.326 Y-19.624 Z-1.391 B5. C=DC(0.)
X19.326 Y-19.458 Z-1.55 B5. C=DC(0.)
X19.326 Y-19.146 Z-1.897 B5. C=DC(0.)
X19.326 Y-18.999 Z-2.079 B5. C=DC(0.)
X19.326 Y-18.746 Z-2.456 B5. C=DC(0.)
X19.326 Y-18.625 Z-2.658 B5. C=DC(0.)
X19.326 Y-18.408 Z-3.102 B5. C=DC(0.)
X19.326 Y-18.312 Z-3.347 B5. C=DC(0.)
X19.326 Y-18.175 Z-3.768 B5. C=DC(0.)
X19.326 Y-18.114 Z-4.038 B5. C=DC(0.)
X19.326 Y-18.054 Z-4.35 B5. C=DC(0.)
X19.326 Y-18.017 Z-4.752 B5. C=DC(0.)
X19.326 Y-18. Z-5.055 B5. C=DC(0.)
X19.326 Y-17.998 Z-8.077 B5. C=DC(0.)
X19.326 Y-16.687 Z-8.077 B5. C=DC(0.),8
X19.326 Y-16.25 Z-8.027 B5. C=DC(0.),8
X19.326 Y37.07 Z-.281 B5. C=DC(0.)
X19.326 Y37.5 Z-.239 B5. C=DC(0.),7
X20.326 Y37.5 Z-.401 B5. C=DC(0.),7
X20.326 Y37.07 Z-.443 B5. C=DC(0.)
X20.326 Y-15.376 Z-8.071 B5. C=DC(0.),8
X20.326 Y-15.813 Z-8.077 B5. C=DC(0.)
X20.326 Y-17.998 Z-8.077 B5. C=DC(0.),8
X20.326 Y-18. Z-5.051 B5. C=DC(0.)
X20.326 Y-18.017 Z-4.75 B5. C=DC(0.)
X20.326 Y-18.055 Z-4.347 B5. C=DC(0.)
X20.326 Y-18.116 Z-4.032 B5. C=DC(0.)
X20.326 Y-18.177 Z-3.761 B5. C=DC(0.)
X20.326 Y-18.314 Z-3.341 B5. C=DC(0.)
X20.326 Y-18.41 Z-3.098 B5. C=DC(0.)
X20.326 Y-18.627 Z-2.654 B5. C=DC(0.)
X20.326 Y-18.748 Z-2.453 B5. C=DC(0.)
X20.326 Y-19.001 Z-2.076 B5. C=DC(0.)
X20.326 Y-19.148 Z-1.894 B5. C=DC(0.)
X20.326 Y-19.46 Z-1.548 B5. C=DC(0.)
X20.326 Y-19.626 Z-1.389 B5. C=DC(0.)
X20.326 Y-19.964 Z-1.111 B5. C=DC(0.)
X20.326 Y-20.152 Z-.967 B5. C=DC(0.)
X20.326 Y-20.34 Z-.851 B5. C=DC(0.)
X20.326 Y-20.72 Z-.629 B5. C=DC(0.)
X20.326 Y-21.128 Z-.451 B5. C=DC(0.)
X20.326 Y-21.543 Z-.295 B5. C=DC(0.)
X20.326 Y-21.968 Z-.185 B5. C=DC(0.)
X20.326 Y-22.399 Z-.113 B5. C=DC(0.)
X20.326 Y-22.833 Z-.083 B5. C=DC(0.)
X20.326 Y-23.27 Z-.077 B5. C=DC(0.)
X20.326 Y-32.014 Z-.077 B5. C=DC(0.)
X20.326 Y-32.449 Z-.098 B5. C=DC(0.)
X20.326 Y-32.88 Z-.156 B5. C=DC(0.)
X20.326 Y-33.302 Z-.251 B5. C=DC(0.)
X20.326 Y-33.709 Z-.388 B5. C=DC(0.)
X20.326 Y-34.109 Z-.544 B5. C=DC(0.)
X20.326 Y-34.486 Z-.749 B5. C=DC(0.)
X20.326 Y-34.846 Z-.965 B5. C=DC(0.)
X20.326 Y-35.184 Z-1.233 B5. C=DC(0.)
X20.326 Y-35.492 Z-1.498 B5. C=DC(0.)
X20.326 Y-35.784 Z-1.818 B5. C=DC(0.)
X20.326 Y-36.028 Z-2.119 B5. C=DC(0.)
X20.326 Y-36.27 Z-2.48 B5. C=DC(0.)
X20.326 Y-36.461 Z-2.832 B5. C=DC(0.)
X20.326 Y-36.628 Z-3.184 B5. C=DC(0.)
X20.326 Y-36.737 Z-3.496 B5. C=DC(0.)
X20.326 Y-36.846 Z-3.846 B5. C=DC(0.)
X20.326 Y-36.9 Z-4.115 B5. C=DC(0.)
X20.326 Y-36.955 Z-4.408 B5. C=DC(0.)
X20.326 Y-36.982 Z-4.734 B5. C=DC(0.)
X20.326 Y-36.999 Z-5.021 B5. C=DC(0.)
X20.326 Y-37.001 Z-8.077 B5. C=DC(0.),8
X20.326 Y-37.5 Z-8.077 B5. C=DC(0.),7
X21.326 Y-37.5 Z-8.077 B5. C=DC(0.),7
X21.326 Y-37.001 Z-8.077 B5. C=DC(0.),8
X21.326 Y-36.999 Z-5.021 B5. C=DC(0.)
X21.326 Y-36.982 Z-4.734 B5. C=DC(0.)
X21.326 Y-36.955 Z-4.408 B5. C=DC(0.)
X21.326 Y-36.9 Z-4.115 B5. C=DC(0.)
X21.326 Y-36.846 Z-3.846 B5. C=DC(0.)
X21.326 Y-36.737 Z-3.496 B5. C=DC(0.)
X21.326 Y-36.628 Z-3.184 B5. C=DC(0.)
X21.326 Y-36.461 Z-2.832 B5. C=DC(0.)
X21.326 Y-36.27 Z-2.48 B5. C=DC(0.)
X21.326 Y-36.028 Z-2.119 B5. C=DC(0.)
X21.326 Y-35.784 Z-1.818 B5. C=DC(0.)
X21.326 Y-35.492 Z-1.498 B5. C=DC(0.)
X21.326 Y-35.184 Z-1.233 B5. C=DC(0.)
X21.326 Y-34.846 Z-.965 B5. C=DC(0.)
X21.326 Y-34.486 Z-.749 B5. C=DC(0.)
X21.326 Y-34.109 Z-.544 B5. C=DC(0.)
X21.326 Y-33.709 Z-.388 B5. C=DC(0.)
X21.326 Y-33.302 Z-.252 B5. C=DC(0.)
X21.326 Y-32.883 Z-.156 B5. C=DC(0.)
X21.326 Y-32.451 Z-.098 B5. C=DC(0.)
X21.326 Y-32.017 Z-.077 B5. C=DC(0.)
X21.326 Y-23.272 Z-.077 B5. C=DC(0.)
X21.326 Y-22.835 Z-.083 B5. C=DC(0.)
X21.326 Y-22.401 Z-.113 B5. C=DC(0.)
X21.326 Y-21.97 Z-.184 B5. C=DC(0.)
X21.326 Y-21.545 Z-.295 B5. C=DC(0.)
X21.326 Y-21.13 Z-.45 B5. C=DC(0.)
X21.326 Y-20.722 Z-.628 B5. C=DC(0.)
X21.326 Y-20.342 Z-.85 B5. C=DC(0.)
X21.326 Y-20.154 Z-.966 B5. C=DC(0.)
X21.326 Y-19.966 Z-1.11 B5. C=DC(0.)
X21.326 Y-19.628 Z-1.387 B5. C=DC(0.)
X21.326 Y-19.462 Z-1.546 B5. C=DC(0.)
X21.326 Y-19.15 Z-1.892 B5. C=DC(0.)
X21.326 Y-19.003 Z-2.074 B5. C=DC(0.)
X21.326 Y-18.749 Z-2.452 B5. C=DC(0.)
X21.326 Y-18.628 Z-2.653 B5. C=DC(0.)
X21.326 Y-18.411 Z-3.096 B5. C=DC(0.)
X21.326 Y-18.315 Z-3.339 B5. C=DC(0.)
X21.326 Y-18.177 Z-3.758 B5. C=DC(0.)
X21.326 Y-18.116 Z-4.029 B5. C=DC(0.)
X21.326 Y-18.055 Z-4.346 B5. C=DC(0.)
X21.326 Y-18.017 Z-4.748 B5. C=DC(0.)
X21.326 Y-18. Z-5.045 B5. C=DC(0.)
X21.326 Y-17.998 Z-8.077 B5. C=DC(0.),8
X21.326 Y-13.911 Z-8.077 B5. C=DC(0.),8
X21.326 Y-13.91 Z-8.076 B5. C=DC(0.),3
X21.326 Y37.068 Z-.671 B5. C=DC(0.)
X21.326 Y37.5 Z-.628 B5. C=DC(0.),7
X21.576 Y37.5 Z-.686 B5. C=DC(0.),3
X21.826 Y37.5 Z-.749 B5. C=DC(0.),3
X22.326 Y37.5 Z-.897 B5. C=DC(0.),7
X22.326 Y37.069 Z-.939 B5. C=DC(0.)
X22.326 Y-12.073 Z-8.076 B5. C=DC(0.),8
X22.326 Y-12.075 Z-8.077 B5. C=DC(0.),3
X22.326 Y-17.998 Z-8.077 B5. C=DC(0.),8
X22.326 Y-18. Z-5.045 B5. C=DC(0.)
X22.326 Y-18.017 Z-4.748 B5. C=DC(0.)
X22.326 Y-18.055 Z-4.346 B5. C=DC(0.)
X22.326 Y-18.116 Z-4.029 B5. C=DC(0.)
X22.326 Y-18.177 Z-3.758 B5. C=DC(0.)
X22.326 Y-18.315 Z-3.339 B5. C=DC(0.)
X22.326 Y-18.411 Z-3.096 B5. C=DC(0.)
X22.326 Y-18.628 Z-2.653 B5. C=DC(0.)
X22.326 Y-18.749 Z-2.452 B5. C=DC(0.)
X22.326 Y-19.003 Z-2.074 B5. C=DC(0.)
X22.326 Y-19.15 Z-1.892 B5. C=DC(0.)
X22.326 Y-19.462 Z-1.546 B5. C=DC(0.)
X22.326 Y-19.628 Z-1.387 B5. C=DC(0.)
X22.326 Y-19.966 Z-1.11 B5. C=DC(0.)
X22.326 Y-20.154 Z-.966 B5. C=DC(0.)
X22.326 Y-20.342 Z-.85 B5. C=DC(0.)
X22.326 Y-20.722 Z-.628 B5. C=DC(0.)
X22.326 Y-21.13 Z-.45 B5. C=DC(0.)
X22.326 Y-21.545 Z-.296 B5. C=DC(0.)
X22.326 Y-21.97 Z-.184 B5. C=DC(0.)
X22.326 Y-22.401 Z-.113 B5. C=DC(0.)
X22.326 Y-22.835 Z-.083 B5. C=DC(0.)
X22.326 Y-23.272 Z-.077 B5. C=DC(0.)
X22.326 Y-32.017 Z-.077 B5. C=DC(0.)
X22.326 Y-32.451 Z-.098 B5. C=DC(0.)
X22.326 Y-32.883 Z-.156 B5. C=DC(0.)
X22.326 Y-33.302 Z-.253 B5. C=DC(0.)
X22.326 Y-33.709 Z-.388 B5. C=DC(0.)
X22.326 Y-34.109 Z-.544 B5. C=DC(0.)
X22.326 Y-34.486 Z-.749 B5. C=DC(0.)
X22.326 Y-34.409 Z-.544 B5. C=DC(0.),2
X22.326 Y-34.846 Z-.965 B5. C=DC(0.)
X22.326 Y-35.184 Z-1.233 B5. C=DC(0.)
X22.326 Y-35.492 Z-1.498 B5. C=DC(0.)
X22.326 Y-35.784 Z-1.818 B5. C=DC(0.)
X22.326 Y-36.028 Z-2.119 B5. C=DC(0.)
X22.326 Y-36.27 Z-2.48 B5. C=DC(0.)
X22.326 Y-36.461 Z-2.832 B5. C=DC(0.)
X22.326 Y-36.628 Z-3.184 B5. C=DC(0.)
X22.326 Y-36.737 Z-3.496 B5. C=DC(0.)
X22.326 Y-36.846 Z-3.846 B5. C=DC(0.)
X22.326 Y-36.9 Z-4.115 B5. C=DC(0.)
X22.326 Y-36.955 Z-4.408 B5. C=DC(0.)
X22.326 Y-36.982 Z-4.734 B5. C=DC(0.)
X22.326 Y-36.999 Z-5.021 B5. C=DC(0.)
X22.326 Y-37.001 Z-8.077 B5. C=DC(0.),8
X22.326 Y-37.5 Z-8.077 B5. C=DC(0.),7
X23.326 Y-37.5 Z-8.077 B5. C=DC(0.),7
X23.326 Y-37.001 Z-8.077 B5. C=DC(0.),8
X23.326 Y-36.999 Z-5.021 B5. C=DC(0.)
X23.326 Y-36.982 Z-4.734 B5. C=DC(0.)
X23.326 Y-36.955 Z-4.408 B5. C=DC(0.)
X23.326 Y-36.9 Z-4.115 B5. C=DC(0.)
X23.326 Y-36.846 Z-3.846 B5. C=DC(0.)
X23.326 Y-36.737 Z-3.496 B5. C=DC(0.)
X23.326 Y-36.628 Z-3.184 B5. C=DC(0.)
X23.326 Y-36.461 Z-2.832 B5. C=DC(0.)
X23.326 Y-36.27 Z-2.48 B5. C=DC(0.)
X23.326 Y-36.028 Z-2.119 B5. C=DC(0.)
X23.326 Y-35.784 Z-1.818 B5. C=DC(0.)
X23.326 Y-35.492 Z-1.498 B5. C=DC(0.)
X23.326 Y-35.184 Z-1.233 B5. C=DC(0.)
X23.326 Y-34.846 Z-.965 B5. C=DC(0.)
X23.326 Y-34.486 Z-.749 B5. C=DC(0.)
X23.326 Y-34.746 Z-.965 B5. C=DC(0.),2
X23.326 Y-34.109 Z-.544 B5. C=DC(0.),6
X23.326 Y-33.709 Z-.388 B5. C=DC(0.)
X23.326 Y-33.302 Z-.254 B5. C=DC(0.)
X23.326 Y-32.885 Z-.157 B5. C=DC(0.)
X23.326 Y-32.454 Z-.098 B5. C=DC(0.)
X23.326 Y-32.019 Z-.077 B5. C=DC(0.)
X23.326 Y-23.275 Z-.077 B5. C=DC(0.)
X23.326 Y-22.837 Z-.082 B5. C=DC(0.)
X23.326 Y-22.403 Z-.113 B5. C=DC(0.)
X23.326 Y-21.972 Z-.184 B5. C=DC(0.)
X23.326 Y-21.548 Z-.296 B5. C=DC(0.)
X23.326 Y-21.129 Z-.45 B5. C=DC(0.)
X23.326 Y-20.722 Z-.628 B5. C=DC(0.)
X23.326 Y-20.341 Z-.851 B5. C=DC(0.)
X23.326 Y-20.153 Z-.966 B5. C=DC(0.)
X23.326 Y-19.965 Z-1.11 B5. C=DC(0.)
X23.326 Y-19.627 Z-1.388 B5. C=DC(0.)
X23.326 Y-19.461 Z-1.547 B5. C=DC(0.)
X23.326 Y-19.149 Z-1.893 B5. C=DC(0.)
X23.326 Y-19.003 Z-2.075 B5. C=DC(0.)
X23.326 Y-18.749 Z-2.452 B5. C=DC(0.)
X23.326 Y-18.628 Z-2.652 B5. C=DC(0.)
X23.326 Y-18.411 Z-3.096 B5. C=DC(0.)
X23.326 Y-18.316 Z-3.338 B5. C=DC(0.)
X23.326 Y-18.178 Z-3.757 B5. C=DC(0.)
X23.326 Y-18.116 Z-4.028 B5. C=DC(0.)
X23.326 Y-18.055 Z-4.346 B5. C=DC(0.)
X23.326 Y-18.017 Z-4.748 B5. C=DC(0.)
X23.326 Y-18. Z-5.05 B5. C=DC(0.)
X23.326 Y-17.998 Z-8.077 B5. C=DC(0.),8
X23.326 Y-9.89 Z-8.077 B5. C=DC(0.),8
X23.326 Y-9.888 Z-8.076 B5. C=DC(0.),3
X23.326 Y37.069 Z-1.252 B5. C=DC(0.)
X23.326 Y37.5 Z-1.209 B5. C=DC(0.),7
X24.326 Y37.5 Z-1.578 B5. C=DC(0.),7
X24.326 Y37.069 Z-1.621 B5. C=DC(0.)
X24.326 Y-7.338 Z-8.076 B5. C=DC(0.),8
X24.326 Y-7.339 Z-8.077 B5. C=DC(0.),3
X24.326 Y-17.998 Z-8.077 B5. C=DC(0.),8
X24.326 Y-18. Z-5.053 B5. C=DC(0.)
X24.326 Y-18.017 Z-4.752 B5. C=DC(0.)
X24.326 Y-18.054 Z-4.35 B5. C=DC(0.)
X24.326 Y-18.115 Z-4.038 B5. C=DC(0.)
X24.326 Y-18.175 Z-3.767 B5. C=DC(0.)
X24.326 Y-18.313 Z-3.347 B5. C=DC(0.)
X24.326 Y-18.408 Z-3.102 B5. C=DC(0.)
X24.326 Y-18.625 Z-2.658 B5. C=DC(0.)
X24.326 Y-18.746 Z-2.456 B5. C=DC(0.)
X24.326 Y-18.998 Z-2.081 B5. C=DC(0.)
X24.326 Y-19.145 Z-1.898 B5. C=DC(0.)
X24.326 Y-19.456 Z-1.552 B5. C=DC(0.)
X24.326 Y-19.621 Z-1.393 B5. C=DC(0.)
X24.326 Y-19.959 Z-1.115 B5. C=DC(0.)
X24.326 Y-20.147 Z-.97 B5. C=DC(0.)
X24.326 Y-20.335 Z-.854 B5. C=DC(0.)
X24.326 Y-20.715 Z-.632 B5. C=DC(0.)
X24.326 Y-21.122 Z-.453 B5. C=DC(0.)
X24.326 Y-21.541 Z-.299 B5. C=DC(0.)
X24.326 Y-21.966 Z-.185 B5. C=DC(0.)
X24.326 Y-22.397 Z-.114 B5. C=DC(0.)
X24.326 Y-22.831 Z-.083 B5. C=DC(0.)
X24.326 Y-23.268 Z-.077 B5. C=DC(0.)
X24.326 Y-32.012 Z-.077 B5. C=DC(0.)
X24.326 Y-32.446 Z-.098 B5. C=DC(0.)
X24.326 Y-32.878 Z-.156 B5. C=DC(0.)
X24.326 Y-33.302 Z-.255 B5. C=DC(0.)
X24.326 Y-33.709 Z-.388 B5. C=DC(0.)
X24.326 Y-34.109 Z-.544 B5. C=DC(0.)
X24.326 Y-34.486 Z-.749 B5. C=DC(0.)
X24.326 Y-34.846 Z-.965 B5. C=DC(0.)
X24.326 Y-35.184 Z-1.233 B5. C=DC(0.)
X24.326 Y-35.492 Z-1.498 B5. C=DC(0.)
X24.326 Y-35.784 Z-1.818 B5. C=DC(0.)
X24.326 Y-36.028 Z-2.119 B5. C=DC(0.)
X24.326 Y-36.27 Z-2.48 B5. C=DC(0.)
X24.326 Y-36.461 Z-2.832 B5. C=DC(0.)
X24.326 Y-36.628 Z-3.184 B5. C=DC(0.)
X24.326 Y-36.737 Z-3.496 B5. C=DC(0.)
X24.326 Y-36.846 Z-3.846 B5. C=DC(0.)
X24.326 Y-36.9 Z-4.115 B5. C=DC(0.)
X24.326 Y-36.955 Z-4.408 B5. C=DC(0.)
X24.326 Y-36.982 Z-4.734 B5. C=DC(0.)
X24.326 Y-36.999 Z-5.021 B5. C=DC(0.)
X24.326 Y-37.001 Z-8.077 B5. C=DC(0.),8
X24.326 Y-37.5 Z-8.077 B5. C=DC(0.),7
X25.326 Y-37.5 Z-8.077 B5. C=DC(0.),7
X25.326 Y-37.001 Z-8.077 B5. C=DC(0.),8
X25.326 Y-36.999 Z-5.021 B5. C=DC(0.)
X25.326 Y-36.982 Z-4.734 B5. C=DC(0.)
X25.326 Y-36.955 Z-4.408 B5. C=DC(0.)
X25.326 Y-36.9 Z-4.115 B5. C=DC(0.)
X25.326 Y-36.846 Z-3.846 B5. C=DC(0.)
X25.326 Y-36.737 Z-3.496 B5. C=DC(0.)
X25.326 Y-36.628 Z-3.184 B5. C=DC(0.)
X25.326 Y-36.461 Z-2.832 B5. C=DC(0.)
X25.326 Y-36.27 Z-2.48 B5. C=DC(0.)
X25.326 Y-36.028 Z-2.119 B5. C=DC(0.)
X25.326 Y-35.784 Z-1.818 B5. C=DC(0.)
X25.326 Y-35.492 Z-1.498 B5. C=DC(0.)
X25.326 Y-35.184 Z-1.233 B5. C=DC(0.)
X25.326 Y-34.846 Z-.965 B5. C=DC(0.)
X25.326 Y-34.486 Z-.749 B5. C=DC(0.)
X25.326 Y-34.109 Z-.544 B5. C=DC(0.)
X25.326 Y-33.709 Z-.388 B5. C=DC(0.)
X25.326 Y-33.302 Z-.254 B5. C=DC(0.)
X25.326 Y-32.878 Z-.156 B5. C=DC(0.)
X25.326 Y-32.446 Z-.098 B5. C=DC(0.)
X25.326 Y-32.012 Z-.077 B5. C=DC(0.)
X25.326 Y-23.268 Z-.077 B5. C=DC(0.)
X25.326 Y-22.831 Z-.083 B5. C=DC(0.)
X25.326 Y-22.397 Z-.114 B5. C=DC(0.)
X25.326 Y-21.966 Z-.185 B5. C=DC(0.)
X25.326 Y-21.541 Z-.3 B5. C=DC(0.)
X25.326 Y-21.122 Z-.453 B5. C=DC(0.)
X25.326 Y-20.715 Z-.632 B5. C=DC(0.)
X25.326 Y-20.335 Z-.854 B5. C=DC(0.)
X25.326 Y-20.147 Z-.97 B5. C=DC(0.)
X25.326 Y-19.959 Z-1.115 B5. C=DC(0.)
X25.326 Y-19.621 Z-1.393 B5. C=DC(0.)
X25.326 Y-19.456 Z-1.552 B5. C=DC(0.)
X25.326 Y-19.145 Z-1.898 B5. C=DC(0.)
X25.326 Y-18.998 Z-2.081 B5. C=DC(0.)
X25.326 Y-18.746 Z-2.456 B5. C=DC(0.)
X25.326 Y-18.625 Z-2.658 B5. C=DC(0.)
X25.326 Y-18.408 Z-3.102 B5. C=DC(0.)
X25.326 Y-18.313 Z-3.347 B5. C=DC(0.)
X25.326 Y-18.175 Z-3.767 B5. C=DC(0.)
X25.326 Y-18.115 Z-4.038 B5. C=DC(0.)
X25.326 Y-18.054 Z-4.35 B5. C=DC(0.)
X25.326 Y-18.017 Z-4.752 B5. C=DC(0.)
X25.326 Y-18. Z-5.053 B5. C=DC(0.)
X25.326 Y-17.998 Z-8.077 B5. C=DC(0.),8
X25.326 Y-4.403 Z-8.077 B5. C=DC(0.),8
X25.326 Y-4.402 Z-8.077 B5. C=DC(0.),3
X25.326 Y37.068 Z-2.054 B5. C=DC(0.)
X25.326 Y37.5 Z-2.011 B5. C=DC(0.),7
X25.576 Y37.5 Z-2.123 B5. C=DC(0.),3
X25.857 Y37.5 Z-2.253 B5. C=DC(0.),3
X26.326 Y37.5 Z-2.497 B5. C=DC(0.),7
X26.326 Y37.072 Z-2.541 B5. C=DC(0.)
X26.326 Y22.075 Z-4.722 B5. C=DC(0.),6
X26.326 Y-1.063 Z-8.077 B5. C=DC(0.),8
X26.326 Y-1.064 Z-8.077 B5. C=DC(0.),3
X26.326 Y-17.998 Z-8.077 B5. C=DC(0.),8
X26.326 Y-18. Z-5.045 B5. C=DC(0.)
X26.326 Y-18.017 Z-4.747 B5. C=DC(0.)
X26.326 Y-18.055 Z-4.345 B5. C=DC(0.)
X26.326 Y-18.117 Z-4.025 B5. C=DC(0.)
X26.326 Y-18.179 Z-3.753 B5. C=DC(0.)
X26.326 Y-18.317 Z-3.334 B5. C=DC(0.)
X26.326 Y-18.412 Z-3.093 B5. C=DC(0.)
X26.326 Y-18.629 Z-2.65 B5. C=DC(0.)
X26.326 Y-18.75 Z-2.45 B5. C=DC(0.)
X26.326 Y-19.005 Z-2.071 B5. C=DC(0.)
X26.326 Y-19.151 Z-1.891 B5. C=DC(0.)
X26.326 Y-19.464 Z-1.544 B5. C=DC(0.)
X26.326 Y-19.63 Z-1.386 B5. C=DC(0.)
X26.326 Y-19.968 Z-1.108 B5. C=DC(0.)
X26.326 Y-20.156 Z-.964 B5. C=DC(0.)
X26.326 Y-20.344 Z-.849 B5. C=DC(0.)
X26.326 Y-20.724 Z-.627 B5. C=DC(0.)
X26.326 Y-21.131 Z-.449 B5. C=DC(0.)
X26.326 Y-21.541 Z-.3 B5. C=DC(0.)
X26.326 Y-21.966 Z-.185 B5. C=DC(0.)
X26.326 Y-22.397 Z-.114 B5. C=DC(0.)
X26.326 Y-22.831 Z-.083 B5. C=DC(0.)
X26.326 Y-23.268 Z-.077 B5. C=DC(0.)
X26.326 Y-32.012 Z-.077 B5. C=DC(0.)
X26.326 Y-32.446 Z-.098 B5. C=DC(0.)
X26.326 Y-32.878 Z-.156 B5. C=DC(0.)
X26.326 Y-33.302 Z-.253 B5. C=DC(0.)
X26.326 Y-33.709 Z-.388 B5. C=DC(0.)
X26.326 Y-34.109 Z-.544 B5. C=DC(0.)
X26.326 Y-34.486 Z-.749 B5. C=DC(0.)
X26.326 Y-34.846 Z-.965 B5. C=DC(0.)
X26.326 Y-35.184 Z-1.233 B5. C=DC(0.)
X26.326 Y-35.492 Z-1.498 B5. C=DC(0.)
X26.326 Y-35.784 Z-1.818 B5. C=DC(0.)
X26.326 Y-36.028 Z-2.119 B5. C=DC(0.)
X26.326 Y-36.27 Z-2.48 B5. C=DC(0.)
X26.326 Y-36.461 Z-2.832 B5. C=DC(0.)
X26.326 Y-36.628 Z-3.184 B5. C=DC(0.)
X26.326 Y-36.737 Z-3.496 B5. C=DC(0.)
X26.326 Y-36.846 Z-3.846 B5. C=DC(0.)
X26.326 Y-36.9 Z-4.115 B5. C=DC(0.)
X26.326 Y-36.955 Z-4.408 B5. C=DC(0.)
X26.326 Y-36.982 Z-4.734 B5. C=DC(0.)
X26.326 Y-36.999 Z-5.021 B5. C=DC(0.)
X26.326 Y-37.001 Z-8.077 B5. C=DC(0.),8
X26.326 Y-37.5 Z-8.077 B5. C=DC(0.),7
X27.326 Y-37.5 Z-8.077 B5. C=DC(0.),7
X27.326 Y-37.001 Z-8.077 B5. C=DC(0.),8
X27.326 Y-36.999 Z-5.021 B5. C=DC(0.)
X27.326 Y-36.982 Z-4.734 B5. C=DC(0.)
X27.326 Y-36.955 Z-4.408 B5. C=DC(0.)
X27.326 Y-36.9 Z-4.115 B5. C=DC(0.)
X27.326 Y-36.846 Z-3.846 B5. C=DC(0.)
X27.326 Y-36.737 Z-3.496 B5. C=DC(0.)
X27.326 Y-36.628 Z-3.184 B5. C=DC(0.)
X27.326 Y-36.461 Z-2.832 B5. C=DC(0.)
X27.326 Y-36.27 Z-2.48 B5. C=DC(0.)
X27.326 Y-36.028 Z-2.119 B5. C=DC(0.)
X27.326 Y-35.784 Z-1.818 B5. C=DC(0.)
X27.326 Y-35.492 Z-1.498 B5. C=DC(0.)
X27.326 Y-35.184 Z-1.233 B5. C=DC(0.)
X27.326 Y-34.846 Z-.965 B5. C=DC(0.)
X27.326 Y-34.486 Z-.749 B5. C=DC(0.)
X27.326 Y-34.109 Z-.544 B5. C=DC(0.)
X27.326 Y-33.709 Z-.388 B5. C=DC(0.)
X27.326 Y-33.302 Z-.251 B5. C=DC(0.)
X27.326 Y-32.878 Z-.156 B5. C=DC(0.)
X27.326 Y-32.446 Z-.098 B5. C=DC(0.)
X27.326 Y-32.012 Z-.077 B5. C=DC(0.)
X27.326 Y-23.268 Z-.077 B5. C=DC(0.)
X27.326 Y-22.831 Z-.083 B5. C=DC(0.)
X27.326 Y-22.397 Z-.114 B5. C=DC(0.)
X27.326 Y-21.966 Z-.185 B5. C=DC(0.)
X27.326 Y-21.541 Z-.297 B5. C=DC(0.)
X27.326 Y-21.128 Z-.45 B5. C=DC(0.)
X27.326 Y-20.721 Z-.629 B5. C=DC(0.)
X27.326 Y-20.341 Z-.851 B5. C=DC(0.)
X27.326 Y-20.153 Z-.966 B5. C=DC(0.)
X27.326 Y-19.965 Z-1.111 B5. C=DC(0.)
X27.326 Y-19.627 Z-1.388 B5. C=DC(0.)
X27.326 Y-19.461 Z-1.547 B5. C=DC(0.)
X27.326 Y-19.149 Z-1.894 B5. C=DC(0.)
X27.326 Y-19.002 Z-2.075 B5. C=DC(0.)
X27.326 Y-18.749 Z-2.452 B5. C=DC(0.)
X27.326 Y-18.628 Z-2.653 B5. C=DC(0.)
X27.326 Y-18.411 Z-3.096 B5. C=DC(0.)
X27.326 Y-18.315 Z-3.339 B5. C=DC(0.)
X27.326 Y-18.177 Z-3.758 B5. C=DC(0.)
X27.326 Y-18.116 Z-4.029 B5. C=DC(0.)
X27.326 Y-18.055 Z-4.346 B5. C=DC(0.)
X27.326 Y-18.017 Z-4.749 B5. C=DC(0.)
X27.326 Y-18. Z-5.051 B5. C=DC(0.)
X27.326 Y-17.998 Z-8.077 B5. C=DC(0.),8
X27.326 Y2.711 Z-8.077 B5. C=DC(0.),8
X27.326 Y2.713 Z-8.076 B5. C=DC(0.),3
X27.326 Y37.071 Z-3.087 B5. C=DC(0.)
X27.326 Y37.5 Z-3.043 B5. C=DC(0.),7
X28.201 Y37.5 Z-3.575 B5. C=DC(0.),3
X28.279 Y37.5 Z-3.624 B5. C=DC(0.),3
X28.326 Y37.5 Z-3.654 B5. C=DC(0.),7
X28.326 Y37.07 Z-3.699 B5. C=DC(0.)
X28.326 Y6.97 Z-8.076 B5. C=DC(0.),8
X28.326 Y6.969 Z-8.077 B5. C=DC(0.),3
X28.326 Y-17.998 Z-8.077 B5. C=DC(0.),8
X28.326 Y-18. Z-5.064 B5. C=DC(0.)
X28.326 Y-18.016 Z-4.756 B5. C=DC(0.)
X28.326 Y-18.054 Z-4.354 B5. C=DC(0.)
X28.326 Y-18.113 Z-4.045 B5. C=DC(0.)
X28.326 Y-18.173 Z-3.775 B5. C=DC(0.)
X28.326 Y-18.31 Z-3.353 B5. C=DC(0.)
X28.326 Y-18.406 Z-3.106 B5. C=DC(0.)
X28.326 Y-18.623 Z-2.662 B5. C=DC(0.)
X28.326 Y-18.744 Z-2.459 B5. C=DC(0.)
X28.326 Y-18.995 Z-2.085 B5. C=DC(0.)
X28.326 Y-19.141 Z-1.901 B5. C=DC(0.)
X28.326 Y-19.453 Z-1.556 B5. C=DC(0.)
X28.326 Y-19.618 Z-1.396 B5. C=DC(0.)
X28.326 Y-19.956 Z-1.118 B5. C=DC(0.)
X28.326 Y-20.144 Z-.973 B5. C=DC(0.)
X28.326 Y-20.332 Z-.856 B5. C=DC(0.)
X28.326 Y-20.709 Z-.636 B5. C=DC(0.)
X28.326 Y-20.914 Z-.535 B5. C=DC(0.)
X28.326 Y-21.119 Z-.452 B5. C=DC(0.)
X28.326 Y-21.532 Z-.308 B5. C=DC(0.)
X28.326 Y-21.96 Z-.196 B5. C=DC(0.)
X28.326 Y-22.394 Z-.129 B5. C=DC(0.)
X28.326 Y-22.831 Z-.102 B5. C=DC(0.)
X28.326 Y-32.012 Z-.102 B5. C=DC(0.)
X28.326 Y-32.446 Z-.116 B5. C=DC(0.)
X28.326 Y-32.876 Z-.167 B5. C=DC(0.)
X28.326 Y-33.297 Z-.255 B5. C=DC(0.)
X28.326 Y-33.711 Z-.39 B5. C=DC(0.)
X28.326 Y-34.109 Z-.545 B5. C=DC(0.)
X28.326 Y-34.486 Z-.749 B5. C=DC(0.)
X28.326 Y-34.846 Z-.965 B5. C=DC(0.)
X28.326 Y-35.184 Z-1.233 B5. C=DC(0.)
X28.326 Y-35.492 Z-1.498 B5. C=DC(0.)
X28.326 Y-35.784 Z-1.818 B5. C=DC(0.)
X28.326 Y-36.028 Z-2.119 B5. C=DC(0.)
X28.326 Y-36.27 Z-2.48 B5. C=DC(0.)
X28.326 Y-36.461 Z-2.832 B5. C=DC(0.)
X28.326 Y-36.628 Z-3.184 B5. C=DC(0.)
X28.326 Y-36.737 Z-3.496 B5. C=DC(0.)
X28.326 Y-36.846 Z-3.846 B5. C=DC(0.)
X28.326 Y-36.9 Z-4.115 B5. C=DC(0.)
X28.326 Y-36.955 Z-4.408 B5. C=DC(0.)
X28.326 Y-36.982 Z-4.734 B5. C=DC(0.)
X28.326 Y-36.999 Z-5.021 B5. C=DC(0.)
X28.326 Y-37.001 Z-8.077 B5. C=DC(0.),8
X28.326 Y-37.5 Z-8.077 B5. C=DC(0.),7
X29.326 Y-37.5 Z-8.077 B5. C=DC(0.),7
X29.326 Y-36.962 Z-8.077 B5. C=DC(0.),8
X29.326 Y-36.96 Z-5.038 B5. C=DC(0.)
X29.326 Y-36.955 Z-4.929 B5. C=DC(0.)
X29.326 Y-36.928 Z-4.55 B5. C=DC(0.)
X29.326 Y-36.9 Z-4.314 B5. C=DC(0.)
X29.326 Y-36.791 Z-3.808 B5. C=DC(0.)
X29.326 Y-36.737 Z-3.612 B5. C=DC(0.)
X29.326 Y-36.628 Z-3.319 B5. C=DC(0.)
X29.326 Y-36.473 Z-2.943 B5. C=DC(0.)
X29.326 Y-36.274 Z-2.591 B5. C=DC(0.)
X29.326 Y-36.057 Z-2.254 B5. C=DC(0.)
X29.326 Y-35.786 Z-1.922 B5. C=DC(0.)
X29.326 Y-35.507 Z-1.626 B5. C=DC(0.)
X29.326 Y-35.186 Z-1.343 B5. C=DC(0.)
X29.326 Y-34.854 Z-1.089 B5. C=DC(0.)
X29.326 Y-34.483 Z-.877 B5. C=DC(0.)
X29.326 Y-34.102 Z-.679 B5. C=DC(0.)
X29.326 Y-33.7 Z-.539 B5. C=DC(0.)
X29.326 Y-33.286 Z-.418 B5. C=DC(0.)
X29.326 Y-32.862 Z-.35 B5. C=DC(0.)
X29.326 Y-32.428 Z-.315 B5. C=DC(0.)
X29.326 Y-31.993 Z-.31 B5. C=DC(0.)
X29.326 Y-31.119 Z-.313 B5. C=DC(0.),6
X29.326 Y-30.682 Z-.313 B5. C=DC(0.),6
X29.326 Y-22.815 Z-.309 B5. C=DC(0.)
X29.326 Y-22.378 Z-.329 B5. C=DC(0.)
X29.326 Y-21.941 Z-.373 B5. C=DC(0.)
X29.326 Y-21.51 Z-.472 B5. C=DC(0.)
X29.326 Y-21.092 Z-.608 B5. C=DC(0.)
X29.326 Y-20.885 Z-.684 B5. C=DC(0.)
X29.326 Y-20.679 Z-.787 B5. C=DC(0.)
X29.326 Y-20.294 Z-1.002 B5. C=DC(0.)
X29.326 Y-20.105 Z-1.116 B5. C=DC(0.)
X29.326 Y-19.916 Z-1.257 B5. C=DC(0.)
X29.326 Y-19.582 Z-1.543 B5. C=DC(0.)
X29.326 Y-19.422 Z-1.693 B5. C=DC(0.)
X29.326 Y-19.261 Z-1.864 B5. C=DC(0.)
X29.326 Y-18.975 Z-2.215 B5. C=DC(0.)
X29.326 Y-18.838 Z-2.401 B5. C=DC(0.)
X29.326 Y-18.702 Z-2.632 B5. C=DC(0.)
X29.326 Y-18.593 Z-2.823 B5. C=DC(0.)
X29.326 Y-18.485 Z-3.032 B5. C=DC(0.)
X29.326 Y-18.306 Z-3.493 B5. C=DC(0.)
X29.326 Y-18.229 Z-3.726 B5. C=DC(0.)
X29.326 Y-18.152 Z-4.067 B5. C=DC(0.)
X29.326 Y-18.081 Z-4.443 B5. C=DC(0.)
X29.326 Y-18.058 Z-4.747 B5. C=DC(0.)
X29.326 Y-18.04 Z-5.024 B5. C=DC(0.)
X29.326 Y-18.038 Z-8.077 B5. C=DC(0.),8
X29.326 Y11.774 Z-8.077 B5. C=DC(0.),8
X29.326 Y11.776 Z-8.076 B5. C=DC(0.),3
X29.326 Y37.071 Z-4.398 B5. C=DC(0.)
X29.326 Y37.5 Z-4.353 B5. C=DC(0.),7
X29.419 Y37.5 Z-4.419 B5. C=DC(0.),3
X29.576 Y37.5 Z-4.54 B5. C=DC(0.),3
X30.326 Y37.5 Z-5.137 B5. C=DC(0.),7
X30.326 Y37.067 Z-5.183 B5. C=DC(0.)
X30.326 Y20.18 Z-7.64 B5. C=DC(0.)
X30.326 Y17.149 Z-8.076 B5. C=DC(0.),8
X30.326 Y17.147 Z-8.077 B5. C=DC(0.),3
X30.326 Y-18.291 Z-8.077 B5. C=DC(0.),8
X30.326 Y-18.293 Z-5.007 B5. C=DC(0.)
X30.326 Y-18.322 Z-4.66 B5. C=DC(0.)
X30.326 Y-18.357 Z-4.322 B5. C=DC(0.)
X30.326 Y-18.416 Z-4.069 B5. C=DC(0.)
X30.326 Y-18.474 Z-3.858 B5. C=DC(0.)
X30.326 Y-18.57 Z-3.539 B5. C=DC(0.)
X30.326 Y-18.666 Z-3.323 B5. C=DC(0.)
X30.326 Y-18.871 Z-2.913 B5. C=DC(0.)
X30.326 Y-18.999 Z-2.701 B5. C=DC(0.)
X30.326 Y-19.127 Z-2.521 B5. C=DC(0.)
X30.326 Y-19.409 Z-2.15 B5. C=DC(0.)
X30.326 Y-19.573 Z-1.979 B5. C=DC(0.)
X30.326 Y-19.738 Z-1.832 B5. C=DC(0.)
X30.326 Y-19.913 Z-1.683 B5. C=DC(0.)
X30.326 Y-20.089 Z-1.543 B5. C=DC(0.)
X30.326 Y-20.278 Z-1.414 B5. C=DC(0.)
X30.326 Y-20.468 Z-1.301 B5. C=DC(0.)
X30.326 Y-20.862 Z-1.099 B5. C=DC(0.)
X30.326 Y-21.072 Z-1.011 B5. C=DC(0.)
X30.326 Y-21.282 Z-.944 B5. C=DC(0.)
X30.326 Y-21.708 Z-.83 B5. C=DC(0.)
X30.326 Y-22.143 Z-.767 B5. C=DC(0.)
X30.326 Y-22.578 Z-.758 B5. C=DC(0.)
X30.326 Y-32.156 Z-.758 B5. C=DC(0.)
X30.326 Y-32.592 Z-.76 B5. C=DC(0.)
X30.326 Y-33.024 Z-.784 B5. C=DC(0.)
X30.326 Y-33.446 Z-.869 B5. C=DC(0.)
X30.326 Y-33.861 Z-.987 B5. C=DC(0.)
X30.326 Y-34.251 Z-1.154 B5. C=DC(0.)
X30.326 Y-34.627 Z-1.356 B5. C=DC(0.)
X30.326 Y-34.97 Z-1.588 B5. C=DC(0.)
X30.326 Y-35.298 Z-1.864 B5. C=DC(0.)
X30.326 Y-35.583 Z-2.14 B5. C=DC(0.)
X30.326 Y-35.842 Z-2.483 B5. C=DC(0.)
X30.326 Y-36.068 Z-2.805 B5. C=DC(0.)
X30.326 Y-36.263 Z-3.18 B5. C=DC(0.)
X30.326 Y-36.422 Z-3.517 B5. C=DC(0.)
X30.326 Y-36.538 Z-3.903 B5. C=DC(0.)
X30.326 Y-36.628 Z-4.241 B5. C=DC(0.)
X30.326 Y-36.655 Z-4.41 B5. C=DC(0.)
X30.326 Y-36.706 Z-4.997 B5. C=DC(0.)
X30.326 Y-36.708 Z-8.077 B5. C=DC(0.),8
X30.326 Y-37.5 Z-8.077 B5. C=DC(0.),7
X31.326 Y-37.5 Z-8.077 B5. C=DC(0.),7
X31.326 Y-36.112 Z-8.077 B5. C=DC(0.),8
X31.326 Y-36.11 Z-5.045 B5. C=DC(0.)
X31.326 Y-36.083 Z-4.749 B5. C=DC(0.)
X31.326 Y-36.028 Z-4.31 B5. C=DC(0.)
X31.326 Y-35.974 Z-4.099 B5. C=DC(0.)
X31.326 Y-35.865 Z-3.787 B5. C=DC(0.)
X31.326 Y-35.756 Z-3.491 B5. C=DC(0.)
X31.326 Y-35.581 Z-3.18 B5. C=DC(0.)
X31.326 Y-35.345 Z-2.83 B5. C=DC(0.)
X31.326 Y-35.087 Z-2.551 B5. C=DC(0.)
X31.326 Y-34.767 Z-2.254 B5. C=DC(0.)
X31.326 Y-34.446 Z-2.018 B5. C=DC(0.)
X31.326 Y-34.063 Z-1.824 B5. C=DC(0.)
X31.326 Y-33.672 Z-1.66 B5. C=DC(0.)
X31.326 Y-33.251 Z-1.565 B5. C=DC(0.)
X31.326 Y-32.822 Z-1.513 B5. C=DC(0.)
X31.326 Y-32.388 Z-1.507 B5. C=DC(0.)
X31.326 Y-22.341 Z-1.507 B5. C=DC(0.)
X31.326 Y-21.905 Z-1.544 B5. C=DC(0.)
X31.326 Y-21.471 Z-1.625 B5. C=DC(0.)
X31.326 Y-21.257 Z-1.681 B5. C=DC(0.)
X31.326 Y-21.044 Z-1.771 B5. C=DC(0.)
X31.326 Y-20.653 Z-1.968 B5. C=DC(0.)
X31.326 Y-20.457 Z-2.077 B5. C=DC(0.)
X31.326 Y-20.26 Z-2.23 B5. C=DC(0.)
X31.326 Y-19.938 Z-2.53 B5. C=DC(0.)
X31.326 Y-19.777 Z-2.684 B5. C=DC(0.)
X31.326 Y-19.617 Z-2.884 B5. C=DC(0.)
X31.326 Y-19.492 Z-3.068 B5. C=DC(0.)
X31.326 Y-19.367 Z-3.262 B5. C=DC(0.)
X31.326 Y-19.251 Z-3.476 B5. C=DC(0.)
X31.326 Y-19.134 Z-3.789 B5. C=DC(0.)
X31.326 Y-19.062 Z-3.996 B5. C=DC(0.)
X31.326 Y-18.989 Z-4.228 B5. C=DC(0.)
X31.326 Y-18.938 Z-4.568 B5. C=DC(0.)
X31.326 Y-18.893 Z-4.975 B5. C=DC(0.)
X31.326 Y-18.89 Z-5.057 B5. C=DC(0.)
X31.326 Y-18.888 Z-8.077 B5. C=DC(0.),8
X31.326 Y23.19 Z-8.077 B5. C=DC(0.),8
X31.326 Y23.191 Z-8.077 B5. C=DC(0.),3
X31.326 Y26.137 Z-7.653 B5. C=DC(0.)
X31.326 Y37.079 Z-6.062 B5. C=DC(0.)
X31.326 Y37.5 Z-6.016 B5. C=DC(0.),7
X31.576 Y37.5 Z-6.245 B5. C=DC(0.),3
X31.826 Y37.5 Z-6.493 B5. C=DC(0.),3
X32.326 Y37.5 Z-7.008 B5. C=DC(0.),7
X32.326 Y37.085 Z-7.053 B5. C=DC(0.)
X32.326 Y30.867 Z-7.958 B5. C=DC(0.)
X32.326 Y30.038 Z-8.076 B5. C=DC(0.),8
X32.326 Y30.036 Z-8.077 B5. C=DC(0.),3
X32.326 Y-20.082 Z-8.077 B5. C=DC(0.),8
X32.326 Y-20.084 Z-5.034 B5. C=DC(0.)
X32.326 Y-20.131 Z-4.729 B5. C=DC(0.)
X32.326 Y-20.183 Z-4.44 B5. C=DC(0.)
X32.326 Y-20.338 Z-4.048 B5. C=DC(0.)
X32.326 Y-20.48 Z-3.799 B5. C=DC(0.)
X32.326 Y-20.621 Z-3.589 B5. C=DC(0.)
X32.326 Y-20.804 Z-3.423 B5. C=DC(0.)
X32.326 Y-20.988 Z-3.305 B5. C=DC(0.)
X32.326 Y-21.187 Z-3.16 B5. C=DC(0.)
X32.326 Y-21.386 Z-3.041 B5. C=DC(0.)
X32.326 Y-21.816 Z-2.945 B5. C=DC(0.)
X32.326 Y-22.252 Z-2.913 B5. C=DC(0.)
X32.326 Y-32.72 Z-2.913 B5. C=DC(0.)
X32.326 Y-33.151 Z-2.94 B5. C=DC(0.)
X32.326 Y-33.561 Z-3.02 B5. C=DC(0.)
X32.326 Y-33.92 Z-3.233 B5. C=DC(0.)
X32.326 Y-34.259 Z-3.471 B5. C=DC(0.)
X32.326 Y-34.488 Z-3.745 B5. C=DC(0.)
X32.326 Y-34.699 Z-4.115 B5. C=DC(0.)
X32.326 Y-34.804 Z-4.379 B5. C=DC(0.)
X32.326 Y-34.881 Z-4.792 B5. C=DC(0.)
X32.326 Y-34.916 Z-5.036 B5. C=DC(0.)
X32.326 Y-34.918 Z-8.077 B5. C=DC(0.),8
X32.326 Y-37.5 Z-8.077 B5. C=DC(0.),7
X33.326 Y-37.5 Z-8.077 B5. C=DC(0.),7
X33.326 Y37.5 Z-8.077 B5. C=DC(0.),7
X34.326 Y37.5 Z-8.077 B5. C=DC(0.),7
X34.326 Y-37.5 Z-8.077 B5. C=DC(0.),7
X35.326 Y-37.5 Z-8.077 B5. C=DC(0.),7
X35.326 Y37.5 Z-8.077 B5. C=DC(0.),7
X36.326 Y37.5 Z-8.077 B5. C=DC(0.),7
X36.326 Y-37.5 Z-8.077 B5. C=DC(0.),7
X36.326 Y-37.962 Z-8.066 B5. C=DC(0.)
X36.326 Y-38.423 Z-8.034 B5. C=DC(0.)
X36.326 Y-38.882 Z-7.981 B5. C=DC(0.)
X36.326 Y-39.337 Z-7.906 B5. C=DC(0.)
X36.326 Y-39.79 Z-7.811 B5. C=DC(0.)
X36.326 Y-40.237 Z-7.695 B5. C=DC(0.)
X36.326 Y-40.678 Z-7.558 B5. C=DC(0.)
X36.326 Y-41.112 Z-7.401 B5. C=DC(0.)
X36.326 Y-41.539 Z-7.224 B5. C=DC(0.)
X36.326 Y-41.957 Z-7.028 B5. C=DC(0.)
X36.326 Y-42.366 Z-6.813 B5. C=DC(0.)
X36.326 Y-42.764 Z-6.579 B5. C=DC(0.)
X36.326 Y-43.151 Z-6.327 B5. C=DC(0.)
X36.326 Y-43.526 Z-6.057 B5. C=DC(0.)
X36.326 Y-43.888 Z-5.77 B5. C=DC(0.)
X36.326 Y-44.237 Z-5.467 B5. C=DC(0.)
X36.326 Y-44.571 Z-5.148 B5. C=DC(0.)
X36.326 Y-44.89 Z-4.814 B5. C=DC(0.)
X36.326 Y-45.193 Z-4.465 B5. C=DC(0.)
X36.326 Y-45.48 Z-4.103 B5. C=DC(0.)
X36.326 Y-45.75 Z-3.728 B5. C=DC(0.)
X36.326 Y-46.002 Z-3.341 B5. C=DC(0.)
X36.326 Y-46.236 Z-2.943 B5. C=DC(0.)
X36.326 Y-46.452 Z-2.534 B5. C=DC(0.)
X36.326 Y-46.648 Z-2.116 B5. C=DC(0.)
X36.326 Y-46.825 Z-1.689 B5. C=DC(0.)
X36.326 Y-46.982 Z-1.254 B5. C=DC(0.)
X36.326 Y-47.118 Z-.813 B5. C=DC(0.)
X36.326 Y-47.234 Z-.366 B5. C=DC(0.)
X36.326 Y-47.33 Z.086 B5. C=DC(0.)
X36.326 Y-47.404 Z.542 B5. C=DC(0.)
X36.326 Y-47.457 Z1.001 B5. C=DC(0.)
X36.326 Y-47.489 Z1.462 B5. C=DC(0.)
X36.326 Y-47.5 Z1.923 B5. C=DC(0.)
X36.326 Y-47.5 Z2.423 B5. C=DC(0.)
G00 Z50.008
CYCLE832(0,_OFF,1)
G64
TRAFOOF
M05
G00 SUPA Z0. D0
G00 SUPA X-255. Y175.
D1
M51 ; C-Axis lock-off
M53 ; C-Axis lock-off
G00 B0. C=DC(0.)
ROT
TRANS
M30