;%_N_bolang2_MPF
;MASTERCAM - 2024
;MCX PATH  - C:\USERS\ADMINISTRATOR\DESKTOP\25.10.26ʵ\2026.01.28ʵ\
;MCAM FILE - 663.MCAM
;POST      - HEN-Xxzy_LITZ_LU400_SIEMENS.PST
;PROGRAM   - bolang2.MPF
;DATE      - 2026.01.29
;TIME      - 7:36 PM
;T3   - 6 /Բϳ            - D3   - D6.000mm - R3.000mm
G00 G17 G40 G71 G90
G00 SUPA Z0. D0
G00 SUPA X-255. Y175.
D1
M51 ; C-Axis lock-off
M53 ; C-Axis lock-off
G00 B0. C=DC(0.)
M1

N1
;OPERATION NO - 12
;OPERATION TYPE - UNIFIED
T3 ;6 /Բϳ
M06
D1
G54 G90
G00 X-25. Y31.314
B21.801 C=DC(90.)
TRAORI
CYCLE832(.025,_ROUGH)
X-25. Y31.314 Z50. S6000 M03,7
Z8.783
Y25.743 Z-5.145
G94 G01 X-25. Y23.886 Z-9.787 B21.801 C=DC(90.) F600,7
X-21.243 Y23.885 Z-9.785 B21.801 C=DC(90.) F800.,8
X-14.151 Y23.886 Z-2.699 B21.801 C=DC(90.)
X-13.85 Y23.886 Z-2.426 B21.801 C=DC(90.)
X-13.436 Y23.886 Z-2.11 B21.801 C=DC(90.)
X-13.009 Y23.886 Z-1.838 B21.801 C=DC(90.)
X-12.567 Y23.886 Z-1.707 B21.801 C=DC(90.),1
X-12.099 Y23.886 Z-1.41 B21.801 C=DC(90.)
X-11.67 Y23.886 Z-1.267 B21.801 C=DC(90.)
X-11.22 Y23.886 Z-1.155 B21.801 C=DC(90.)
X-10.718 Y23.886 Z-1.072 B21.801 C=DC(90.)
X-10.171 Y23.886 Z-1.032 B21.801 C=DC(90.)
X-9.703 Y23.886 Z-1.039 B21.801 C=DC(90.)
X-9.227 Y23.886 Z-1.08 B21.801 C=DC(90.)
X-8.696 Y23.886 Z-1.172 B21.801 C=DC(90.)
X-8.205 Y23.886 Z-1.305 B21.801 C=DC(90.)
X-7.733 Y23.886 Z-1.474 B21.801 C=DC(90.)
X-7.324 Y23.886 Z-1.661 B21.801 C=DC(90.)
X-6.896 Y23.886 Z-1.895 B21.801 C=DC(90.)
X-6.485 Y23.886 Z-2.169 B21.801 C=DC(90.)
X-6.184 Y23.886 Z-2.402 B21.801 C=DC(90.)
X-5.96 Y23.886 Z-2.597 B21.801 C=DC(90.)
X-5.42 Y23.886 Z-3.124 B21.801 C=DC(90.)
X-3.05 Y23.886 Z-5.49 B21.801 C=DC(90.),8
X3.05 Y23.886 Z-5.49 B21.801 C=DC(90.),8
X5.86 Y23.886 Z-2.689 B21.801 C=DC(90.)
X6.06 Y23.886 Z-2.505 B21.801 C=DC(90.)
X6.465 Y23.886 Z-2.183 B21.801 C=DC(90.)
X6.865 Y23.886 Z-1.914 B21.801 C=DC(90.)
X7.354 Y23.886 Z-1.647 B21.801 C=DC(90.)
X7.821 Y23.886 Z-1.44 B21.801 C=DC(90.)
X8.302 Y23.886 Z-1.274 B21.801 C=DC(90.)
X8.811 Y23.886 Z-1.148 B21.801 C=DC(90.)
X9.297 Y23.886 Z-1.071 B21.801 C=DC(90.)
X9.804 Y23.886 Z-1.034 B21.801 C=DC(90.)
X10.296 Y23.886 Z-1.038 B21.801 C=DC(90.)
X10.721 Y23.886 Z-1.072 B21.801 C=DC(90.)
X11.261 Y23.886 Z-1.162 B21.801 C=DC(90.)
X11.762 Y23.886 Z-1.293 B21.801 C=DC(90.)
X12.236 Y23.886 Z-1.463 B21.801 C=DC(90.)
X12.659 Y23.886 Z-1.651 B21.801 C=DC(90.)
X13.13 Y23.886 Z-1.91 B21.801 C=DC(90.)
X13.46 Y23.886 Z-2.127 B21.801 C=DC(90.)
X13.861 Y23.886 Z-2.436 B21.801 C=DC(90.)
X14.225 Y23.886 Z-2.77 B21.801 C=DC(90.)
X21.243 Y23.885 Z-9.785 B21.801 C=DC(90.),8
X25. Y23.886 Z-9.787 B21.801 C=DC(90.),7
X25. Y23.586 Z-9.786 B21.801 C=DC(90.),7
X21.244 Y23.586 Z-9.783 B21.801 C=DC(90.),8
X14.191 Y23.587 Z-2.736 B21.801 C=DC(90.)
X13.817 Y23.586 Z-2.401 B21.801 C=DC(90.)
X13.42 Y23.586 Z-2.099 B21.801 C=DC(90.)
X12.996 Y23.587 Z-1.831 B21.801 C=DC(90.)
X12.581 Y23.586 Z-1.612 B21.801 C=DC(90.)
X12.13 Y23.587 Z-1.421 B21.801 C=DC(90.)
X11.668 Y23.586 Z-1.267 B21.801 C=DC(90.)
X11.252 Y23.586 Z-1.161 B21.801 C=DC(90.)
X10.722 Y23.586 Z-1.072 B21.801 C=DC(90.)
X10.173 Y23.586 Z-1.031 B21.801 C=DC(90.)
X9.69 Y23.586 Z-1.039 B21.801 C=DC(90.)
X9.281 Y23.586 Z-1.073 B21.801 C=DC(90.)
X8.738 Y23.586 Z-1.163 B21.801 C=DC(90.)
X8.268 Y23.587 Z-1.284 B21.801 C=DC(90.)
X7.8 Y23.586 Z-1.448 B21.801 C=DC(90.)
X7.309 Y23.586 Z-1.666 B21.801 C=DC(90.)
X6.899 Y23.586 Z-1.893 B21.801 C=DC(90.)
X6.488 Y23.586 Z-2.164 B21.801 C=DC(90.)
X6.131 Y23.586 Z-2.444 B21.801 C=DC(90.)
X5.884 Y23.586 Z-2.666 B21.801 C=DC(90.)
X3.11 Y23.586 Z-5.431 B21.801 C=DC(90.),3
X3.047 Y23.586 Z-5.488 B21.801 C=DC(90.),8
X-2.911 Y23.586 Z-5.492 B21.801 C=DC(90.),6
X-3.054 Y23.586 Z-5.486 B21.801 C=DC(90.),8
X-5.359 Y23.586 Z-3.184 B21.801 C=DC(90.),6
X-5.934 Y23.586 Z-2.621 B21.801 C=DC(90.)
X-6.157 Y23.586 Z-2.423 B21.801 C=DC(90.)
X-6.483 Y23.586 Z-2.167 B21.801 C=DC(90.)
X-6.919 Y23.586 Z-1.881 B21.801 C=DC(90.)
X-7.362 Y23.587 Z-1.64 B21.801 C=DC(90.)
X-7.822 Y23.587 Z-1.44 B21.801 C=DC(90.)
X-8.283 Y23.586 Z-1.279 B21.801 C=DC(90.)
X-8.788 Y23.586 Z-1.152 B21.801 C=DC(90.)
X-9.272 Y23.586 Z-1.074 B21.801 C=DC(90.)
X-9.834 Y23.586 Z-1.033 B21.801 C=DC(90.)
X-10.254 Y23.586 Z-1.035 B21.801 C=DC(90.)
X-10.781 Y23.586 Z-1.081 B21.801 C=DC(90.)
X-11.308 Y23.586 Z-1.173 B21.801 C=DC(90.)
X-11.751 Y23.586 Z-1.291 B21.801 C=DC(90.)
X-12.212 Y23.587 Z-1.451 B21.801 C=DC(90.)
X-12.67 Y23.586 Z-1.657 B21.801 C=DC(90.)
X-13.071 Y23.587 Z-1.876 B21.801 C=DC(90.)
X-13.457 Y23.586 Z-2.125 B21.801 C=DC(90.)
X-13.908 Y23.586 Z-2.476 B21.801 C=DC(90.)
X-14.216 Y23.587 Z-2.761 B21.801 C=DC(90.)
X-21.244 Y23.586 Z-9.783 B21.801 C=DC(90.),8
X-25. Y23.586 Z-9.786 B21.801 C=DC(90.),7
X-25. Y23.287 Z-9.786 B21.801 C=DC(90.),7
X-21.244 Y23.287 Z-9.783 B21.801 C=DC(90.),8
X-18.962 Y23.287 Z-7.505 B21.801 C=DC(90.)
X-14.136 Y23.287 Z-2.684 B21.801 C=DC(90.)
X-13.795 Y23.287 Z-2.383 B21.801 C=DC(90.)
X-13.361 Y23.287 Z-2.06 B21.801 C=DC(90.)
X-13.036 Y23.287 Z-1.853 B21.801 C=DC(90.)
X-12.576 Y23.287 Z-1.61 B21.801 C=DC(90.)
X-12.128 Y23.287 Z-1.421 B21.801 C=DC(90.)
X-11.708 Y23.287 Z-1.278 B21.801 C=DC(90.)
X-11.189 Y23.287 Z-1.149 B21.801 C=DC(90.)
X-10.72 Y23.287 Z-1.072 B21.801 C=DC(90.)
X-10.168 Y23.287 Z-1.151 B21.801 C=DC(90.),1
X-9.692 Y23.287 Z-1.038 B21.801 C=DC(90.)
X-9.249 Y23.287 Z-1.077 B21.801 C=DC(90.)
X-8.746 Y23.287 Z-1.161 B21.801 C=DC(90.)
X-8.22 Y23.287 Z-1.3 B21.801 C=DC(90.)
X-7.729 Y23.287 Z-1.475 B21.801 C=DC(90.)
X-7.341 Y23.287 Z-1.65 B21.801 C=DC(90.)
X-6.872 Y23.287 Z-1.909 B21.801 C=DC(90.)
X-6.514 Y23.287 Z-2.145 B21.801 C=DC(90.)
X-6.094 Y23.287 Z-2.474 B21.801 C=DC(90.)
X-5.916 Y23.287 Z-2.636 B21.801 C=DC(90.)
X-3.053 Y23.287 Z-5.487 B21.801 C=DC(90.),8
X-2.315 Y23.287 Z-5.493 B21.801 C=DC(90.),6
X2.908 Y23.287 Z-5.493 B21.801 C=DC(90.),6
X3.053 Y23.287 Z-5.487 B21.801 C=DC(90.),8
X5.878 Y23.287 Z-2.671 B21.801 C=DC(90.)
X6.176 Y23.287 Z-2.406 B21.801 C=DC(90.)
X6.505 Y23.287 Z-2.151 B21.801 C=DC(90.)
X6.896 Y23.287 Z-1.894 B21.801 C=DC(90.)
X7.361 Y23.287 Z-1.641 B21.801 C=DC(90.)
X7.812 Y23.287 Z-1.443 B21.801 C=DC(90.)
X8.245 Y23.287 Z-1.291 B21.801 C=DC(90.)
X8.728 Y23.287 Z-1.165 B21.801 C=DC(90.)
X9.267 Y23.287 Z-1.075 B21.801 C=DC(90.)
X9.77 Y23.287 Z-1.033 B21.801 C=DC(90.)
X10.26 Y23.287 Z-1.035 B21.801 C=DC(90.)
X10.72 Y23.287 Z-1.072 B21.801 C=DC(90.)
X11.283 Y23.287 Z-1.167 B21.801 C=DC(90.)
X11.793 Y23.287 Z-1.303 B21.801 C=DC(90.)
X12.243 Y23.287 Z-1.464 B21.801 C=DC(90.)
X12.663 Y23.287 Z-1.653 B21.801 C=DC(90.)
X13.119 Y23.287 Z-1.903 B21.801 C=DC(90.)
X13.433 Y23.287 Z-2.108 B21.801 C=DC(90.)
X13.886 Y23.287 Z-2.458 B21.801 C=DC(90.)
X14.218 Y23.287 Z-2.762 B21.801 C=DC(90.)
X18.962 Y23.287 Z-7.505 B21.801 C=DC(90.),6
X21.244 Y23.287 Z-9.783 B21.801 C=DC(90.),8
X25. Y23.287 Z-9.786 B21.801 C=DC(90.),7
X25. Y22.988 Z-9.786 B21.801 C=DC(90.),7
X21.24 Y22.987 Z-9.78 B21.801 C=DC(90.),8
X18.986 Y22.988 Z-7.529 B21.801 C=DC(90.)
X16.583 Y22.988 Z-5.126 B21.801 C=DC(90.),6
X14.135 Y22.988 Z-2.684 B21.801 C=DC(90.)
X13.802 Y22.988 Z-2.389 B21.801 C=DC(90.)
X13.433 Y22.988 Z-2.108 B21.801 C=DC(90.)
X13.031 Y22.988 Z-1.852 B21.801 C=DC(90.)
X12.573 Y22.988 Z-1.608 B21.801 C=DC(90.)
X12.142 Y22.988 Z-1.426 B21.801 C=DC(90.)
X11.739 Y22.988 Z-1.287 B21.801 C=DC(90.)
X11.264 Y22.988 Z-1.163 B21.801 C=DC(90.)
X10.72 Y22.988 Z-1.072 B21.801 C=DC(90.)
X10.169 Y22.988 Z-1.031 B21.801 C=DC(90.)
X9.73 Y22.988 Z-1.035 B21.801 C=DC(90.)
X9.252 Y22.988 Z-1.077 B21.801 C=DC(90.)
X8.788 Y22.988 Z-1.153 B21.801 C=DC(90.)
X8.25 Y22.988 Z-1.289 B21.801 C=DC(90.)
X7.73 Y22.988 Z-1.475 B21.801 C=DC(90.)
X7.278 Y22.988 Z-1.683 B21.801 C=DC(90.)
X6.965 Y22.988 Z-1.853 B21.801 C=DC(90.)
X6.495 Y22.988 Z-2.159 B21.801 C=DC(90.)
X6.106 Y22.988 Z-2.463 B21.801 C=DC(90.)
X5.694 Y22.988 Z-2.849 B21.801 C=DC(90.)
X3.053 Y22.988 Z-5.487 B21.801 C=DC(90.),8
X1.711 Y22.988 Z-5.493 B21.801 C=DC(90.),6
X-2.903 Y22.988 Z-5.493 B21.801 C=DC(90.),6
X-3.053 Y22.988 Z-5.487 B21.801 C=DC(90.),8
X-5.865 Y22.988 Z-2.684 B21.801 C=DC(90.)
X-6.09 Y22.988 Z-2.478 B21.801 C=DC(90.)
X-6.521 Y22.988 Z-2.14 B21.801 C=DC(90.)
X-6.947 Y22.988 Z-1.863 B21.801 C=DC(90.)
X-7.387 Y22.988 Z-1.628 B21.801 C=DC(90.)
X-7.802 Y22.988 Z-1.447 B21.801 C=DC(90.)
X-8.269 Y22.988 Z-1.283 B21.801 C=DC(90.)
X-8.746 Y22.988 Z-1.161 B21.801 C=DC(90.)
X-9.252 Y22.988 Z-1.077 B21.801 C=DC(90.)
X-9.767 Y22.988 Z-1.033 B21.801 C=DC(90.)
X-10.261 Y22.988 Z-1.135 B21.801 C=DC(90.),1
X-10.72 Y22.988 Z-1.072 B21.801 C=DC(90.)
X-11.281 Y22.988 Z-1.167 B21.801 C=DC(90.)
X-11.736 Y22.988 Z-1.286 B21.801 C=DC(90.)
X-12.212 Y22.988 Z-1.451 B21.801 C=DC(90.)
X-12.665 Y22.988 Z-1.655 B21.801 C=DC(90.)
X-13.124 Y22.988 Z-1.907 B21.801 C=DC(90.)
X-13.487 Y22.988 Z-2.148 B21.801 C=DC(90.)
X-13.843 Y22.988 Z-2.421 B21.801 C=DC(90.)
X-14.215 Y22.988 Z-2.759 B21.801 C=DC(90.)
X-18.986 Y22.988 Z-7.529 B21.801 C=DC(90.)
X-21.24 Y22.987 Z-9.78 B21.801 C=DC(90.),8
X-25. Y22.988 Z-9.786 B21.801 C=DC(90.),7
X-25. Y22.688 Z-9.786 B21.801 C=DC(90.),7
X-21.244 Y22.688 Z-9.783 B21.801 C=DC(90.),8
X-18.866 Y22.688 Z-7.409 B21.801 C=DC(90.)
X-14.172 Y22.688 Z-2.72 B21.801 C=DC(90.)
X-13.868 Y22.688 Z-2.441 B21.801 C=DC(90.)
X-13.433 Y22.688 Z-2.108 B21.801 C=DC(90.)
X-13.057 Y22.689 Z-1.866 B21.801 C=DC(90.)
X-12.586 Y22.688 Z-1.614 B21.801 C=DC(90.)
X-12.212 Y22.688 Z-1.451 B21.801 C=DC(90.)
X-11.725 Y22.689 Z-1.283 B21.801 C=DC(90.)
X-11.235 Y22.688 Z-1.157 B21.801 C=DC(90.)
X-10.72 Y22.688 Z-1.072 B21.801 C=DC(90.)
X-10.169 Y22.688 Z-1.131 B21.801 C=DC(90.),1
X-9.77 Y22.688 Z-1.033 B21.801 C=DC(90.)
X-9.238 Y22.688 Z-1.078 B21.801 C=DC(90.)
X-8.789 Y22.688 Z-1.152 B21.801 C=DC(90.)
X-8.269 Y22.688 Z-1.283 B21.801 C=DC(90.)
X-7.795 Y22.688 Z-1.45 B21.801 C=DC(90.)
X-7.291 Y22.688 Z-1.676 B21.801 C=DC(90.)
X-6.948 Y22.688 Z-1.863 B21.801 C=DC(90.)
X-6.512 Y22.688 Z-2.146 B21.801 C=DC(90.)
X-6.092 Y22.688 Z-2.476 B21.801 C=DC(90.)
X-5.802 Y22.688 Z-2.746 B21.801 C=DC(90.)
X-3.053 Y22.688 Z-5.487 B21.801 C=DC(90.),8
X-2.06 Y22.688 Z-5.493 B21.801 C=DC(90.),6
X2.92 Y22.688 Z-5.493 B21.801 C=DC(90.),6
X3.053 Y22.688 Z-5.487 B21.801 C=DC(90.),8
X5.739 Y22.688 Z-2.805 B21.801 C=DC(90.)
X6.119 Y22.688 Z-2.453 B21.801 C=DC(90.)
X6.505 Y22.688 Z-2.151 B21.801 C=DC(90.)
X6.995 Y22.688 Z-1.836 B21.801 C=DC(90.)
X7.327 Y22.688 Z-1.656 B21.801 C=DC(90.)
X7.795 Y22.688 Z-1.45 B21.801 C=DC(90.)
X8.269 Y22.688 Z-1.283 B21.801 C=DC(90.)
X8.816 Y22.688 Z-1.146 B21.801 C=DC(90.)
X9.326 Y22.688 Z-1.067 B21.801 C=DC(90.)
X9.77 Y22.688 Z-1.033 B21.801 C=DC(90.)
X10.26 Y22.688 Z-1.035 B21.801 C=DC(90.)
X10.72 Y22.688 Z-1.072 B21.801 C=DC(90.)
X11.258 Y22.688 Z-1.161 B21.801 C=DC(90.)
X11.757 Y22.688 Z-1.293 B21.801 C=DC(90.)
X12.249 Y22.688 Z-1.466 B21.801 C=DC(90.)
X12.666 Y22.688 Z-1.655 B21.801 C=DC(90.)
X13.079 Y22.689 Z-1.879 B21.801 C=DC(90.)
X13.433 Y22.688 Z-2.108 B21.801 C=DC(90.)
X13.868 Y22.688 Z-2.441 B21.801 C=DC(90.)
X14.272 Y22.688 Z-2.815 B21.801 C=DC(90.)
X16.463 Y22.688 Z-5.006 B21.801 C=DC(90.)
X18.866 Y22.688 Z-7.409 B21.801 C=DC(90.)
X21.244 Y22.688 Z-9.783 B21.801 C=DC(90.),8
X25. Y22.688 Z-9.786 B21.801 C=DC(90.),7
X25. Y22.389 Z-9.786 B21.801 C=DC(90.),7
X21.244 Y22.389 Z-9.783 B21.801 C=DC(90.),8
X18.763 Y22.389 Z-7.306 B21.801 C=DC(90.)
X16.516 Y22.389 Z-5.059 B21.801 C=DC(90.)
X14.18 Y22.389 Z-2.728 B21.801 C=DC(90.)
X13.883 Y22.389 Z-2.455 B21.801 C=DC(90.)
X13.494 Y22.389 Z-2.151 B21.801 C=DC(90.)
X13.077 Y22.389 Z-1.877 B21.801 C=DC(90.)
X12.599 Y22.389 Z-1.62 B21.801 C=DC(90.)
X12.168 Y22.389 Z-1.435 B21.801 C=DC(90.)
X11.72 Y22.389 Z-1.282 B21.801 C=DC(90.)
X11.257 Y22.389 Z-1.161 B21.801 C=DC(90.)
X10.72 Y22.389 Z-1.072 B21.801 C=DC(90.)
X10.173 Y22.389 Z-1.031 B21.801 C=DC(90.)
X9.77 Y22.389 Z-1.033 B21.801 C=DC(90.)
X9.234 Y22.389 Z-1.079 B21.801 C=DC(90.)
X8.992 Y22.389 Z-1.199 B21.801 C=DC(90.),1
X8.285 Y22.389 Z-1.279 B21.801 C=DC(90.)
X7.832 Y22.389 Z-1.436 B21.801 C=DC(90.)
X7.333 Y22.389 Z-1.654 B21.801 C=DC(90.)
X6.96 Y22.389 Z-1.855 B21.801 C=DC(90.)
X6.483 Y22.389 Z-2.167 B21.801 C=DC(90.)
X6.114 Y22.389 Z-2.456 B21.801 C=DC(90.)
X5.515 Y22.389 Z-3.028 B21.801 C=DC(90.),6
X3.158 Y22.389 Z-5.384 B21.801 C=DC(90.),6
X3.045 Y22.389 Z-5.488 B21.801 C=DC(90.),8
X-3.052 Y22.389 Z-5.488 B21.801 C=DC(90.),8
X-5.794 Y22.389 Z-2.753 B21.801 C=DC(90.)
X-6.106 Y22.389 Z-2.463 B21.801 C=DC(90.)
X-6.483 Y22.389 Z-2.167 B21.801 C=DC(90.)
X-6.96 Y22.389 Z-1.855 B21.801 C=DC(90.)
X-7.319 Y22.389 Z-1.661 B21.801 C=DC(90.)
X-7.765 Y22.389 Z-1.461 B21.801 C=DC(90.)
X-8.263 Y22.389 Z-1.285 B21.801 C=DC(90.)
X-8.802 Y22.389 Z-1.149 B21.801 C=DC(90.)
X-9.27 Y22.389 Z-1.074 B21.801 C=DC(90.)
X-9.77 Y22.389 Z-1.033 B21.801 C=DC(90.)
X-10.261 Y22.389 Z-1.135 B21.801 C=DC(90.),1
X-10.788 Y22.389 Z-1.082 B21.801 C=DC(90.)
X-11.251 Y22.389 Z-1.16 B21.801 C=DC(90.)
X-11.717 Y22.389 Z-1.281 B21.801 C=DC(90.)
X-12.255 Y22.389 Z-1.468 B21.801 C=DC(90.)
X-12.599 Y22.389 Z-1.62 B21.801 C=DC(90.)
X-13.052 Y22.389 Z-1.863 B21.801 C=DC(90.)
X-13.422 Y22.389 Z-2.1 B21.801 C=DC(90.)
X-13.869 Y22.389 Z-2.442 B21.801 C=DC(90.)
X-14.248 Y22.389 Z-2.793 B21.801 C=DC(90.)
X-18.763 Y22.389 Z-7.306 B21.801 C=DC(90.)
X-21.153 Y22.389 Z-9.694 B21.801 C=DC(90.),3
X-21.25 Y22.389 Z-9.783 B21.801 C=DC(90.),8
X-25. Y22.389 Z-9.786 B21.801 C=DC(90.),7
X-25. Y22.09 Z-9.786 B21.801 C=DC(90.),7
X-21.244 Y22.089 Z-9.783 B21.801 C=DC(90.),8
X-18.669 Y22.09 Z-7.212 B21.801 C=DC(90.)
X-14.157 Y22.09 Z-2.705 B21.801 C=DC(90.)
X-13.824 Y22.09 Z-2.405 B21.801 C=DC(90.)
X-13.433 Y22.09 Z-2.108 B21.801 C=DC(90.)
X-13.04 Y22.09 Z-1.856 B21.801 C=DC(90.)
X-12.554 Y22.09 Z-1.6 B21.801 C=DC(90.)
X-12.212 Y22.09 Z-1.451 B21.801 C=DC(90.)
X-11.731 Y22.09 Z-1.285 B21.801 C=DC(90.)
X-11.261 Y22.09 Z-1.162 B21.801 C=DC(90.)
X-10.72 Y22.09 Z-1.072 B21.801 C=DC(90.)
X-10.168 Y22.09 Z-1.031 B21.801 C=DC(90.)
X-9.685 Y22.09 Z-1.039 B21.801 C=DC(90.)
X-9.261 Y22.09 Z-1.075 B21.801 C=DC(90.)
X-8.802 Y22.09 Z-1.149 B21.801 C=DC(90.)
X-8.361 Y22.09 Z-1.257 B21.801 C=DC(90.)
X-7.938 Y22.09 Z-1.395 B21.801 C=DC(90.)
X-7.63 Y22.09 Z-1.519 B21.801 C=DC(90.)
X-7.327 Y22.09 Z-1.656 B21.801 C=DC(90.)
X-6.918 Y22.09 Z-1.881 B21.801 C=DC(90.)
X-6.461 Y22.09 Z-2.183 B21.801 C=DC(90.)
X-6.224 Y22.09 Z-2.37 B21.801 C=DC(90.)
X-6.006 Y22.09 Z-2.554 B21.801 C=DC(90.)
X-5.367 Y22.09 Z-3.176 B21.801 C=DC(90.),6
X-3.05 Y22.09 Z-5.49 B21.801 C=DC(90.),8
X3.022 Y22.09 Z-5.49 B21.801 C=DC(90.),3
X3.053 Y22.09 Z-5.487 B21.801 C=DC(90.),8
X5.69 Y22.09 Z-2.857 B21.801 C=DC(90.)
X5.95 Y22.09 Z-2.604 B21.801 C=DC(90.)
X6.119 Y22.09 Z-2.453 B21.801 C=DC(90.)
X6.461 Y22.09 Z-2.183 B21.801 C=DC(90.)
X6.918 Y22.09 Z-1.881 B21.801 C=DC(90.)
X7.417 Y22.09 Z-1.614 B21.801 C=DC(90.)
X7.861 Y22.09 Z-1.424 B21.801 C=DC(90.)
X8.317 Y22.09 Z-1.27 B21.801 C=DC(90.)
X8.828 Y22.09 Z-1.145 B21.801 C=DC(90.)
X9.291 Y22.09 Z-1.072 B21.801 C=DC(90.)
X9.77 Y22.09 Z-1.033 B21.801 C=DC(90.)
X10.26 Y22.09 Z-1.035 B21.801 C=DC(90.)
X10.72 Y22.09 Z-1.072 B21.801 C=DC(90.)
X11.257 Y22.09 Z-1.161 B21.801 C=DC(90.)
X11.738 Y22.09 Z-1.287 B21.801 C=DC(90.)
X12.233 Y22.09 Z-1.46 B21.801 C=DC(90.)
X12.639 Y22.09 Z-1.641 B21.801 C=DC(90.)
X13.102 Y22.09 Z-1.893 B21.801 C=DC(90.)
X13.501 Y22.09 Z-2.157 B21.801 C=DC(90.)
X13.824 Y22.09 Z-2.405 B21.801 C=DC(90.)
X14.239 Y22.09 Z-2.782 B21.801 C=DC(90.)
X16.65 Y22.09 Z-5.193 B21.801 C=DC(90.)
X18.669 Y22.09 Z-7.212 B21.801 C=DC(90.)
X21.244 Y22.089 Z-9.783 B21.801 C=DC(90.),8
X25. Y22.09 Z-9.786 B21.801 C=DC(90.),7
X25. Y21.79 Z-9.786 B21.801 C=DC(90.),7
X21.244 Y21.79 Z-9.783 B21.801 C=DC(90.),8
X18.718 Y21.79 Z-7.26 B21.801 C=DC(90.)
X16.768 Y21.79 Z-5.311 B21.801 C=DC(90.)
X14.142 Y21.79 Z-2.69 B21.801 C=DC(90.)
X13.801 Y21.79 Z-2.387 B21.801 C=DC(90.)
X13.411 Y21.79 Z-2.093 B21.801 C=DC(90.)
X13.044 Y21.791 Z-1.859 B21.801 C=DC(90.)
X12.589 Y21.79 Z-1.616 B21.801 C=DC(90.)
X12.145 Y21.79 Z-1.427 B21.801 C=DC(90.)
X11.735 Y21.79 Z-1.286 B21.801 C=DC(90.)
X11.257 Y21.79 Z-1.161 B21.801 C=DC(90.)
X10.72 Y21.79 Z-1.072 B21.801 C=DC(90.)
X10.178 Y21.79 Z-1.031 B21.801 C=DC(90.)
X9.77 Y21.79 Z-1.033 B21.801 C=DC(90.)
X9.257 Y21.79 Z-1.076 B21.801 C=DC(90.)
X8.753 Y21.79 Z-1.16 B21.801 C=DC(90.)
X8.229 Y21.79 Z-1.296 B21.801 C=DC(90.)
X7.732 Y21.79 Z-1.474 B21.801 C=DC(90.)
X7.267 Y21.79 Z-1.689 B21.801 C=DC(90.)
X6.969 Y21.79 Z-1.852 B21.801 C=DC(90.)
X6.549 Y21.79 Z-2.122 B21.801 C=DC(90.)
X6.246 Y21.79 Z-2.351 B21.801 C=DC(90.)
X6.062 Y21.79 Z-2.503 B21.801 C=DC(90.)
X5.734 Y21.79 Z-2.81 B21.801 C=DC(90.)
X3.053 Y21.79 Z-5.487 B21.801 C=DC(90.),8
X1.598 Y21.79 Z-5.493 B21.801 C=DC(90.),6
X-3.051 Y21.79 Z-5.488 B21.801 C=DC(90.),8
X-5.522 Y21.79 Z-3.021 B21.801 C=DC(90.)
X-5.921 Y21.79 Z-2.632 B21.801 C=DC(90.)
X-6.106 Y21.79 Z-2.463 B21.801 C=DC(90.)
X-6.492 Y21.79 Z-2.162 B21.801 C=DC(90.)
X-6.854 Y21.79 Z-1.924 B21.801 C=DC(90.)
X-7.141 Y21.79 Z-1.756 B21.801 C=DC(90.)
X-7.408 Y21.79 Z-1.62 B21.801 C=DC(90.)
X-7.823 Y21.79 Z-1.439 B21.801 C=DC(90.)
X-8.331 Y21.79 Z-1.266 B21.801 C=DC(90.)
X-8.808 Y21.79 Z-1.148 B21.801 C=DC(90.)
X-9.257 Y21.79 Z-1.076 B21.801 C=DC(90.)
X-9.77 Y21.79 Z-1.033 B21.801 C=DC(90.)
X-10.254 Y21.79 Z-1.035 B21.801 C=DC(90.)
X-10.76 Y21.79 Z-1.078 B21.801 C=DC(90.)
X-11.259 Y21.79 Z-1.162 B21.801 C=DC(90.)
X-11.774 Y21.79 Z-1.298 B21.801 C=DC(90.)
X-12.252 Y21.79 Z-1.468 B21.801 C=DC(90.)
X-12.669 Y21.79 Z-1.657 B21.801 C=DC(90.)
X-13.044 Y21.791 Z-1.859 B21.801 C=DC(90.)
X-13.487 Y21.79 Z-2.147 B21.801 C=DC(90.)
X-13.897 Y21.79 Z-2.467 B21.801 C=DC(90.)
X-14.222 Y21.79 Z-2.765 B21.801 C=DC(90.)
X-18.718 Y21.79 Z-7.26 B21.801 C=DC(90.)
X-21.244 Y21.79 Z-9.783 B21.801 C=DC(90.),8
X-25. Y21.79 Z-9.786 B21.801 C=DC(90.),7
X-25. Y21.491 Z-9.786 B21.801 C=DC(90.),7
X-21.244 Y21.491 Z-9.783 B21.801 C=DC(90.),8
X-18.833 Y21.491 Z-7.376 B21.801 C=DC(90.)
X-16.649 Y21.491 Z-5.191 B21.801 C=DC(90.),6
X-14.123 Y21.491 Z-2.673 B21.801 C=DC(90.)
X-13.823 Y21.491 Z-2.405 B21.801 C=DC(90.)
X-13.442 Y21.491 Z-2.114 B21.801 C=DC(90.)
X-13.04 Y21.491 Z-1.856 B21.801 C=DC(90.)
X-12.561 Y21.491 Z-1.603 B21.801 C=DC(90.)
X-12.136 Y21.491 Z-1.424 B21.801 C=DC(90.)
X-11.678 Y21.491 Z-1.27 B21.801 C=DC(90.)
X-11.257 Y21.491 Z-1.161 B21.801 C=DC(90.)
X-10.72 Y21.491 Z-1.072 B21.801 C=DC(90.)
X-10.169 Y21.491 Z-1.031 B21.801 C=DC(90.)
X-9.748 Y21.491 Z-1.034 B21.801 C=DC(90.)
X-9.287 Y21.491 Z-1.072 B21.801 C=DC(90.)
X-8.802 Y21.491 Z-1.149 B21.801 C=DC(90.)
X-8.321 Y21.491 Z-1.269 B21.801 C=DC(90.)
X-7.801 Y21.491 Z-1.447 B21.801 C=DC(90.)
X-7.295 Y21.491 Z-1.674 B21.801 C=DC(90.)
X-6.945 Y21.491 Z-1.865 B21.801 C=DC(90.)
X-6.488 Y21.491 Z-2.163 B21.801 C=DC(90.)
X-6.072 Y21.491 Z-2.495 B21.801 C=DC(90.)
X-5.693 Y21.491 Z-2.85 B21.801 C=DC(90.)
X-3.053 Y21.491 Z-5.487 B21.801 C=DC(90.),8
X-2.324 Y21.491 Z-5.493 B21.801 C=DC(90.),6
X3.007 Y21.491 Z-5.491 B21.801 C=DC(90.),3
X3.053 Y21.491 Z-5.487 B21.801 C=DC(90.),8
X5.696 Y21.491 Z-2.847 B21.801 C=DC(90.)
X6.152 Y21.491 Z-2.425 B21.801 C=DC(90.)
X6.488 Y21.491 Z-2.163 B21.801 C=DC(90.)
X6.945 Y21.491 Z-1.865 B21.801 C=DC(90.)
X7.413 Y21.491 Z-1.616 B21.801 C=DC(90.)
X7.857 Y21.491 Z-1.426 B21.801 C=DC(90.)
X8.336 Y21.491 Z-1.265 B21.801 C=DC(90.)
X8.802 Y21.491 Z-1.149 B21.801 C=DC(90.)
X9.287 Y21.491 Z-1.072 B21.801 C=DC(90.)
X9.773 Y21.491 Z-1.033 B21.801 C=DC(90.)
X10.254 Y21.491 Z-1.035 B21.801 C=DC(90.)
X10.720 Y21.491 Z-1.138 B21.801 C=DC(90.)
X11.305 Y21.491 Z-1.173 B21.801 C=DC(90.)
X11.806 Y21.491 Z-1.307 B21.801 C=DC(90.)
X12.283 Y21.491 Z-1.481 B21.801 C=DC(90.)
X12.655 Y21.491 Z-1.648 B21.801 C=DC(90.)
X13.094 Y21.491 Z-1.889 B21.801 C=DC(90.)
X13.433 Y21.491 Z-2.108 B21.801 C=DC(90.)
X13.807 Y21.491 Z-2.392 B21.801 C=DC(90.)
X14.216 Y21.491 Z-2.759 B21.801 C=DC(90.)
X16.649 Y21.491 Z-5.191 B21.801 C=DC(90.)
X18.833 Y21.491 Z-7.376 B21.801 C=DC(90.)
X21.244 Y21.491 Z-9.783 B21.801 C=DC(90.),8
X25. Y21.491 Z-9.786 B21.801 C=DC(90.),7
X25. Y21.192 Z-9.786 B21.801 C=DC(90.),7
X21.244 Y21.191 Z-9.783 B21.801 C=DC(90.),8
X18.932 Y21.192 Z-7.475 B21.801 C=DC(90.)
X16.552 Y21.192 Z-5.095 B21.801 C=DC(90.)
X14.109 Y21.192 Z-2.659 B21.801 C=DC(90.)
X13.819 Y21.192 Z-2.601 B21.801 C=DC(90.),1
X13.433 Y21.192 Z-2.108 B21.801 C=DC(90.)
X13.001 Y21.192 Z-1.835 B21.801 C=DC(90.)
X12.579 Y21.192 Z-1.613 B21.801 C=DC(90.)
X12.212 Y21.192 Z-1.451 B21.801 C=DC(90.)
X11.737 Y21.192 Z-1.287 B21.801 C=DC(90.)
X11.258 Y21.192 Z-1.161 B21.801 C=DC(90.)
X10.72 Y21.192 Z-1.072 B21.801 C=DC(90.)
X10.169 Y21.192 Z-1.031 B21.801 C=DC(90.)
X9.687 Y21.192 Z-1.039 B21.801 C=DC(90.)
X9.275 Y21.192 Z-1.174 B21.801 C=DC(90.),1
X8.802 Y21.192 Z-1.149 B21.801 C=DC(90.)
X8.256 Y21.192 Z-1.288 B21.801 C=DC(90.)
X7.761 Y21.192 Z-1.462 B21.801 C=DC(90.)
X7.327 Y21.192 Z-1.656 B21.801 C=DC(90.)
X6.924 Y21.192 Z-1.877 B21.801 C=DC(90.)
X6.489 Y21.192 Z-2.163 B21.801 C=DC(90.)
X6.233 Y21.192 Z-2.362 B21.801 C=DC(90.)
X5.812 Y21.192 Z-2.732 B21.801 C=DC(90.)
X3.053 Y21.192 Z-5.487 B21.801 C=DC(90.),8
X1.998 Y21.192 Z-5.493 B21.801 C=DC(90.),6
X-3.051 Y21.192 Z-5.489 B21.801 C=DC(90.),8
X-5.812 Y21.192 Z-2.732 B21.801 C=DC(90.)
X-6.161 Y21.192 Z-2.418 B21.801 C=DC(90.)
X-6.489 Y21.192 Z-2.163 B21.801 C=DC(90.)
X-6.981 Y21.192 Z-1.844 B21.801 C=DC(90.)
X-7.401 Y21.192 Z-1.621 B21.801 C=DC(90.)
X-7.845 Y21.192 Z-1.43 B21.801 C=DC(90.)
X-8.272 Y21.192 Z-1.282 B21.801 C=DC(90.)
X-8.802 Y21.192 Z-1.149 B21.801 C=DC(90.)
X-9.318 Y21.192 Z-1.068 B21.801 C=DC(90.)
X-9.77 Y21.192 Z-1.033 B21.801 C=DC(90.)
X-10.25 Y21.192 Z-1.035 B21.801 C=DC(90.)
X-10.72 Y21.192 Z-1.072 B21.801 C=DC(90.)
X-11.258 Y21.192 Z-1.161 B21.801 C=DC(90.)
X-11.753 Y21.192 Z-1.291 B21.801 C=DC(90.)
X-12.212 Y21.192 Z-1.451 B21.801 C=DC(90.)
X-12.557 Y21.192 Z-1.602 B21.801 C=DC(90.)
X-13.029 Y21.192 Z-1.85 B21.801 C=DC(90.)
X-13.476 Y21.192 Z-2.138 B21.801 C=DC(90.)
X-13.892 Y21.192 Z-2.462 B21.801 C=DC(90.)
X-14.204 Y21.192 Z-2.748 B21.801 C=DC(90.)
X-16.552 Y21.192 Z-5.095 B21.801 C=DC(90.)
X-18.932 Y21.192 Z-7.475 B21.801 C=DC(90.)
X-21.244 Y21.191 Z-9.783 B21.801 C=DC(90.),8
X-25. Y21.192 Z-9.786 B21.801 C=DC(90.),7
X-25. Y20.892 Z-9.786 B21.801 C=DC(90.),7
X-21.244 Y20.892 Z-9.783 B21.801 C=DC(90.),8
X-18.812 Y20.892 Z-7.355 B21.801 C=DC(90.)
X-16.645 Y20.892 Z-5.188 B21.801 C=DC(90.)
X-14.195 Y20.893 Z-2.739 B21.801 C=DC(90.)
X-13.834 Y20.892 Z-2.413 B21.801 C=DC(90.)
X-13.427 Y20.892 Z-2.104 B21.801 C=DC(90.)
X-13.077 Y20.893 Z-1.877 B21.801 C=DC(90.)
X-12.623 Y20.892 Z-1.633 B21.801 C=DC(90.)
X-12.133 Y20.892 Z-1.422 B21.801 C=DC(90.)
X-11.656 Y20.892 Z-1.263 B21.801 C=DC(90.)
X-11.258 Y20.892 Z-1.161 B21.801 C=DC(90.)
X-10.72 Y20.892 Z-1.072 B21.801 C=DC(90.)
X-10.168 Y20.892 Z-1.031 B21.801 C=DC(90.)
X-9.77 Y20.892 Z-1.033 B21.801 C=DC(90.)
X-9.23 Y20.892 Z-1.079 B21.801 C=DC(90.)
X-8.802 Y20.892 Z-1.149 B21.801 C=DC(90.)
X-8.28 Y20.892 Z-1.28 B21.801 C=DC(90.)
X-7.761 Y20.892 Z-1.462 B21.801 C=DC(90.)
X-7.327 Y20.892 Z-1.656 B21.801 C=DC(90.)
X-6.942 Y20.893 Z-1.867 B21.801 C=DC(90.)
X-6.485 Y20.892 Z-2.166 B21.801 C=DC(90.)
X-6.106 Y20.892 Z-2.463 B21.801 C=DC(90.)
X-5.713 Y20.892 Z-2.831 B21.801 C=DC(90.)
X-3.139 Y20.892 Z-5.401 B21.801 C=DC(90.),6
X-3.042 Y20.892 Z-5.491 B21.801 C=DC(90.),8
X2.909 Y20.892 Z-5.493 B21.801 C=DC(90.),6
X3.053 Y20.892 Z-5.487 B21.801 C=DC(90.),8
X5.373 Y20.892 Z-3.17 B21.801 C=DC(90.)
X5.914 Y20.892 Z-2.639 B21.801 C=DC(90.)
X6.122 Y20.892 Z-2.45 B21.801 C=DC(90.)
X6.52 Y20.892 Z-2.142 B21.801 C=DC(90.)
X6.972 Y20.892 Z-1.848 B21.801 C=DC(90.)
X7.423 Y20.893 Z-1.611 B21.801 C=DC(90.)
X7.85 Y20.892 Z-1.428 B21.801 C=DC(90.)
X8.288 Y20.892 Z-1.278 B21.801 C=DC(90.)
X8.816 Y20.892 Z-1.147 B21.801 C=DC(90.)
X9.347 Y20.892 Z-1.165 B21.801 C=DC(90.),1
X9.851 Y20.892 Z-1.032 B21.801 C=DC(90.)
X10.268 Y20.892 Z-1.036 B21.801 C=DC(90.)
X10.72 Y20.892 Z-1.072 B21.801 C=DC(90.)
X11.258 Y20.892 Z-1.161 B21.801 C=DC(90.)
X11.735 Y20.892 Z-1.285 B21.801 C=DC(90.)
X12.212 Y20.892 Z-1.451 B21.801 C=DC(90.)
X12.623 Y20.892 Z-1.633 B21.801 C=DC(90.)
X13.106 Y20.892 Z-1.895 B21.801 C=DC(90.)
X13.515 Y20.892 Z-2.166 B21.801 C=DC(90.)
X13.865 Y20.892 Z-2.439 B21.801 C=DC(90.)
X14.287 Y20.892 Z-2.831 B21.801 C=DC(90.)
X16.645 Y20.892 Z-5.188 B21.801 C=DC(90.)
X18.812 Y20.892 Z-7.355 B21.801 C=DC(90.)
X21.244 Y20.892 Z-9.783 B21.801 C=DC(90.),8
X25. Y20.892 Z-9.786 B21.801 C=DC(90.),7
X25. Y20.593 Z-9.786 B21.801 C=DC(90.),7
X21.244 Y20.593 Z-9.783 B21.801 C=DC(90.),8
X18.734 Y20.593 Z-7.277 B21.801 C=DC(90.)
X16.738 Y20.593 Z-5.28 B21.801 C=DC(90.)
X14.132 Y20.593 Z-2.68 B21.801 C=DC(90.)
X13.771 Y20.593 Z-2.364 B21.801 C=DC(90.)
X13.39 Y20.593 Z-2.079 B21.801 C=DC(90.)
X13.041 Y20.593 Z-1.856 B21.801 C=DC(90.)
X12.552 Y20.593 Z-1.599 B21.801 C=DC(90.)
X12.218 Y20.593 Z-1.454 B21.801 C=DC(90.)
X11.77 Y20.593 Z-1.3 B21.801 C=DC(90.)
X11.517 Y20.593 Z-1.226 B21.801 C=DC(90.)
X11.17 Y20.593 Z-1.146 B21.801 C=DC(90.)
X10.72 Y20.593 Z-1.072 B21.801 C=DC(90.)
X10.168 Y20.593 Z-1.031 B21.801 C=DC(90.)
X9.682 Y20.593 Z-1.039 B21.801 C=DC(90.)
X9.243 Y20.593 Z-1.078 B21.801 C=DC(90.)
X9.382 Y20.593 Z-1.039 B21.801 C=DC(90.),2
X8.721 Y20.593 Z-1.168 B21.801 C=DC(90.)
X8.22 Y20.593 Z-1.3 B21.801 C=DC(90.)
X7.741 Y20.593 Z-1.47 B21.801 C=DC(90.)
X7.327 Y20.593 Z-1.656 B21.801 C=DC(90.)
X6.884 Y20.593 Z-1.902 B21.801 C=DC(90.)
X6.479 Y20.593 Z-2.17 B21.801 C=DC(90.)
X6.106 Y20.593 Z-2.463 B21.801 C=DC(90.)
X5.925 Y20.593 Z-2.628 B21.801 C=DC(90.)
X3.092 Y20.593 Z-5.448 B21.801 C=DC(90.),3
X3.045 Y20.593 Z-5.488 B21.801 C=DC(90.),8
X-3.051 Y20.593 Z-5.489 B21.801 C=DC(90.),8
X-5.886 Y20.593 Z-2.664 B21.801 C=DC(90.)
X-6.093 Y20.593 Z-2.475 B21.801 C=DC(90.)
X-6.479 Y20.593 Z-2.17 B21.801 C=DC(90.)
X-6.884 Y20.593 Z-1.902 B21.801 C=DC(90.)
X-7.327 Y20.593 Z-1.656 B21.801 C=DC(90.)
X-7.82 Y20.593 Z-1.44 B21.801 C=DC(90.)
X-8.288 Y20.593 Z-1.278 B21.801 C=DC(90.)
X-8.796 Y20.593 Z-1.15 B21.801 C=DC(90.)
X-9.283 Y20.593 Z-1.073 B21.801 C=DC(90.)
X-9.77 Y20.593 Z-1.033 B21.801 C=DC(90.)
X-10.255 Y20.593 Z-1.035 B21.801 C=DC(90.)
X-10.781 Y20.593 Z-1.081 B21.801 C=DC(90.)
X-11.252 Y20.593 Z-1.16 B21.801 C=DC(90.)
X-11.599 Y20.593 Z-1.246 B21.801 C=DC(90.)
X-12.076 Y20.593 Z-1.402 B21.801 C=DC(90.)
X-12.357 Y20.593 Z-1.514 B21.801 C=DC(90.)
X-12.661 Y20.593 Z-1.652 B21.801 C=DC(90.)
X-13.087 Y20.593 Z-1.884 B21.801 C=DC(90.)
X-13.433 Y20.593 Z-2.108 B21.801 C=DC(90.)
X-13.826 Y20.593 Z-2.407 B21.801 C=DC(90.)
X-14.165 Y20.593 Z-2.711 B21.801 C=DC(90.)
X-16.738 Y20.593 Z-5.28 B21.801 C=DC(90.)
X-18.734 Y20.593 Z-7.277 B21.801 C=DC(90.)
X-21.244 Y20.593 Z-9.783 B21.801 C=DC(90.),8
X-25. Y20.593 Z-9.786 B21.801 C=DC(90.),7
X-25. Y20.294 Z-9.786 B21.801 C=DC(90.),7
X-21.244 Y20.293 Z-9.783 B21.801 C=DC(90.),8
X-18.863 Y20.294 Z-7.406 B21.801 C=DC(90.)
X-16.742 Y20.294 Z-5.285 B21.801 C=DC(90.)
X-14.104 Y20.294 Z-2.654 B21.801 C=DC(90.)
X-13.802 Y20.294 Z-2.388 B21.801 C=DC(90.)
X-13.371 Y20.294 Z-2.067 B21.801 C=DC(90.)
X-13.067 Y20.294 Z-1.876 B21.801 C=DC(90.)
X-12.65 Y20.294 Z-1.647 B21.801 C=DC(90.)
X-12.212 Y20.294 Z-1.451 B21.801 C=DC(90.)
X-11.746 Y20.294 Z-1.291 B21.801 C=DC(90.)
X-11.353 Y20.294 Z-1.184 B21.801 C=DC(90.)
X-11.01 Y20.294 Z-1.116 B21.801 C=DC(90.)
X-10.655 Y20.294 Z-1.066 B21.801 C=DC(90.)
X-10.169 Y20.294 Z-1.031 B21.801 C=DC(90.)
X-9.686 Y20.294 Z-1.039 B21.801 C=DC(90.)
X-9.268 Y20.294 Z-1.075 B21.801 C=DC(90.)
X-8.737 Y20.294 Z-1.163 B21.801 C=DC(90.)
X-8.285 Y20.294 Z-1.279 B21.801 C=DC(90.)
X-7.867 Y20.294 Z-1.422 B21.801 C=DC(90.)
X-7.49 Y20.294 Z-1.583 B21.801 C=DC(90.)
X-7.23 Y20.294 Z-1.709 B21.801 C=DC(90.)
X-6.9 Y20.294 Z-1.893 B21.801 C=DC(90.)
X-6.469 Y20.294 Z-2.177 B21.801 C=DC(90.)
X-6.136 Y20.294 Z-2.44 B21.801 C=DC(90.)
X-5.936 Y20.294 Z-2.618 B21.801 C=DC(90.)
X-4.885 Y20.294 Z-3.657 B21.801 C=DC(90.),6
X-3.119 Y20.294 Z-5.422 B21.801 C=DC(90.),6
X-3.045 Y20.294 Z-5.488 B21.801 C=DC(90.),8
X2.886 Y20.294 Z-5.493 B21.801 C=DC(90.),6
X3.053 Y20.294 Z-5.487 B21.801 C=DC(90.),8
X5.903 Y20.294 Z-2.648 B21.801 C=DC(90.)
X6.106 Y20.294 Z-2.463 B21.801 C=DC(90.)
X6.469 Y20.294 Z-2.177 B21.801 C=DC(90.)
X6.903 Y20.294 Z-1.891 B21.801 C=DC(90.)
X7.327 Y20.294 Z-1.656 B21.801 C=DC(90.)
X7.796 Y20.294 Z-1.45 B21.801 C=DC(90.)
X8.288 Y20.294 Z-1.277 B21.801 C=DC(90.)
X8.844 Y20.294 Z-1.141 B21.801 C=DC(90.)
X9.321 Y20.294 Z-1.068 B21.801 C=DC(90.)
X9.77 Y20.294 Z-1.033 B21.801 C=DC(90.)
X10.282 Y20.294 Z-1.037 B21.801 C=DC(90.)
X10.72 Y20.294 Z-1.072 B21.801 C=DC(90.)
X11.287 Y20.294 Z-1.168 B21.801 C=DC(90.)
X11.731 Y20.294 Z-1.286 B21.801 C=DC(90.)
X12.212 Y20.294 Z-1.451 B21.801 C=DC(90.)
X12.626 Y20.294 Z-1.634 B21.801 C=DC(90.)
X12.989 Y20.294 Z-1.831 B21.801 C=DC(90.)
X13.311 Y20.294 Z-2.028 B21.801 C=DC(90.)
X13.538 Y20.294 Z-2.187 B21.801 C=DC(90.)
X13.834 Y20.294 Z-2.414 B21.801 C=DC(90.)
X14.205 Y20.294 Z-2.748 B21.801 C=DC(90.)
X16.742 Y20.294 Z-5.285 B21.801 C=DC(90.)
X18.863 Y20.294 Z-7.406 B21.801 C=DC(90.)
X21.244 Y20.293 Z-9.783 B21.801 C=DC(90.),8
X25. Y20.294 Z-9.786 B21.801 C=DC(90.),7
X25. Y19.994 Z-9.786 B21.801 C=DC(90.),7
X21.244 Y19.994 Z-9.783 B21.801 C=DC(90.),8
X18.992 Y19.994 Z-7.535 B21.801 C=DC(90.)
X16.685 Y19.994 Z-5.228 B21.801 C=DC(90.)
X14.185 Y19.995 Z-2.731 B21.801 C=DC(90.)
X13.808 Y19.994 Z-2.393 B21.801 C=DC(90.)
X13.433 Y19.994 Z-2.108 B21.801 C=DC(90.)
X12.995 Y19.995 Z-1.83 B21.801 C=DC(90.)
X12.589 Y19.994 Z-1.616 B21.801 C=DC(90.)
X12.136 Y19.994 Z-1.423 B21.801 C=DC(90.)
X11.716 Y19.994 Z-1.28 B21.801 C=DC(90.)
X11.243 Y19.994 Z-1.159 B21.801 C=DC(90.)
X10.72 Y19.994 Z-1.072 B21.801 C=DC(90.)
X10.168 Y19.994 Z-1.031 B21.801 C=DC(90.)
X9.688 Y19.994 Z-1.039 B21.801 C=DC(90.)
X9.206 Y19.994 Z-1.082 B21.801 C=DC(90.)
X8.806 Y19.994 Z-1.151 B21.801 C=DC(90.)
X8.343 Y19.994 Z-1.263 B21.801 C=DC(90.)
X7.892 Y19.994 Z-1.412 B21.801 C=DC(90.)
X7.515 Y19.994 Z-1.72 B21.801 C=DC(90.),1
X7.238 Y19.994 Z-1.704 B21.801 C=DC(90.)
X6.854 Y19.994 Z-1.921 B21.801 C=DC(90.)
X6.502 Y19.994 Z-2.154 B21.801 C=DC(90.)
X6.091 Y19.994 Z-2.476 B21.801 C=DC(90.)
X5.926 Y19.994 Z-2.628 B21.801 C=DC(90.)
X3.831 Y19.994 Z-4.712 B21.801 C=DC(90.)
X3.053 Y19.994 Z-5.487 B21.801 C=DC(90.),8
X1.925 Y19.994 Z-5.493 B21.801 C=DC(90.),6
X-2.85 Y19.994 Z-5.493 B21.801 C=DC(90.),6
X-3.053 Y19.994 Z-5.487 B21.801 C=DC(90.),8
X-5.492 Y19.994 Z-3.051 B21.801 C=DC(90.),6
X-5.93 Y19.994 Z-2.624 B21.801 C=DC(90.)
X-6.171 Y19.994 Z-2.412 B21.801 C=DC(90.)
X-6.502 Y19.994 Z-2.154 B21.801 C=DC(90.)
X-6.888 Y19.995 Z-1.899 B21.801 C=DC(90.)
X-7.327 Y19.994 Z-1.656 B21.801 C=DC(90.)
X-7.798 Y19.994 Z-1.449 B21.801 C=DC(90.)
X-8.277 Y19.994 Z-1.281 B21.801 C=DC(90.)
X-8.75 Y19.994 Z-1.164 B21.801 C=DC(90.)
X-9.151 Y19.994 Z-1.089 B21.801 C=DC(90.)
X-9.589 Y19.994 Z-1.046 B21.801 C=DC(90.)



X-9.786 Y19.994 Z-1.055 B21.801 C=DC(90.),1
X-9.849 Y19.994 Z-1.032 B21.801 C=DC(90.)
X-10.26 Y19.994 Z-1.035 B21.801 C=DC(90.)
X-10.788 Y19.994 Z-1.082 B21.801 C=DC(90.)
X-11.295 Y19.994 Z-1.17 B21.801 C=DC(90.)
X-11.791 Y19.994 Z-1.302 B21.801 C=DC(90.)
X-12.245 Y19.994 Z-1.465 B21.801 C=DC(90.)
X-12.673 Y19.994 Z-1.659 B21.801 C=DC(90.)
X-13.119 Y19.995 Z-1.903 B21.801 C=DC(90.)
X-13.433 Y19.994 Z-2.108 B21.801 C=DC(90.)
X-13.905 Y19.994 Z-2.474 B21.801 C=DC(90.)
X-14.315 Y19.994 Z-2.858 B21.801 C=DC(90.)
X-16.685 Y19.994 Z-5.228 B21.801 C=DC(90.)
X-18.992 Y19.994 Z-7.535 B21.801 C=DC(90.)
X-21.244 Y19.994 Z-9.783 B21.801 C=DC(90.),8
X-25. Y19.994 Z-9.786 B21.801 C=DC(90.),7
X-25. Y19.695 Z-9.786 B21.801 C=DC(90.),7
X-21.241 Y19.695 Z-9.781 B21.801 C=DC(90.),8
X-18.998 Y19.695 Z-7.541 B21.801 C=DC(90.)
X-16.595 Y19.695 Z-5.138 B21.801 C=DC(90.)
X-14.133 Y19.695 Z-2.681 B21.801 C=DC(90.)
X-13.845 Y19.695 Z-2.422 B21.801 C=DC(90.)
X-13.393 Y19.695 Z-2.082 B21.801 C=DC(90.)
X-13.018 Y19.695 Z-1.845 B21.801 C=DC(90.)
X-12.597 Y19.695 Z-1.62 B21.801 C=DC(90.)
X-12.212 Y19.695 Z-1.451 B21.801 C=DC(90.)
X-11.74 Y19.695 Z-1.288 B21.801 C=DC(90.)
X-11.294 Y19.695 Z-1.17 B21.801 C=DC(90.)
X-10.802 Y19.695 Z-1.084 B21.801 C=DC(90.)
X-10.353 Y19.695 Z-1.04 B21.801 C=DC(90.)
X-9.993 Y19.695 Z-1.132 B21.801 C=DC(90.),1
X-9.649 Y19.695 Z-1.042 B21.801 C=DC(90.)
X-9.24 Y19.695 Z-1.078 B21.801 C=DC(90.)
X-8.707 Y19.695 Z-1.17 B21.801 C=DC(90.)
X-8.192 Y19.695 Z-1.309 B21.801 C=DC(90.)
X-7.727 Y19.695 Z-1.476 B21.801 C=DC(90.)
X-7.314 Y19.695 Z-1.664 B21.801 C=DC(90.)
X-6.942 Y19.695 Z-1.866 B21.801 C=DC(90.)
X-6.518 Y19.695 Z-2.142 B21.801 C=DC(90.)
X-6.193 Y19.695 Z-2.394 B21.801 C=DC(90.)
X-5.974 Y19.695 Z-2.583 B21.801 C=DC(90.)
X-5.753 Y19.695 Z-2.791 B21.801 C=DC(90.)
X-3.053 Y19.695 Z-5.487 B21.801 C=DC(90.),8
X-1.7 Y19.695 Z-5.493 B21.801 C=DC(90.),6
X2.955 Y19.695 Z-5.493 B21.801 C=DC(90.),6
X3.053 Y19.695 Z-5.487 B21.801 C=DC(90.),8
X5.875 Y19.695 Z-2.674 B21.801 C=DC(90.)
X6.106 Y19.695 Z-2.463 B21.801 C=DC(90.)
X6.496 Y19.695 Z-2.158 B21.801 C=DC(90.)
X6.947 Y19.695 Z-1.863 B21.801 C=DC(90.)
X7.373 Y19.695 Z-1.636 B21.801 C=DC(90.)
X7.824 Y19.695 Z-1.439 B21.801 C=DC(90.)
X8.302 Y19.695 Z-1.274 B21.801 C=DC(90.)
X8.768 Y19.695 Z-1.157 B21.801 C=DC(90.)
X9.24 Y19.695 Z-1.078 B21.801 C=DC(90.)
X9.796 Y19.695 Z-1.032 B21.801 C=DC(90.)
X10.261 Y19.695 Z-1.036 B21.801 C=DC(90.)
X10.72 Y19.695 Z-1.072 B21.801 C=DC(90.)
X11.294 Y19.695 Z-1.17 B21.801 C=DC(90.)
X11.792 Y19.695 Z-1.303 B21.801 C=DC(90.)
X12.297 Y19.695 Z-1.488 B21.801 C=DC(90.)
X12.658 Y19.695 Z-1.651 B21.801 C=DC(90.)
X13.099 Y19.695 Z-1.89 B21.801 C=DC(90.)
X13.433 Y19.695 Z-2.108 B21.801 C=DC(90.)
X13.898 Y19.695 Z-2.467 B21.801 C=DC(90.)
X14.255 Y19.695 Z-2.798 B21.801 C=DC(90.)
X16.595 Y19.695 Z-5.138 B21.801 C=DC(90.)
X18.998 Y19.695 Z-7.541 B21.801 C=DC(90.)
X21.248 Y19.695 Z-9.783 B21.801 C=DC(90.),8
X25. Y19.695 Z-9.786 B21.801 C=DC(90.),7
X25. Y19.396 Z-9.786 B21.801 C=DC(90.),7
X21.244 Y19.395 Z-9.783 B21.801 C=DC(90.),8
X18.878 Y19.396 Z-7.421 B21.801 C=DC(90.)
X16.475 Y19.396 Z-5.018 B21.801 C=DC(90.)
X14.213 Y19.396 Z-2.76 B21.801 C=DC(90.)
X13.881 Y19.396 Z-2.453 B21.801 C=DC(90.)
X13.433 Y19.396 Z-2.108 B21.801 C=DC(90.)
X13.001 Y19.396 Z-1.835 B21.801 C=DC(90.)
X12.594 Y19.396 Z-1.618 B21.801 C=DC(90.)
X12.172 Y19.396 Z-1.437 B21.801 C=DC(90.)
X11.738 Y19.396 Z-1.287 B21.801 C=DC(90.)
X11.267 Y19.396 Z-1.164 B21.801 C=DC(90.)
X10.72 Y19.396 Z-1.072 B21.801 C=DC(90.)
X10.967 Y19.396 Z-1.164 B21.801 C=DC(90.),2
X10.168 Y19.396 Z-1.031 B21.801 C=DC(90.),6
X9.685 Y19.396 Z-1.039 B21.801 C=DC(90.)
X9.26 Y19.396 Z-1.075 B21.801 C=DC(90.)
X8.722 Y19.396 Z-1.167 B21.801 C=DC(90.)
X8.269 Y19.396 Z-1.283 B21.801 C=DC(90.)
X7.79 Y19.396 Z-1.452 B21.801 C=DC(90.)
X7.327 Y19.396 Z-1.656 B21.801 C=DC(90.)
X6.886 Y19.396 Z-1.902 B21.801 C=DC(90.)
X6.497 Y19.396 Z-2.157 B21.801 C=DC(90.)
X6.106 Y19.396 Z-2.463 B21.801 C=DC(90.)
X5.739 Y19.396 Z-2.804 B21.801 C=DC(90.)
X3.104 Y19.396 Z-5.436 B21.801 C=DC(90.),6
X3.045 Y19.396 Z-5.488 B21.801 C=DC(90.),8
X-2.906 Y19.396 Z-5.493 B21.801 C=DC(90.),6
X-3.053 Y19.396 Z-5.487 B21.801 C=DC(90.),8
X-5.72 Y19.396 Z-2.824 B21.801 C=DC(90.)
X-6.095 Y19.396 Z-2.474 B21.801 C=DC(90.)
X-6.509 Y19.396 Z-2.149 B21.801 C=DC(90.)
X-6.946 Y19.396 Z-1.864 B21.801 C=DC(90.)
X-7.384 Y19.396 Z-1.631 B21.801 C=DC(90.)
X-7.79 Y19.396 Z-1.452 B21.801 C=DC(90.)
X-8.269 Y19.396 Z-1.283 B21.801 C=DC(90.)
X-8.783 Y19.396 Z-1.153 B21.801 C=DC(90.)
X-9.26 Y19.396 Z-1.075 B21.801 C=DC(90.)
X-9.77 Y19.396 Z-1.033 B21.801 C=DC(90.)
X-10.261 Y19.396 Z-1.035 B21.801 C=DC(90.)
X-10.72 Y19.396 Z-1.072 B21.801 C=DC(90.)
X-11.237 Y19.396 Z-1.157 B21.801 C=DC(90.)
X-11.738 Y19.396 Z-1.287 B21.801 C=DC(90.)
X-12.212 Y19.396 Z-1.451 B21.801 C=DC(90.)
X-12.684 Y19.396 Z-1.664 B21.801 C=DC(90.)
X-13.148 Y19.396 Z-1.923 B21.801 C=DC(90.)
X-13.433 Y19.396 Z-2.108 B21.801 C=DC(90.)
X-13.868 Y19.396 Z-2.442 B21.801 C=DC(90.)
X-14.27 Y19.396 Z-2.813 B21.801 C=DC(90.)
X-16.475 Y19.396 Z-5.018 B21.801 C=DC(90.)
X-18.878 Y19.396 Z-7.421 B21.801 C=DC(90.)
X-21.244 Y19.395 Z-9.783 B21.801 C=DC(90.),8
X-25. Y19.396 Z-9.786 B21.801 C=DC(90.),7
X-25. Y19.096 Z-9.786 B21.801 C=DC(90.),7
X-21.244 Y19.096 Z-9.783 B21.801 C=DC(90.),8
X-18.772 Y19.096 Z-7.314 B21.801 C=DC(90.)
X-16.513 Y19.096 Z-5.056 B21.801 C=DC(90.)
X-14.141 Y19.096 Z-2.691 B21.801 C=DC(90.)
X-13.868 Y19.096 Z-2.441 B21.801 C=DC(90.)
X-13.433 Y19.096 Z-2.108 B21.801 C=DC(90.)
X-13.079 Y19.097 Z-1.879 B21.801 C=DC(90.)
X-12.602 Y19.096 Z-1.622 B21.801 C=DC(90.)
X-12.202 Y19.096 Z-1.447 B21.801 C=DC(90.)
X-11.677 Y19.096 Z-1.269 B21.801 C=DC(90.)
X-11.258 Y19.096 Z-1.161 B21.801 C=DC(90.)
X-10.72 Y19.096 Z-1.072 B21.801 C=DC(90.)
X-10.169 Y19.096 Z-1.031 B21.801 C=DC(90.)
X-9.77 Y19.096 Z-1.033 B21.801 C=DC(90.)
X-9.23 Y19.096 Z-1.079 B21.801 C=DC(90.)
X-8.725 Y19.096 Z-1.167 B21.801 C=DC(90.)
X-8.252 Y19.096 Z-1.289 B21.801 C=DC(90.)
X-7.801 Y19.096 Z-1.448 B21.801 C=DC(90.)
X-7.296 Y19.096 Z-1.674 B21.801 C=DC(90.)
X-6.959 Y19.096 Z-1.856 B21.801 C=DC(90.)
X-6.481 Y19.096 Z-2.169 B21.801 C=DC(90.)
X-6.106 Y19.096 Z-2.463 B21.801 C=DC(90.)
X-5.64 Y19.096 Z-2.903 B21.801 C=DC(90.)
X-3.053 Y19.096 Z-5.487 B21.801 C=DC(90.),8
X-2.179 Y19.096 Z-5.493 B21.801 C=DC(90.),6
X2.933 Y19.096 Z-5.493 B21.801 C=DC(90.),6
X3.053 Y19.096 Z-5.487 B21.801 C=DC(90.),8
X5.32 Y19.096 Z-3.223 B21.801 C=DC(90.),6
X5.881 Y19.096 Z-2.672 B21.801 C=DC(90.)
X6.106 Y19.096 Z-2.463 B21.801 C=DC(90.)
X6.481 Y19.096 Z-2.169 B21.801 C=DC(90.)
X6.959 Y19.096 Z-1.856 B21.801 C=DC(90.)
X7.329 Y19.096 Z-1.655 B21.801 C=DC(90.)
X7.801 Y19.096 Z-1.448 B21.801 C=DC(90.)
X8.296 Y19.096 Z-1.276 B21.801 C=DC(90.)
X8.802 Y19.096 Z-1.149 B21.801 C=DC(90.)
X9.265 Y19.096 Z-1.075 B21.801 C=DC(90.)
X9.77 Y19.096 Z-1.033 B21.801 C=DC(90.)
X10.271 Y19.096 Z-1.036 B21.801 C=DC(90.)
X10.72 Y19.096 Z-1.072 B21.801 C=DC(90.)
X11.258 Y19.096 Z-1.161 B21.801 C=DC(90.)
X11.76 Y19.097 Z-1.294 B21.801 C=DC(90.)
X12.271 Y19.096 Z-1.476 B21.801 C=DC(90.)
X12.607 Y19.096 Z-1.625 B21.801 C=DC(90.)
X13.079 Y19.097 Z-1.879 B21.801 C=DC(90.)
X13.502 Y19.096 Z-2.157 B21.801 C=DC(90.)
X13.87 Y19.096 Z-2.443 B21.801 C=DC(90.)
X14.284 Y19.096 Z-2.827 B21.801 C=DC(90.)
X16.513 Y19.096 Z-5.056 B21.801 C=DC(90.)
X18.772 Y19.096 Z-7.314 B21.801 C=DC(90.)
X21.244 Y19.096 Z-9.783 B21.801 C=DC(90.),8
X25. Y19.096 Z-9.786 B21.801 C=DC(90.),7
X25. Y18.797 Z-9.786 B21.801 C=DC(90.),7
X21.244 Y18.797 Z-9.783 B21.801 C=DC(90.),8
X18.674 Y18.797 Z-7.217 B21.801 C=DC(90.)
X16.642 Y18.797 Z-5.185 B21.801 C=DC(90.)
X14.162 Y18.797 Z-2.71 B21.801 C=DC(90.)
X13.833 Y18.797 Z-2.413 B21.801 C=DC(90.)
X13.4 Y18.797 Z-2.086 B21.801 C=DC(90.)
X13.022 Y18.797 Z-1.846 B21.801 C=DC(90.)
X12.602 Y18.797 Z-1.622 B21.801 C=DC(90.)
X12.174 Y18.797 Z-1.437 B21.801 C=DC(90.)
X11.742 Y18.797 Z-1.288 B21.801 C=DC(90.)
X11.258 Y18.797 Z-1.161 B21.801 C=DC(90.)
X10.72 Y18.797 Z-1.072 B21.801 C=DC(90.)
X10.169 Y18.797 Z-1.031 B21.801 C=DC(90.)
X9.739 Y18.797 Z-1.035 B21.801 C=DC(90.)
X9.272 Y18.797 Z-1.074 B21.801 C=DC(90.)
X8.802 Y18.797 Z-1.149 B21.801 C=DC(90.)
X8.248 Y18.797 Z-1.29 B21.801 C=DC(90.)
X7.763 Y18.797 Z-1.463 B21.801 C=DC(90.)
X7.312 Y18.797 Z-1.664 B21.801 C=DC(90.)
X6.918 Y18.797 Z-1.881 B21.801 C=DC(90.)
X6.457 Y18.797 Z-2.186 B21.801 C=DC(90.)
X6.052 Y18.797 Z-2.512 B21.801 C=DC(90.)
X5.561 Y18.797 Z-2.982 B21.801 C=DC(90.)
X3.053 Y18.797 Z-5.487 B21.801 C=DC(90.),8
X2.645 Y18.797 Z-5.493 B21.801 C=DC(90.),6
X-2.929 Y18.797 Z-5.493 B21.801 C=DC(90.),6
X-3.053 Y18.797 Z-5.487 B21.801 C=DC(90.),8
X-5.463 Y18.797 Z-3.08 B21.801 C=DC(90.),6
X-6. Y18.797 Z-2.56 B21.801 C=DC(90.)
X-6.34 Y18.797 Z-2.278 B21.801 C=DC(90.)
X-6.571 Y18.797 Z-2.107 B21.801 C=DC(90.)
X-6.918 Y18.797 Z-1.881 B21.801 C=DC(90.)
X-7.413 Y18.797 Z-1.615 B21.801 C=DC(90.)
X-7.851 Y18.797 Z-1.428 B21.801 C=DC(90.)
X-8.303 Y18.797 Z-1.274 B21.801 C=DC(90.)
X-8.791 Y18.797 Z-1.152 B21.801 C=DC(90.)
X-9.233 Y18.797 Z-1.079 B21.801 C=DC(90.)
X-9.78 Y18.797 Z-1.032 B21.801 C=DC(90.)
X-10.261 Y18.797 Z-1.035 B21.801 C=DC(90.)
X-10.72 Y18.797 Z-1.072 B21.801 C=DC(90.)
X-11.261 Y18.797 Z-1.162 B21.801 C=DC(90.)
X-11.806 Y18.797 Z-1.307 B21.801 C=DC(90.)
X-12.29 Y18.797 Z-1.484 B21.801 C=DC(90.)
X-12.691 Y18.797 Z-1.668 B21.801 C=DC(90.)
X-13.125 Y18.797 Z-1.908 B21.801 C=DC(90.)
X-13.433 Y18.797 Z-2.108 B21.801 C=DC(90.)
X-13.819 Y18.797 Z-2.401 B21.801 C=DC(90.)
X-14.243 Y18.797 Z-2.786 B21.801 C=DC(90.)
X-16.642 Y18.797 Z-5.185 B21.801 C=DC(90.)
X-18.674 Y18.797 Z-7.217 B21.801 C=DC(90.)
X-21.244 Y18.797 Z-9.783 B21.801 C=DC(90.),8
X-25. Y18.797 Z-9.786 B21.801 C=DC(90.),7
X-25. Y18.498 Z-9.786 B21.801 C=DC(90.),7
X-21.244 Y18.497 Z-9.783 B21.801 C=DC(90.),8
X-18.714 Y18.498 Z-7.257 B21.801 C=DC(90.)
X-16.771 Y18.498 Z-5.313 B21.801 C=DC(90.)
X-14.133 Y18.498 Z-2.682 B21.801 C=DC(90.)
X-13.817 Y18.498 Z-2.399 B21.801 C=DC(90.)
X-13.404 Y18.498 Z-2.089 B21.801 C=DC(90.)
X-13.003 Y18.498 Z-1.834 B21.801 C=DC(90.)
X-12.57 Y18.498 Z-1.607 B21.801 C=DC(90.)
X-12.148 Y18.498 Z-1.428 B21.801 C=DC(90.)
X-11.731 Y18.498 Z-1.285 B21.801 C=DC(90.)
X-11.228 Y18.498 Z-1.156 B21.801 C=DC(90.)
X-10.738 Y18.498 Z-1.074 B21.801 C=DC(90.)
X-10.249 Y18.498 Z-1.035 B21.801 C=DC(90.)
X-9.77 Y18.498 Z-1.033 B21.801 C=DC(90.)
X-9.233 Y18.498 Z-1.079 B21.801 C=DC(90.)
X-8.787 Y18.498 Z-1.153 B21.801 C=DC(90.)
X-8.365 Y18.498 Z-1.256 B21.801 C=DC(90.)
X-7.905 Y18.498 Z-1.408 B21.801 C=DC(90.)
X-7.567 Y18.498 Z-1.548 B21.801 C=DC(90.)
X-7.327 Y18.498 Z-1.656 B21.801 C=DC(90.)
X-6.984 Y18.498 Z-1.842 B21.801 C=DC(90.)
X-6.491 Y18.498 Z-2.162 B21.801 C=DC(90.)
X-6.215 Y18.498 Z-2.376 B21.801 C=DC(90.)
X-5.829 Y18.498 Z-2.717 B21.801 C=DC(90.),6
X-3.053 Y18.498 Z-5.487 B21.801 C=DC(90.),8
X-2.544 Y18.498 Z-5.493 B21.801 C=DC(90.),6
X3.007 Y18.498 Z-5.491 B21.801 C=DC(90.),3
X3.053 Y18.498 Z-5.487 B21.801 C=DC(90.),8
X5.892 Y18.498 Z-2.658 B21.801 C=DC(90.)
X6.099 Y18.498 Z-2.469 B21.801 C=DC(90.)
X6.547 Y18.498 Z-2.123 B21.801 C=DC(90.)
X7.006 Y18.498 Z-1.829 B21.801 C=DC(90.)
X7.357 Y18.498 Z-1.642 B21.801 C=DC(90.)
X7.799 Y18.498 Z-1.448 B21.801 C=DC(90.)
X8.248 Y18.498 Z-1.293 B21.801 C=DC(90.)
X8.594 Y18.498 Z-1.198 B21.801 C=DC(90.)
X8.872 Y18.498 Z-1.137 B21.801 C=DC(90.)
X9.33 Y18.498 Z-1.067 B21.801 C=DC(90.)
X9.77 Y18.498 Z-1.033 B21.801 C=DC(90.)
X10.283 Y18.498 Z-1.037 B21.801 C=DC(90.)
X10.72 Y18.498 Z-1.072 B21.801 C=DC(90.)
X11.258 Y18.498 Z-1.161 B21.801 C=DC(90.)
X11.692 Y18.498 Z-1.273 B21.801 C=DC(90.)
X12.212 Y18.498 Z-1.451 B21.801 C=DC(90.)
X12.59 Y18.498 Z-1.616 B21.801 C=DC(90.)
X13.064 Y18.498 Z-1.871 B21.801 C=DC(90.)
X13.504 Y18.498 Z-2.159 B21.801 C=DC(90.)
X13.817 Y18.498 Z-2.399 B21.801 C=DC(90.)
X14.216 Y18.498 Z-2.76 B21.801 C=DC(90.)
X16.771 Y18.498 Z-5.314 B21.801 C=DC(90.)
X18.714 Y18.498 Z-7.257 B21.801 C=DC(90.)
X21.244 Y18.497 Z-9.783 B21.801 C=DC(90.),8
X25. Y18.498 Z-9.786 B21.801 C=DC(90.),7
X25. Y18.198 Z-9.786 B21.801 C=DC(90.),7
X21.244 Y18.198 Z-9.783 B21.801 C=DC(90.),8
X18.831 Y18.198 Z-7.374 B21.801 C=DC(90.)
X16.66 Y18.198 Z-5.203 B21.801 C=DC(90.)
X14.109 Y18.198 Z-2.66 B21.801 C=DC(90.)
X13.739 Y18.198 Z-2.34 B21.801 C=DC(90.)
X13.441 Y18.198 Z-2.113 B21.801 C=DC(90.)
X13.013 Y18.199 Z-1.84 B21.801 C=DC(90.)
X12.572 Y18.198 Z-1.608 B21.801 C=DC(90.)
X12.212 Y18.198 Z-1.451 B21.801 C=DC(90.)
X11.723 Y18.198 Z-1.283 B21.801 C=DC(90.)
X11.258 Y18.198 Z-1.161 B21.801 C=DC(90.)
X10.72 Y18.198 Z-1.072 B21.801 C=DC(90.)
X10.169 Y18.198 Z-1.031 B21.801 C=DC(90.)
X9.687 Y18.198 Z-1.039 B21.801 C=DC(90.)
X9.225 Y18.198 Z-1.08 B21.801 C=DC(90.)
X8.721 Y18.198 Z-1.168 B21.801 C=DC(90.)
X8.22 Y18.198 Z-1.299 B21.801 C=DC(90.)
X7.752 Y18.198 Z-1.466 B21.801 C=DC(90.)
X7.376 Y18.198 Z-1.633 B21.801 C=DC(90.)
X6.942 Y18.198 Z-1.867 B21.801 C=DC(90.)
X6.486 Y18.198 Z-2.165 B21.801 C=DC(90.)
X6.082 Y18.198 Z-2.485 B21.801 C=DC(90.)
X5.69 Y18.198 Z-2.853 B21.801 C=DC(90.)
X3.053 Y18.198 Z-5.487 B21.801 C=DC(90.),8
X2.466 Y18.198 Z-5.493 B21.801 C=DC(90.),6
X-3.024 Y18.198 Z-5.49 B21.801 C=DC(90.),3
X-3.053 Y18.198 Z-5.487 B21.801 C=DC(90.),8
X-5.696 Y18.198 Z-2.847 B21.801 C=DC(90.)
X-6.148 Y18.198 Z-2.428 B21.801 C=DC(90.)
X-6.486 Y18.198 Z-2.165 B21.801 C=DC(90.)
X-6.942 Y18.198 Z-1.867 B21.801 C=DC(90.)
X-7.413 Y18.198 Z-1.616 B21.801 C=DC(90.)
X-7.854 Y18.198 Z-1.427 B21.801 C=DC(90.)
X-8.328 Y18.198 Z-1.267 B21.801 C=DC(90.)
X-8.808 Y18.198 Z-1.148 B21.801 C=DC(90.)
X-9.269 Y18.198 Z-1.074 B21.801 C=DC(90.)
X-9.77 Y18.198 Z-1.033 B21.801 C=DC(90.)
X-10.261 Y18.198 Z-1.035 B21.801 C=DC(90.)
X-10.72 Y18.198 Z-1.072 B21.801 C=DC(90.)
X-11.258 Y18.198 Z-1.161 B21.801 C=DC(90.)
X-11.804 Y18.198 Z-1.307 B21.801 C=DC(90.)
X-12.212 Y18.198 Z-1.451 B21.801 C=DC(90.)
X-12.572 Y18.198 Z-1.608 B21.801 C=DC(90.)
X-13.013 Y18.199 Z-1.84 B21.801 C=DC(90.)
X-13.433 Y18.198 Z-2.108 B21.801 C=DC(90.)
X-13.789 Y18.198 Z-2.377 B21.801 C=DC(90.)
X-14.217 Y18.198 Z-2.76 B21.801 C=DC(90.)
X-16.661 Y18.198 Z-5.203 B21.801 C=DC(90.)
X-18.831 Y18.198 Z-7.374 B21.801 C=DC(90.)
X-21.244 Y18.198 Z-9.783 B21.801 C=DC(90.),8
X-25. Y18.198 Z-9.786 B21.801 C=DC(90.),7
X-25. Y17.899 Z-9.786 B21.801 C=DC(90.),7
X-21.244 Y17.898 Z-9.783 B21.801 C=DC(90.),8
X-18.944 Y17.899 Z-7.487 B21.801 C=DC(90.)
X-16.554 Y17.899 Z-5.097 B21.801 C=DC(90.)
X-14.112 Y17.899 Z-2.662 B21.801 C=DC(90.)
X-13.824 Y17.899 Z-2.405 B21.801 C=DC(90.)
X-13.433 Y17.899 Z-2.108 B21.801 C=DC(90.)
X-13.061 Y17.899 Z-1.868 B21.801 C=DC(90.)
X-12.589 Y17.899 Z-1.618 B21.801 C=DC(90.)
X-12.183 Y17.899 Z-1.44 B21.801 C=DC(90.)
X-11.736 Y17.899 Z-1.286 B21.801 C=DC(90.)
X-11.258 Y17.899 Z-1.161 B21.801 C=DC(90.)
X-10.72 Y17.899 Z-1.072 B21.801 C=DC(90.)
X-10.168 Y17.899 Z-1.031 B21.801 C=DC(90.)
X-9.689 Y17.899 Z-1.039 B21.801 C=DC(90.)
X-9.283 Y17.899 Z-1.073 B21.801 C=DC(90.)
X-8.802 Y17.899 Z-1.149 B21.801 C=DC(90.)
X-8.259 Y17.899 Z-1.287 B21.801 C=DC(90.)
X-7.759 Y17.899 Z-1.463 B21.801 C=DC(90.)
X-7.327 Y17.899 Z-1.656 B21.801 C=DC(90.)
X-6.919 Y17.899 Z-1.88 B21.801 C=DC(90.)
X-6.484 Y17.899 Z-2.167 B21.801 C=DC(90.)
X-6.106 Y17.899 Z-2.463 B21.801 C=DC(90.)
X-5.811 Y17.899 Z-2.734 B21.801 C=DC(90.)
X-3.052 Y17.899 Z-5.488 B21.801 C=DC(90.),8
X3.052 Y17.899 Z-5.488 B21.801 C=DC(90.),8
X5.811 Y17.899 Z-2.734 B21.801 C=DC(90.)
X6.041 Y17.899 Z-2.523 B21.801 C=DC(90.)
X6.484 Y17.899 Z-2.167 B21.801 C=DC(90.)
X6.979 Y17.899 Z-1.845 B21.801 C=DC(90.)
X7.435 Y17.899 Z-1.605 B21.801 C=DC(90.)
X7.869 Y17.899 Z-1.421 B21.801 C=DC(90.)
X8.271 Y17.899 Z-1.283 B21.801 C=DC(90.)
X8.802 Y17.899 Z-1.149 B21.801 C=DC(90.)
X9.302 Y17.899 Z-1.07 B21.801 C=DC(90.)
X9.793 Y17.899 Z-1.032 B21.801 C=DC(90.)
X10.261 Y17.899 Z-1.036 B21.801 C=DC(90.)
X9.993 Y17.899 Z-1.032 B21.801 C=DC(90.),2
X10.72 Y17.899 Z-1.072 B21.801 C=DC(90.),
X11.258 Y17.899 Z-1.161 B21.801 C=DC(90.)
X11.789 Y17.899 Z-1.302 B21.801 C=DC(90.)
X12.212 Y17.899 Z-1.451 B21.801 C=DC(90.)
X12.62 Y17.899 Z-1.633 B21.801 C=DC(90.)
X13.061 Y17.899 Z-1.868 B21.801 C=DC(90.)
X13.479 Y17.899 Z-2.14 B21.801 C=DC(90.)
X13.892 Y17.899 Z-2.462 B21.801 C=DC(90.)
X14.217 Y17.899 Z-2.765 B21.801 C=DC(90.)
X16.554 Y17.899 Z-5.097 B21.801 C=DC(90.)
X18.944 Y17.899 Z-7.487 B21.801 C=DC(90.)
X21.244 Y17.898 Z-9.783 B21.801 C=DC(90.),8
X25. Y17.899 Z-9.786 B21.801 C=DC(90.),7
X25. Y17.6 Z-9.786 B21.801 C=DC(90.),7
X21.244 Y17.599 Z-9.783 B21.801 C=DC(90.),8
X18.824 Y17.6 Z-7.367 B21.801 C=DC(90.)
X16.644 Y17.6 Z-5.187 B21.801 C=DC(90.)
X14.144 Y17.6 Z-2.692 B21.801 C=DC(90.)
X13.836 Y17.6 Z-2.415 B21.801 C=DC(90.)
X13.433 Y17.6 Z-2.107 B21.801 C=DC(90.)
X13.08 Y17.6 Z-1.879 B21.801 C=DC(90.)
X12.626 Y17.6 Z-1.634 B21.801 C=DC(90.)
X12.212 Y17.6 Z-1.451 B21.801 C=DC(90.)
X11.741 Y17.6 Z-1.287 B21.801 C=DC(90.)
X11.19 Y17.6 Z-1.149 B21.801 C=DC(90.)
X10.72 Y17.6 Z-1.072 B21.801 C=DC(90.)
X10.169 Y17.6 Z-1.031 B21.801 C=DC(90.)
X9.685 Y17.6 Z-1.039 B21.801 C=DC(90.)
X9.259 Y17.6 Z-1.076 B21.801 C=DC(90.)
X8.727 Y17.6 Z-1.167 B21.801 C=DC(90.)
X8.281 Y17.6 Z-1.28 B21.801 C=DC(90.)
X7.759 Y17.6 Z-1.463 B21.801 C=DC(90.)
X7.327 Y17.6 Z-1.656 B21.801 C=DC(90.)
X6.963 Y17.6 Z-1.854 B21.801 C=DC(90.)
X6.481 Y17.6 Z-2.169 B21.801 C=DC(90.)
X6.106 Y17.6 Z-2.463 B21.801 C=DC(90.)
X5.701 Y17.6 Z-2.843 B21.801 C=DC(90.)
X3.124 Y17.6 Z-5.416 B21.801 C=DC(90.),6
X3.043 Y17.599 Z-5.49 B21.801 C=DC(90.),8
X-3.05 Y17.6 Z-5.489 B21.801 C=DC(90.),8
X-5.47 Y17.6 Z-3.073 B21.801 C=DC(90.),6
X-5.911 Y17.6 Z-2.642 B21.801 C=DC(90.)
X-6.122 Y17.6 Z-2.45 B21.801 C=DC(90.)
X-6.488 Y17.6 Z-2.164 B21.801 C=DC(90.)
X-6.971 Y17.6 Z-1.849 B21.801 C=DC(90.)
X-7.416 Y17.6 Z-1.614 B21.801 C=DC(90.)
X-7.842 Y17.6 Z-1.431 B21.801 C=DC(90.)
X-8.284 Y17.6 Z-1.279 B21.801 C=DC(90.)
X-8.805 Y17.6 Z-1.148 B21.801 C=DC(90.)
X-9.246 Y17.6 Z-1.077 B21.801 C=DC(90.)
X-9.77 Y17.6 Z-1.033 B21.801 C=DC(90.)
X-10.243 Y17.6 Z-1.035 B21.801 C=DC(90.)
X-10.72 Y17.6 Z-1.072 B21.801 C=DC(90.)
X-11.258 Y17.6 Z-1.161 B21.801 C=DC(90.)
X-11.741 Y17.6 Z-1.287 B21.801 C=DC(90.)
X-12.212 Y17.6 Z-1.451 B21.801 C=DC(90.)
X-12.626 Y17.6 Z-1.634 B21.801 C=DC(90.)
X-13.106 Y17.6 Z-1.895 B21.801 C=DC(90.)
X-13.531 Y17.6 Z-2.178 B21.801 C=DC(90.)
X-13.87 Y17.6 Z-2.444 B21.801 C=DC(90.)
X-14.299 Y17.6 Z-2.843 B21.801 C=DC(90.)
X-16.644 Y17.6 Z-5.187 B21.801 C=DC(90.)
X-18.824 Y17.6 Z-7.367 B21.801 C=DC(90.)
X-21.244 Y17.599 Z-9.783 B21.801 C=DC(90.),8
X-25. Y17.6 Z-9.786 B21.801 C=DC(90.),7
X-25. Y17.3 Z-9.786 B21.801 C=DC(90.),7
X-21.244 Y17.3 Z-9.783 B21.801 C=DC(90.),8
X-18.734 Y17.3 Z-7.276 B21.801 C=DC(90.)
X-16.735 Y17.3 Z-5.278 B21.801 C=DC(90.)
X-14.132 Y17.3 Z-2.681 B21.801 C=DC(90.)
X-13.773 Y17.3 Z-2.366 B21.801 C=DC(90.)
X-13.395 Y17.3 Z-2.083 B21.801 C=DC(90.)
X-13.04 Y17.301 Z-1.856 B21.801 C=DC(90.)
X-12.558 Y17.3 Z-1.602 B21.801 C=DC(90.)
X-12.126 Y17.3 Z-1.419 B21.801 C=DC(90.)
X-11.608 Y17.3 Z-1.249 B21.801 C=DC(90.)
X-11.17 Y17.3 Z-1.145 B21.801 C=DC(90.)
X-10.72 Y17.3 Z-1.072 B21.801 C=DC(90.)
X-10.168 Y17.3 Z-1.031 B21.801 C=DC(90.)
X-9.687 Y17.3 Z-1.039 B21.801 C=DC(90.)
X-9.225 Y17.3 Z-1.08 B21.801 C=DC(90.)
X-8.804 Y17.3 Z-1.149 B21.801 C=DC(90.)
X-8.297 Y17.3 Z-1.276 B21.801 C=DC(90.)
X-7.822 Y17.3 Z-1.439 B21.801 C=DC(90.)
X-7.327 Y17.3 Z-1.656 B21.801 C=DC(90.)
X-6.882 Y17.301 Z-1.904 B21.801 C=DC(90.)
X-6.475 Y17.3 Z-2.173 B21.801 C=DC(90.)
X-6.106 Y17.3 Z-2.463 B21.801 C=DC(90.)
X-5.917 Y17.3 Z-2.636 B21.801 C=DC(90.),6
X-3.051 Y17.3 Z-5.488 B21.801 C=DC(90.),8
X3.051 Y17.3 Z-5.488 B21.801 C=DC(90.),8
X5.684 Y17.3 Z-2.859 B21.801 C=DC(90.)
X6.093 Y17.3 Z-2.475 B21.801 C=DC(90.)
X6.475 Y17.3 Z-2.173 B21.801 C=DC(90.)
X6.921 Y17.301 Z-1.88 B21.801 C=DC(90.)
X7.327 Y17.3 Z-1.656 B21.801 C=DC(90.)
X7.809 Y17.3 Z-1.444 B21.801 C=DC(90.)
X8.284 Y17.3 Z-1.279 B21.801 C=DC(90.)
X8.804 Y17.3 Z-1.149 B21.801 C=DC(90.)
X9.284 Y17.3 Z-1.073 B21.801 C=DC(90.)
X9.77 Y17.3 Z-1.033 B21.801 C=DC(90.)
X10.26 Y17.3 Z-1.036 B21.801 C=DC(90.)
X10.72 Y17.3 Z-1.072 B21.801 C=DC(90.)
X11.256 Y17.3 Z-1.161 B21.801 C=DC(90.)
X11.66 Y17.3 Z-1.265 B21.801 C=DC(90.)
X12.146 Y17.3 Z-1.427 B21.801 C=DC(90.)
X12.578 Y17.3 Z-1.61 B21.801 C=DC(90.)
X13.03 Y17.301 Z-1.85 B21.801 C=DC(90.)
X13.433 Y17.3 Z-2.108 B21.801 C=DC(90.)
X13.829 Y17.3 Z-2.41 B21.801 C=DC(90.)
X14.178 Y17.3 Z-2.723 B21.801 C=DC(90.)
X16.735 Y17.3 Z-5.278 B21.801 C=DC(90.)
X18.734 Y17.3 Z-7.276 B21.801 C=DC(90.)
X21.244 Y17.3 Z-9.783 B21.801 C=DC(90.),8
X25. Y17.3 Z-9.786 B21.801 C=DC(90.),7
X25. Y17.001 Z-9.786 B21.801 C=DC(90.),7
X21.244 Y17. Z-9.783 B21.801 C=DC(90.),8
X18.863 Y17.001 Z-7.406 B21.801 C=DC(90.)
X16.746 Y17.001 Z-5.289 B21.801 C=DC(90.)
X14.115 Y17.001 Z-2.665 B21.801 C=DC(90.)
X13.833 Y17.001 Z-2.414 B21.801 C=DC(90.)
X13.441 Y17.001 Z-2.114 B21.801 C=DC(90.)
X13.03 Y17.001 Z-1.85 B21.801 C=DC(90.)
X12.547 Y17.001 Z-1.597 B21.801 C=DC(90.)
X12.146 Y17.001 Z-1.427 B21.801 C=DC(90.)
X11.763 Y17.001 Z-1.296 B21.801 C=DC(90.)
X11.373 Y17.001 Z-1.189 B21.801 C=DC(90.)



X11.66 Y17.001 Z-1.265 B21.801 C=DC(90.),2
X11.049 Y17.001 Z-1.123 B21.801 C=DC(90.),6
X10.644 Y17.001 Z-1.065 B21.801 C=DC(90.)
X10.181 Y17.001 Z-1.032 B21.801 C=DC(90.)
X9.691 Y17.001 Z-1.038 B21.801 C=DC(90.)
X9.201 Y17.001 Z-1.083 B21.801 C=DC(90.)
X8.742 Y17.001 Z-1.164 B21.801 C=DC(90.)
X8.255 Y17.001 Z-1.288 B21.801 C=DC(90.)
X7.805 Y17.001 Z-1.446 B21.801 C=DC(90.)
X7.327 Y17.001 Z-1.656 B21.801 C=DC(90.)
X6.825 Y17.001 Z-1.939 B21.801 C=DC(90.)
X6.468 Y17.001 Z-2.178 B21.801 C=DC(90.)
X6.106 Y17.001 Z-2.463 B21.801 C=DC(90.)
X5.901 Y17.001 Z-2.65 B21.801 C=DC(90.)
X3.053 Y17.001 Z-5.487 B21.801 C=DC(90.),8
X1.746 Y17.001 Z-5.493 B21.801 C=DC(90.),6
X-3.053 Y17.001 Z-5.487 B21.801 C=DC(90.),8
X-5.666 Y17.001 Z-2.877 B21.801 C=DC(90.)
X-5.932 Y17.001 Z-2.621 B21.801 C=DC(90.)
X-6.133 Y17.001 Z-2.442 B21.801 C=DC(90.)
X-6.468 Y17.001 Z-2.178 B21.801 C=DC(90.)
X-6.896 Y17.001 Z-1.895 B21.801 C=DC(90.)
X-7.309 Y17.001 Z-1.666 B21.801 C=DC(90.)
X-7.839 Y17.001 Z-1.433 B21.801 C=DC(90.)
X-8.283 Y17.001 Z-1.28 B21.801 C=DC(90.)
X-8.825 Y17.001 Z-1.145 B21.801 C=DC(90.)
X-9.338 Y17.001 Z-1.066 B21.801 C=DC(90.)
X-9.849 Y17.001 Z-1.032 B21.801 C=DC(90.)
X-10.252 Y17.001 Z-1.095 B21.801 C=DC(90.),1
X-10.757 Y17.001 Z-1.077 B21.801 C=DC(90.)
X-11.286 Y17.001 Z-1.168 B21.801 C=DC(90.)
X-11.68 Y17.001 Z-1.272 B21.801 C=DC(90.)
X-12.063 Y17.001 Z-1.397 B21.801 C=DC(90.)
X-12.286 Y17.001 Z-1.483 B21.801 C=DC(90.)
X-12.671 Y17.001 Z-1.658 B21.801 C=DC(90.)
X-13.1 Y17.001 Z-1.892 B21.801 C=DC(90.)
X-13.433 Y17.001 Z-2.108 B21.801 C=DC(90.)
X-13.884 Y17.001 Z-2.457 B21.801 C=DC(90.)
X-14.221 Y17.001 Z-2.764 B21.801 C=DC(90.)
X-16.746 Y17.001 Z-5.289 B21.801 C=DC(90.)
X-18.863 Y17.001 Z-7.406 B21.801 C=DC(90.)
X-21.244 Y17. Z-9.783 B21.801 C=DC(90.),8
X-25. Y17.001 Z-9.786 B21.801 C=DC(90.),7
X-25. Y16.702 Z-9.786 B21.801 C=DC(90.),7
X-21.244 Y16.701 Z-9.783 B21.801 C=DC(90.),8
X-18.992 Y16.702 Z-7.535 B21.801 C=DC(90.)
X-16.693 Y16.702 Z-5.236 B21.801 C=DC(90.)
X-14.153 Y16.702 Z-2.7 B21.801 C=DC(90.)
X-13.809 Y16.702 Z-2.393 B21.801 C=DC(90.)
X-13.433 Y16.702 Z-2.108 B21.801 C=DC(90.)
X-12.994 Y16.702 Z-1.83 B21.801 C=DC(90.)
X-12.544 Y16.702 Z-1.596 B21.801 C=DC(90.)
X-12.159 Y16.702 Z-1.432 B21.801 C=DC(90.)
X-11.727 Y16.702 Z-1.283 B21.801 C=DC(90.)
X-11.235 Y16.702 Z-1.16 B21.801 C=DC(90.)
X-10.889 Y16.702 Z-1.097 B21.801 C=DC(90.)
X-10.628 Y16.702 Z-1.063 B21.801 C=DC(90.)
X-10.169 Y16.702 Z-1.031 B21.801 C=DC(90.)
X-10.328 Y16.702 Z-1.043 B21.801 C=DC(90.),2
X-9.687 Y16.702 Z-1.039 B21.801 C=DC(90.)
X-9.225 Y16.702 Z-1.08 B21.801 C=DC(90.)
X-8.787 Y16.701 Z-1.154 B21.801 C=DC(90.)
X-8.269 Y16.702 Z-1.283 B21.801 C=DC(90.)
X-7.784 Y16.702 Z-1.454 B21.801 C=DC(90.)
X-7.262 Y16.702 Z-1.691 B21.801 C=DC(90.)
X-6.88 Y16.702 Z-1.904 B21.801 C=DC(90.)
X-6.498 Y16.702 Z-2.156 B21.801 C=DC(90.)
X-6.109 Y16.702 Z-2.461 B21.801 C=DC(90.)
X-5.926 Y16.702 Z-2.627 B21.801 C=DC(90.),6
X-4.578 Y16.702 Z-3.965 B21.801 C=DC(90.),6
X-3.119 Y16.701 Z-5.421 B21.801 C=DC(90.),6
X-3.045 Y16.701 Z-5.488 B21.801 C=DC(90.),8
X3.007 Y16.701 Z-5.491 B21.801 C=DC(90.),3
X3.053 Y16.701 Z-5.487 B21.801 C=DC(90.),8
X5.708 Y16.702 Z-2.835 B21.801 C=DC(90.)
X6.092 Y16.702 Z-2.476 B21.801 C=DC(90.)
X6.498 Y16.702 Z-2.156 B21.801 C=DC(90.)
X6.97 Y16.702 Z-1.85 B21.801 C=DC(90.)
X7.327 Y16.702 Z-1.656 B21.801 C=DC(90.)
X7.784 Y16.702 Z-1.454 B21.801 C=DC(90.)
X8.274 Y16.702 Z-1.282 B21.801 C=DC(90.)
X8.846 Y16.701 Z-1.141 B21.801 C=DC(90.)
X9.325 Y16.702 Z-1.067 B21.801 C=DC(90.)
X9.785 Y16.702 Z-1.032 B21.801 C=DC(90.)
X10.264 Y16.702 Z-1.036 B21.801 C=DC(90.)
X10.72 Y16.702 Z-1.071 B21.801 C=DC(90.)
X11.211 Y16.702 Z-1.154 B21.801 C=DC(90.)
X11.712 Y16.702 Z-1.279 B21.801 C=DC(90.)
X12.212 Y16.702 Z-1.451 B21.801 C=DC(90.)
X12.11 Y16.702 Z-1.39 B21.801 C=DC(90.),2
X12.678 Y16.702 Z-1.661 B21.801 C=DC(90.)
X13.12 Y16.702 Z-1.904 B21.801 C=DC(90.)
X13.433 Y16.702 Z-2.108 B21.801 C=DC(90.)
X13.897 Y16.702 Z-2.467 B21.801 C=DC(90.)
X14.307 Y16.702 Z-2.85 B21.801 C=DC(90.)
X16.693 Y16.702 Z-5.236 B21.801 C=DC(90.)
X18.992 Y16.702 Z-7.535 B21.801 C=DC(90.)
X21.244 Y16.701 Z-9.783 B21.801 C=DC(90.),8
X25. Y16.702 Z-9.786 B21.801 C=DC(90.),7
X25. Y16.402 Z-9.786 B21.801 C=DC(90.),7
X21.24 Y16.402 Z-9.779 B21.801 C=DC(90.),8
X19.01 Y16.402 Z-7.553 B21.801 C=DC(90.)
X16.607 Y16.402 Z-5.15 B21.801 C=DC(90.)
X14.155 Y16.402 Z-2.702 B21.801 C=DC(90.)
X13.847 Y16.402 Z-2.424 B21.801 C=DC(90.)
X13.433 Y16.402 Z-2.108 B21.801 C=DC(90.)
X13.089 Y16.402 Z-1.884 B21.801 C=DC(90.)
X12.58 Y16.402 Z-1.611 B21.801 C=DC(90.)
X12.145 Y16.402 Z-1.427 B21.801 C=DC(90.)
X11.738 Y16.402 Z-1.287 B21.801 C=DC(90.)
X11.275 Y16.402 Z-1.166 B21.801 C=DC(90.)
X10.72 Y16.402 Z-1.071 B21.801 C=DC(90.)
X10.169 Y16.402 Z-1.031 B21.801 C=DC(90.)
X9.71 Y16.402 Z-1.037 B21.801 C=DC(90.)
X9.243 Y16.402 Z-1.078 B21.801 C=DC(90.)
X8.736 Y16.402 Z-1.163 B21.801 C=DC(90.)
X8.231 Y16.402 Z-1.296 B21.801 C=DC(90.)
X7.819 Y16.402 Z-1.441 B21.801 C=DC(90.)
X7.364 Y16.402 Z-1.64 B21.801 C=DC(90.)
X6.946 Y16.402 Z-1.864 B21.801 C=DC(90.)
X6.516 Y16.402 Z-2.143 B21.801 C=DC(90.)
X6.208 Y16.402 Z-2.382 B21.801 C=DC(90.)
X5.99 Y16.402 Z-2.568 B21.801 C=DC(90.)
X5.695 Y16.402 Z-2.848 B21.801 C=DC(90.)
X3.053 Y16.402 Z-5.487 B21.801 C=DC(90.),8
X1.7 Y16.402 Z-5.493 B21.801 C=DC(90.),6
X-2.89 Y16.402 Z-5.493 B21.801 C=DC(90.),6
X-3.053 Y16.402 Z-5.487 B21.801 C=DC(90.),8
X-5.861 Y16.402 Z-2.687 B21.801 C=DC(90.)
X-6.082 Y16.402 Z-2.484 B21.801 C=DC(90.)
X-6.516 Y16.402 Z-2.143 B21.801 C=DC(90.)
X-6.938 Y16.402 Z-1.869 B21.801 C=DC(90.)
X-7.34 Y16.402 Z-1.651 B21.801 C=DC(90.)
X-7.831 Y16.402 Z-1.436 B21.801 C=DC(90.)
X-8.269 Y16.402 Z-1.283 B21.801 C=DC(90.)
X-8.815 Y16.402 Z-1.147 B21.801 C=DC(90.)
X-9.313 Y16.402 Z-1.069 B21.801 C=DC(90.)
X-9.831 Y16.402 Z-1.032 B21.801 C=DC(90.)
X-10.234 Y16.402 Z-1.034 B21.801 C=DC(90.)
X-10.131 Y16.402 Z-1.033 B21.801 C=DC(90.),2
X-10.776 Y16.402 Z-1.08 B21.801 C=DC(90.)
X-11.305 Y16.402 Z-1.172 B21.801 C=DC(90.)
X-11.744 Y16.402 Z-1.289 B21.801 C=DC(90.)
X-12.212 Y16.402 Z-1.451 B21.801 C=DC(90.)
X-12.58 Y16.402 Z-1.611 B21.801 C=DC(90.)
X-13.089 Y16.402 Z-1.884 B21.801 C=DC(90.)
X-13.437 Y16.402 Z-2.111 B21.801 C=DC(90.)
X-13.847 Y16.402 Z-2.424 B21.801 C=DC(90.)
X-14.285 Y16.402 Z-2.828 B21.801 C=DC(90.)
X-16.607 Y16.402 Z-5.15 B21.801 C=DC(90.)
X-19.01 Y16.402 Z-7.553 B21.801 C=DC(90.)
X-21.244 Y16.402 Z-9.783 B21.801 C=DC(90.),8
X-25. Y16.402 Z-9.786 B21.801 C=DC(90.),7
X-25. Y16.103 Z-9.786 B21.801 C=DC(90.),7
X-21.244 Y16.102 Z-9.783 B21.801 C=DC(90.),8
X-18.89 Y16.103 Z-7.433 B21.801 C=DC(90.)
X-16.487 Y16.103 Z-5.03 B21.801 C=DC(90.)
X-14.17 Y16.103 Z-2.718 B21.801 C=DC(90.)
X-13.87 Y16.103 Z-2.443 B21.801 C=DC(90.)
X-13.413 Y16.103 Z-2.094 B21.801 C=DC(90.)
X-13.047 Y16.103 Z-1.861 B21.801 C=DC(90.)
X-12.595 Y16.103 Z-1.618 B21.801 C=DC(90.)
X-12.135 Y16.103 Z-1.424 B21.801 C=DC(90.)
X-11.752 Y16.103 Z-1.291 B21.801 C=DC(90.)
X-11.24 Y16.103 Z-1.158 B21.801 C=DC(90.)
X-10.72 Y16.103 Z-1.071 B21.801 C=DC(90.)
X-10.169 Y16.103 Z-1.031 B21.801 C=DC(90.)
X-10.33 Y16.103 Z-1.05 B21.801 C=DC(90.),2
X-9.689 Y16.103 Z-1.039 B21.801 C=DC(90.)
X-9.285 Y16.103 Z-1.072 B21.801 C=DC(90.)
X-8.777 Y16.103 Z-1.154 B21.801 C=DC(90.)
X-8.269 Y16.103 Z-1.283 B21.801 C=DC(90.)
X-7.789 Y16.103 Z-1.453 B21.801 C=DC(90.)
X-7.319 Y16.103 Z-1.661 B21.801 C=DC(90.)
X-6.944 Y16.103 Z-1.865 B21.801 C=DC(90.)
X-6.506 Y16.103 Z-2.151 B21.801 C=DC(90.)
X-6.097 Y16.103 Z-2.471 B21.801 C=DC(90.)
X-5.71 Y16.103 Z-2.833 B21.801 C=DC(90.),6
X-3.053 Y16.103 Z-5.487 B21.801 C=DC(90.),8
X-2.576 Y16.103 Z-5.493 B21.801 C=DC(90.),6
X3.045 Y16.103 Z-5.488 B21.801 C=DC(90.),8
X4.037 Y16.103 Z-4.505 B21.801 C=DC(90.)
X5.862 Y16.103 Z-2.691 B21.801 C=DC(90.)
X6.106 Y16.103 Z-2.463 B21.801 C=DC(90.)
X6.491 Y16.103 Z-2.161 B21.801 C=DC(90.)
X6.886 Y16.103 Z-1.902 B21.801 C=DC(90.)
X7.327 Y16.103 Z-1.656 B21.801 C=DC(90.)
X7.785 Y16.103 Z-1.454 B21.801 C=DC(90.)
X8.273 Y16.103 Z-1.282 B21.801 C=DC(90.)
X8.81 Y16.103 Z-1.148 B21.801 C=DC(90.)
X9.291 Y16.103 Z-1.072 B21.801 C=DC(90.)
X9.77 Y16.103 Z-1.033 B21.801 C=DC(90.)
X10.288 Y16.103 Z-1.037 B21.801 C=DC(90.)
X10.72 Y16.103 Z-1.071 B21.801 C=DC(90.)
X11.271 Y16.103 Z-1.164 B21.801 C=DC(90.)
X11.752 Y16.103 Z-1.321 B21.801 C=DC(90.)
X12.265 Y16.103 Z-1.473 B21.801 C=DC(90.)
X12.686 Y16.103 Z-1.665 B21.801 C=DC(90.)
X13.083 Y16.103 Z-1.881 B21.801 C=DC(90.)
X13.433 Y16.103 Z-2.108 B21.801 C=DC(90.)
X13.88 Y16.103 Z-2.452 B21.801 C=DC(90.)
X14.298 Y16.103 Z-2.841 B21.801 C=DC(90.)
X16.487 Y16.103 Z-5.03 B21.801 C=DC(90.)
X18.89 Y16.103 Z-7.433 B21.801 C=DC(90.)
X21.244 Y16.102 Z-9.783 B21.801 C=DC(90.),8
X25. Y16.103 Z-9.786 B21.801 C=DC(90.),7
X25. Y15.803 Z-9.786 B21.801 C=DC(90.),7
X21.244 Y15.803 Z-9.783 B21.801 C=DC(90.),8
X18.77 Y15.803 Z-7.313 B21.801 C=DC(90.)
X16.512 Y15.803 Z-5.054 B21.801 C=DC(90.)
X14.15 Y15.804 Z-2.7 B21.801 C=DC(90.)
X13.868 Y15.804 Z-2.441 B21.801 C=DC(90.)
X13.433 Y15.803 Z-2.108 B21.801 C=DC(90.)
X13.081 Y15.804 Z-1.88 B21.801 C=DC(90.)
X12.604 Y15.804 Z-1.623 B21.801 C=DC(90.)
X12.212 Y15.804 Z-1.451 B21.801 C=DC(90.)
X11.687 Y15.804 Z-1.272 B21.801 C=DC(90.)
X11.258 Y15.804 Z-1.161 B21.801 C=DC(90.)
X10.72 Y15.803 Z-1.071 B21.801 C=DC(90.)
X10.169 Y15.803 Z-1.031 B21.801 C=DC(90.)
X9.686 Y15.803 Z-1.039 B21.801 C=DC(90.)
X9.262 Y15.803 Z-1.075 B21.801 C=DC(90.)
X8.729 Y15.803 Z-1.166 B21.801 C=DC(90.)
X8.251 Y15.804 Z-1.289 B21.801 C=DC(90.)
X7.805 Y15.804 Z-1.447 B21.801 C=DC(90.)
X7.326 Y15.803 Z-1.657 B21.801 C=DC(90.)
X6.958 Y15.804 Z-1.857 B21.801 C=DC(90.)
X6.479 Y15.803 Z-2.17 B21.801 C=DC(90.)
X6.106 Y15.803 Z-2.463 B21.801 C=DC(90.)
X5.793 Y15.804 Z-2.755 B21.801 C=DC(90.)
X3.142 Y15.803 Z-5.399 B21.801 C=DC(90.),6
X3.045 Y15.803 Z-5.488 B21.801 C=DC(90.),8
X-3.007 Y15.803 Z-5.491 B21.801 C=DC(90.),3
X-3.053 Y15.803 Z-5.487 B21.801 C=DC(90.),8
X-5.63 Y15.804 Z-2.913 B21.801 C=DC(90.)
X-6.106 Y15.803 Z-2.463 B21.801 C=DC(90.)
X-6.492 Y15.803 Z-2.161 B21.801 C=DC(90.)
X-6.882 Y15.803 Z-1.905 B21.801 C=DC(90.)
X-7.31 Y15.804 Z-1.666 B21.801 C=DC(90.)
X-7.772 Y15.804 Z-1.46 B21.801 C=DC(90.)
X-8.218 Y15.804 Z-1.3 B21.801 C=DC(90.)
X-8.717 Y15.803 Z-1.169 B21.801 C=DC(90.)
X-9.207 Y15.803 Z-1.082 B21.801 C=DC(90.)
X-9.689 Y15.803 Z-1.039 B21.801 C=DC(90.)
X-10.167 Y15.803 Z-1.031 B21.801 C=DC(90.)
X-10.697 Y15.803 Z-1.069 B21.801 C=DC(90.)
X-11.258 Y15.804 Z-1.161 B21.801 C=DC(90.)
X-11.772 Y15.804 Z-1.297 B21.801 C=DC(90.)
X-12.286 Y15.803 Z-1.482 B21.801 C=DC(90.)
X-12.721 Y15.804 Z-1.684 B21.801 C=DC(90.)
X-13.081 Y15.804 Z-1.88 B21.801 C=DC(90.)
X-13.51 Y15.804 Z-2.162 B21.801 C=DC(90.)
X-13.87 Y15.804 Z-2.443 B21.801 C=DC(90.)
X-14.291 Y15.803 Z-2.834 B21.801 C=DC(90.)
X-16.51 Y15.803 Z-5.053 B21.801 C=DC(90.)
X-18.77 Y15.803 Z-7.313 B21.801 C=DC(90.)
X-21.142 Y15.803 Z-9.682 B21.801 C=DC(90.),6
X-21.249 Y15.803 Z-9.783 B21.801 C=DC(90.),8
X-25. Y15.803 Z-9.786 B21.801 C=DC(90.),7
X-25. Y15.504 Z-9.786 B21.801 C=DC(90.),7
X-21.244 Y15.504 Z-9.783 B21.801 C=DC(90.),8
X-18.651 Y15.504 Z-7.193 B21.801 C=DC(90.)
X-16.634 Y15.504 Z-5.177 B21.801 C=DC(90.)
X-14.142 Y15.504 Z-2.691 B21.801 C=DC(90.)
X-13.82 Y15.504 Z-2.402 B21.801 C=DC(90.)
X-13.396 Y15.504 Z-2.083 B21.801 C=DC(90.)
X-13.023 Y15.504 Z-1.847 B21.801 C=DC(90.)
X-12.604 Y15.504 Z-1.623 B21.801 C=DC(90.)
X-12.156 Y15.504 Z-1.431 B21.801 C=DC(90.)
X-11.694 Y15.504 Z-1.273 B21.801 C=DC(90.)
X-11.258 Y15.504 Z-1.161 B21.801 C=DC(90.)
X-10.72 Y15.504 Z-1.071 B21.801 C=DC(90.)
X-10.186 Y15.564 Z-1.032 B21.801 C=DC(90.),1
X-9.688 Y15.504 Z-1.039 B21.801 C=DC(90.)
X-9.283 Y15.504 Z-1.073 B21.801 C=DC(90.)
X-8.802 Y15.504 Z-1.149 B21.801 C=DC(90.)
X-8.331 Y15.504 Z-1.265 B21.801 C=DC(90.)
X-7.865 Y15.504 Z-1.423 B21.801 C=DC(90.)
X-7.621 Y15.504 Z-1.524 B21.801 C=DC(90.)
X-7.327 Y15.504 Z-1.656 B21.801 C=DC(90.)
X-6.918 Y15.504 Z-1.88 B21.801 C=DC(90.)
X-6.453 Y15.504 Z-2.19 B21.801 C=DC(90.)
X-6.115 Y15.504 Z-2.456 B21.801 C=DC(90.)
X-5.882 Y15.504 Z-2.669 B21.801 C=DC(90.)
X-3.053 Y15.504 Z-5.487 B21.801 C=DC(90.),8
X-2.442 Y15.504 Z-5.493 B21.801 C=DC(90.),6
X3.007 Y15.504 Z-5.491 B21.801 C=DC(90.),3
X3.053 Y15.504 Z-5.487 B21.801 C=DC(90.),8
X5.562 Y15.504 Z-2.981 B21.801 C=DC(90.),6
X6.106 Y15.504 Z-2.463 B21.801 C=DC(90.)
X6.453 Y15.504 Z-2.19 B21.801 C=DC(90.)
X6.918 Y15.504 Z-1.88 B21.801 C=DC(90.)
X7.327 Y15.504 Z-1.656 B21.801 C=DC(90.)
X7.718 Y15.504 Z-1.48 B21.801 C=DC(90.)
X7.71 Y15.504 Z-1.656 B21.801 C=DC(90.),2
X8.036 Y15.504 Z-1.363 B21.801 C=DC(90.)
X8.331 Y15.504 Z-1.265 B21.801 C=DC(90.)
X8.877 Y15.504 Z-1.136 B21.801 C=DC(90.)
X9.357 Y15.504 Z-1.064 B21.801 C=DC(90.)
X9.849 Y15.504 Z-1.032 B21.801 C=DC(90.)
X10.26 Y15.504 Z-1.036 B21.801 C=DC(90.)
X10.798 Y15.504 Z-1.083 B21.801 C=DC(90.)
X11.275 Y15.504 Z-1.166 B21.801 C=DC(90.)
X11.694 Y15.504 Z-1.273 B21.801 C=DC(90.)
X12.212 Y15.504 Z-1.451 B21.801 C=DC(90.)
X12.604 Y15.504 Z-1.623 B21.801 C=DC(90.)
X13.054 Y15.505 Z-1.864 B21.801 C=DC(90.)
X13.433 Y15.504 Z-2.108 B21.801 C=DC(90.)
X13.831 Y15.504 Z-2.411 B21.801 C=DC(90.)
X14.11 Y15.504 Z-2.661 B21.801 C=DC(90.)
X16.639 Y15.504 Z-5.182 B21.801 C=DC(90.)
X18.651 Y15.504 Z-7.193 B21.801 C=DC(90.)
X21.244 Y15.504 Z-9.783 B21.801 C=DC(90.),8
X25. Y15.504 Z-9.786 B21.801 C=DC(90.),7
X25. Y15.205 Z-9.786 B21.801 C=DC(90.),7
X21.244 Y15.204 Z-9.783 B21.801 C=DC(90.),8
X18.736 Y15.205 Z-7.278 B21.801 C=DC(90.)
X16.766 Y15.205 Z-5.309 B21.801 C=DC(90.)
X14.171 Y15.205 Z-2.717 B21.801 C=DC(90.)
X13.82 Y15.205 Z-2.402 B21.801 C=DC(90.)
X13.406 Y15.205 Z-2.09 B21.801 C=DC(90.)
X12.961 Y15.205 Z-1.812 B21.801 C=DC(90.)
X12.566 Y15.205 Z-1.605 B21.801 C=DC(90.)
X12.212 Y15.205 Z-1.451 B21.801 C=DC(90.)
X11.712 Y15.205 Z-1.279 B21.801 C=DC(90.)
X11.258 Y15.205 Z-1.161 B21.801 C=DC(90.)
X10.72 Y15.205 Z-1.071 B21.801 C=DC(90.)
X10.169 Y15.205 Z-1.031 B21.801 C=DC(90.)
X9.69 Y15.205 Z-1.039 B21.801 C=DC(90.)
X9.209 Y15.205 Z-1.082 B21.801 C=DC(90.)
X8.719 Y15.205 Z-1.169 B21.801 C=DC(90.)
X8.305 Y15.205 Z-1.273 B21.801 C=DC(90.)
X7.913 Y15.205 Z-1.405 B21.801 C=DC(90.)
X7.62 Y15.205 Z-1.524 B21.801 C=DC(90.)
X7.63 Y15.205 Z-1.405 B21.801 C=DC(90.),2
X7.327 Y15.205 Z-1.656 B21.801 C=DC(90.)
X6.937 Y15.205 Z-1.87 B21.801 C=DC(90.)
X6.472 Y15.205 Z-2.175 B21.801 C=DC(90.)
X6.227 Y15.205 Z-2.366 B21.801 C=DC(90.)
X6.013 Y15.205 Z-2.547 B21.801 C=DC(90.),6
X5.829 Y15.205 Z-2.717 B21.801 C=DC(90.)
X3.115 Y15.205 Z-5.426 B21.801 C=DC(90.),6
X3.045 Y15.205 Z-5.488 B21.801 C=DC(90.),8
X-2.874 Y15.205 Z-5.493 B21.801 C=DC(90.),6
X-3.053 Y15.205 Z-5.487 B21.801 C=DC(90.),8
X-5.89 Y15.205 Z-2.66 B21.801 C=DC(90.)
X-6.054 Y15.205 Z-2.511 B21.801 C=DC(90.)
X-6.442 Y15.205 Z-2.199 B21.801 C=DC(90.)
X-6.815 Y15.205 Z-1.948 B21.801 C=DC(90.)
X-7.087 Y15.205 Z-1.786 B21.801 C=DC(90.)
X-7.362 Y15.205 Z-1.641 B21.801 C=DC(90.)
X-7.794 Y15.205 Z-1.45 B21.801 C=DC(90.)
X-8.228 Y15.205 Z-1.299 B21.801 C=DC(90.)
X-8.571 Y15.205 Z-1.204 B21.801 C=DC(90.)
X-8.926 Y15.205 Z-1.128 B21.801 C=DC(90.)
X-9.311 Y15.205 Z-1.069 B21.801 C=DC(90.)
X-9.77 Y15.205 Z-1.033 B21.801 C=DC(90.)
X-10.299 Y15.205 Z-1.137 B21.801 C=DC(90.),1
X-10.72 Y15.205 Z-1.071 B21.801 C=DC(90.)
X-11.258 Y15.205 Z-1.161 B21.801 C=DC(90.)
X-11.712 Y15.205 Z-1.279 B21.801 C=DC(90.)
X-12.219 Y15.205 Z-1.454 B21.801 C=DC(90.)
X-12.674 Y15.205 Z-1.66 B21.801 C=DC(90.)
X-13.084 Y15.205 Z-1.883 B21.801 C=DC(90.)
X-13.509 Y15.205 Z-2.162 B21.801 C=DC(90.)
X-13.82 Y15.205 Z-2.402 B21.801 C=DC(90.)
X-14.224 Y15.205 Z-2.767 B21.801 C=DC(90.)
X-16.758 Y15.205 Z-5.301 B21.801 C=DC(90.)
X-18.736 Y15.205 Z-7.278 B21.801 C=DC(90.)
X-21.244 Y15.204 Z-9.783 B21.801 C=DC(90.),8
X-25. Y15.205 Z-9.786 B21.801 C=DC(90.),7
X-25. Y14.905 Z-9.786 B21.801 C=DC(90.),7
X-21.244 Y14.905 Z-9.783 B21.801 C=DC(90.),8
X-18.842 Y14.905 Z-7.385 B21.801 C=DC(90.)
X-16.673 Y14.905 Z-5.216 B21.801 C=DC(90.)
X-14.166 Y14.905 Z-2.712 B21.801 C=DC(90.)
X-13.852 Y14.905 Z-2.43 B21.801 C=DC(90.)
X-13.44 Y14.905 Z-2.113 B21.801 C=DC(90.)
X-13.019 Y14.906 Z-1.844 B21.801 C=DC(90.)
X-12.577 Y14.905 Z-1.61 B21.801 C=DC(90.)
X-12.133 Y14.906 Z-1.423 B21.801 C=DC(90.)
X-11.735 Y14.906 Z-1.286 B21.801 C=DC(90.)
X-11.258 Y14.906 Z-1.161 B21.801 C=DC(90.)
X-10.72 Y14.905 Z-1.071 B21.801 C=DC(90.)
X-10.227 Y14.905 Z-1.034 B21.801 C=DC(90.)
X-9.77 Y14.905 Z-1.033 B21.801 C=DC(90.)
X-9.239 Y14.905 Z-1.078 B21.801 C=DC(90.)
X-8.802 Y14.905 Z-1.149 B21.801 C=DC(90.)
X-8.307 Y14.906 Z-1.272 B21.801 C=DC(90.)
X-7.85 Y14.905 Z-1.428 B21.801 C=DC(90.)
X-7.368 Y14.906 Z-1.637 B21.801 C=DC(90.)
X-6.94 Y14.906 Z-1.868 B21.801 C=DC(90.)
X-6.484 Y14.905 Z-2.166 B21.801 C=DC(90.)
X-6.081 Y14.905 Z-2.486 B21.801 C=DC(90.)
X-5.693 Y14.906 Z-2.85 B21.801 C=DC(90.)
X-3.067 Y14.905 Z-5.473 B21.801 C=DC(90.),3
X-3.043 Y14.905 Z-5.488 B21.801 C=DC(90.),8
X3.045 Y14.905 Z-5.488 B21.801 C=DC(90.),8
X4.244 Y14.905 Z-4.298 B21.801 C=DC(90.)
X5.697 Y14.906 Z-2.846 B21.801 C=DC(90.)
X6.144 Y14.905 Z-2.432 B21.801 C=DC(90.)
X6.484 Y14.905 Z-2.166 B21.801 C=DC(90.)
X6.94 Y14.906 Z-1.868 B21.801 C=DC(90.)
X7.327 Y14.905 Z-1.656 B21.801 C=DC(90.)
X7.851 Y14.906 Z-1.428 B21.801 C=DC(90.)
X8.326 Y14.906 Z-1.267 B21.801 C=DC(90.)
X8.863 Y14.905 Z-1.139 B21.801 C=DC(90.)
X9.292 Y14.905 Z-1.072 B21.801 C=DC(90.)
X9.77 Y14.905 Z-1.033 B21.801 C=DC(90.)
X10.261 Y14.905 Z-1.036 B21.801 C=DC(90.)
X10.72 Y14.905 Z-1.071 B21.801 C=DC(90.)
X11.294 Y14.906 Z-1.171 B21.801 C=DC(90.)
X11.735 Y14.906 Z-1.286 B21.801 C=DC(90.)
X12.212 Y14.905 Z-1.451 B21.801 C=DC(90.)
X12.577 Y14.905 Z-1.61 B21.801 C=DC(90.)
X13.019 Y14.906 Z-1.844 B21.801 C=DC(90.)
X13.433 Y14.905 Z-2.108 B21.801 C=DC(90.)
X13.831 Y14.905 Z-2.411 B21.801 C=DC(90.)
X14.223 Y14.906 Z-2.769 B21.801 C=DC(90.)
X16.669 Y14.905 Z-5.212 B21.801 C=DC(90.)
X18.842 Y14.905 Z-7.385 B21.801 C=DC(90.)
X21.244 Y14.905 Z-9.783 B21.801 C=DC(90.),8
X25. Y14.905 Z-9.786 B21.801 C=DC(90.),7
X25. Y14.606 Z-9.786 B21.801 C=DC(90.),7
X21.244 Y14.606 Z-9.783 B21.801 C=DC(90.),8
X18.949 Y14.606 Z-7.492 B21.801 C=DC(90.)
X16.555 Y14.606 Z-5.098 B21.801 C=DC(90.)
X14.238 Y14.606 Z-2.786 B21.801 C=DC(90.)
X14.044 Y14.606 Z-2.599 B21.801 C=DC(90.),6
X13.829 Y14.606 Z-2.409 B21.801 C=DC(90.)
X13.433 Y14.606 Z-2.108 B21.801 C=DC(90.)
X13.062 Y14.607 Z-1.869 B21.801 C=DC(90.)
X12.564 Y14.606 Z-1.604 B21.801 C=DC(90.)
X12.175 Y14.606 Z-1.438 B21.801 C=DC(90.)
X11.737 Y14.606 Z-1.287 B21.801 C=DC(90.)
X11.258 Y14.606 Z-1.161 B21.801 C=DC(90.)
X10.72 Y14.606 Z-1.071 B21.801 C=DC(90.)
X10.169 Y14.606 Z-1.031 B21.801 C=DC(90.)
X9.692 Y14.606 Z-1.038 B21.801 C=DC(90.)
X9.279 Y14.606 Z-1.073 B21.801 C=DC(90.)
X8.802 Y14.606 Z-1.149 B21.801 C=DC(90.)
X8.263 Y14.606 Z-1.285 B21.801 C=DC(90.)
X7.757 Y14.606 Z-1.464 B21.801 C=DC(90.)
X7.327 Y14.606 Z-1.656 B21.801 C=DC(90.)
X6.914 Y14.606 Z-1.883 B21.801 C=DC(90.)
X6.479 Y14.606 Z-2.17 B21.801 C=DC(90.)
X6.106 Y14.606 Z-2.463 B21.801 C=DC(90.)
X5.81 Y14.606 Z-2.735 B21.801 C=DC(90.)
X3.053 Y14.606 Z-5.487 B21.801 C=DC(90.),8
X1.861 Y14.606 Z-5.493 B21.801 C=DC(90.),6
X-2.976 Y14.606 Z-5.493 B21.801 C=DC(90.),6
X-3.053 Y14.606 Z-5.487 B21.801 C=DC(90.),8
X-5.81 Y14.606 Z-2.735 B21.801 C=DC(90.)
X-6.038 Y14.606 Z-2.526 B21.801 C=DC(90.)
X-6.37 Y14.606 Z-2.254 B21.801 C=DC(90.)
X-6.587 Y14.606 Z-2.097 B21.801 C=DC(90.)
X-6.914 Y14.607 Z-1.883 B21.801 C=DC(90.)
X-7.421 Y14.606 Z-1.611 B21.801 C=DC(90.)
X-7.87 Y14.606 Z-1.421 B21.801 C=DC(90.)
X-8.27 Y14.606 Z-1.283 B21.801 C=DC(90.)
X-8.802 Y14.606 Z-1.149 B21.801 C=DC(90.)
X-9.305 Y14.606 Z-1.07 B21.801 C=DC(90.)
X-9.77 Y14.606 Z-1.033 B21.801 C=DC(90.)
X-10.272 Y14.606 Z-1.036 B21.801 C=DC(90.)
X-10.72 Y14.606 Z-1.071 B21.801 C=DC(90.)
X-11.258 Y14.606 Z-1.161 B21.801 C=DC(90.)
X-11.74 Y14.606 Z-1.288 B21.801 C=DC(90.)
X-12.212 Y14.606 Z-1.451 B21.801 C=DC(90.)
X-12.644 Y14.606 Z-1.645 B21.801 C=DC(90.)
X-13.062 Y14.606 Z-1.869 B21.801 C=DC(90.)
X-13.481 Y14.606 Z-2.142 B21.801 C=DC(90.)
X-13.829 Y14.606 Z-2.409 B21.801 C=DC(90.)
X-14.208 Y14.606 Z-2.751 B21.801 C=DC(90.)
X-16.555 Y14.606 Z-5.098 B21.801 C=DC(90.)
X-18.949 Y14.606 Z-7.492 B21.801 C=DC(90.)
X-21.244 Y14.606 Z-9.783 B21.801 C=DC(90.),8
X-25. Y14.606 Z-9.786 B21.801 C=DC(90.),7
X-25. Y14.307 Z-9.786 B21.801 C=DC(90.),7
X-21.244 Y14.306 Z-9.783 B21.801 C=DC(90.),8
X-18.836 Y14.307 Z-7.379 B21.801 C=DC(90.)
X-16.644 Y14.307 Z-5.187 B21.801 C=DC(90.)
X-14.145 Y14.307 Z-2.693 B21.801 C=DC(90.)
X-13.839 Y14.307 Z-2.417 B21.801 C=DC(90.)
X-13.427 Y14.307 Z-2.104 B21.801 C=DC(90.)
X-13.083 Y14.307 Z-1.881 B21.801 C=DC(90.)
X-12.568 Y14.307 Z-1.606 B21.801 C=DC(90.)
X-12.128 Y14.307 Z-1.42 B21.801 C=DC(90.)
X-11.665 Y14.307 Z-1.265 B21.801 C=DC(90.)
X-11.258 Y14.307 Z-1.161 B21.801 C=DC(90.)
X-10.72 Y14.307 Z-1.071 B21.801 C=DC(90.)
X-10.169 Y14.307 Z-1.031 B21.801 C=DC(90.)
X-9.77 Y14.307 Z-1.033 B21.801 C=DC(90.)
X-9.249 Y14.307 Z-1.077 B21.801 C=DC(90.)
X-8.807 Y14.307 Z-1.148 B21.801 C=DC(90.)
X-8.28 Y14.307 Z-1.28 B21.801 C=DC(90.)
X-7.757 Y14.307 Z-1.464 B21.801 C=DC(90.)
X-7.327 Y14.307 Z-1.656 B21.801 C=DC(90.)
X-6.944 Y14.307 Z-1.865 B21.801 C=DC(90.)
X-6.473 Y14.307 Z-2.174 B21.801 C=DC(90.)
X-6.106 Y14.307 Z-2.463 B21.801 C=DC(90.)
X-5.688 Y14.307 Z-2.855 B21.801 C=DC(90.)
X-3.152 Y14.307 Z-5.389 B21.801 C=DC(90.),6
X-3.045 Y14.307 Z-5.488 B21.801 C=DC(90.),8
X2.851 Y14.307 Z-5.493 B21.801 C=DC(90.),6
X3.053 Y14.307 Z-5.487 B21.801 C=DC(90.),8
X5.407 Y14.307 Z-3.136 B21.801 C=DC(90.),6
X5.909 Y14.307 Z-2.644 B21.801 C=DC(90.)
X6.122 Y14.307 Z-2.45 B21.801 C=DC(90.)
X6.485 Y14.307 Z-2.166 B21.801 C=DC(90.)
X6.963 Y14.307 Z-1.854 B21.801 C=DC(90.)
X7.409 Y14.307 Z-1.617 B21.801 C=DC(90.)
X7.834 Y14.307 Z-1.434 B21.801 C=DC(90.)
X8.282 Y14.307 Z-1.28 B21.801 C=DC(90.)
X8.802 Y14.307 Z-1.149 B21.801 C=DC(90.)
X9.247 Y14.307 Z-1.077 B21.801 C=DC(90.)
X9.77 Y14.307 Z-1.033 B21.801 C=DC(90.)
X10.26 Y14.307 Z-1.036 B21.801 C=DC(90.)
X10.749 Y14.307 Z-1.076 B21.801 C=DC(90.)
X11.258 Y14.307 Z-1.161 B21.801 C=DC(90.)
X11.746 Y14.307 Z-1.288 B21.801 C=DC(90.)
X12.212 Y14.307 Z-1.451 B21.801 C=DC(90.)
X12.631 Y14.307 Z-1.636 B21.801 C=DC(90.)
X13.105 Y14.307 Z-1.895 B21.801 C=DC(90.)
X13.523 Y14.307 Z-2.171 B21.801 C=DC(90.)
X13.839 Y14.307 Z-2.417 B21.801 C=DC(90.)
X14.145 Y14.307 Z-2.693 B21.801 C=DC(90.)
X16.644 Y14.307 Z-5.187 B21.801 C=DC(90.)
X18.836 Y14.307 Z-7.379 B21.801 C=DC(90.)
X21.244 Y14.306 Z-9.783 B21.801 C=DC(90.),8
X25. Y14.307 Z-9.786 B21.801 C=DC(90.),7
X25. Y14.007 Z-9.786 B21.801 C=DC(90.),7
X21.244 Y14.007 Z-9.783 B21.801 C=DC(90.),8
X18.733 Y14.007 Z-7.276 B21.801 C=DC(90.)
X16.732 Y14.007 Z-5.275 B21.801 C=DC(90.)
X14.184 Y14.008 Z-2.729 B21.801 C=DC(90.)
X13.87 Y14.007 Z-2.444 B21.801 C=DC(90.)
X13.489 Y14.008 Z-2.147 B21.801 C=DC(90.)
X13.039 Y14.008 Z-1.855 B21.801 C=DC(90.)
X12.565 Y14.007 Z-1.605 B21.801 C=DC(90.)
X12.151 Y14.007 Z-1.429 B21.801 C=DC(90.)
X11.614 Y14.007 Z-1.25 B21.801 C=DC(90.)
X11.187 Y14.007 Z-1.149 B21.801 C=DC(90.)
X10.72 Y14.007 Z-1.071 B21.801 C=DC(90.)
X10.186 Y14.007 Z-1.032 B21.801 C=DC(90.)
X9.745 Y14.007 Z-1.034 B21.801 C=DC(90.)
X9.225 Y14.007 Z-1.08 B21.801 C=DC(90.)
X8.803 Y14.007 Z-1.149 B21.801 C=DC(90.)
X8.281 Y14.008 Z-1.28 B21.801 C=DC(90.)
X7.821 Y14.007 Z-1.44 B21.801 C=DC(90.)
X7.359 Y14.007 Z-1.641 B21.801 C=DC(90.)
X6.923 Y14.008 Z-1.879 B21.801 C=DC(90.)
X6.47 Y14.007 Z-2.177 B21.801 C=DC(90.)
X6.106 Y14.007 Z-2.463 B21.801 C=DC(90.)
X5.908 Y14.007 Z-2.644 B21.801 C=DC(90.)
X4.07 Y14.007 Z-4.473 B21.801 C=DC(90.)
X3.053 Y14.007 Z-5.487 B21.801 C=DC(90.),8
X2.198 Y14.007 Z-5.493 B21.801 C=DC(90.),6
X-3.007 Y14.007 Z-5.491 B21.801 C=DC(90.),3
X-3.053 Y14.007 Z-5.487 B21.801 C=DC(90.),8
X-5.776 Y14.008 Z-2.767 B21.801 C=DC(90.)
X-6.092 Y14.007 Z-2.475 B21.801 C=DC(90.)
X-6.47 Y14.007 Z-2.177 B21.801 C=DC(90.)
X-6.879 Y14.008 Z-1.905 B21.801 C=DC(90.)
X-7.327 Y14.007 Z-1.656 B21.801 C=DC(90.)
X-7.798 Y14.007 Z-1.448 B21.801 C=DC(90.)
X-8.281 Y14.008 Z-1.28 B21.801 C=DC(90.)
X-8.797 Y14.007 Z-1.151 B21.801 C=DC(90.)
X-9.276 Y14.007 Z-1.073 B21.801 C=DC(90.)
X-9.808 Y14.007 Z-1.032 B21.801 C=DC(90.)
X-10.257 Y14.007 Z-1.035 B21.801 C=DC(90.)
X-10.793 Y14.007 Z-1.083 B21.801 C=DC(90.)
X-11.258 Y14.007 Z-1.161 B21.801 C=DC(90.)
X-11.649 Y14.007 Z-1.261 B21.801 C=DC(90.)
X-12.148 Y14.007 Z-1.428 B21.801 C=DC(90.)
X-12.672 Y14.007 Z-1.657 B21.801 C=DC(90.)
X-13.034 Y14.008 Z-1.852 B21.801 C=DC(90.)
X-13.433 Y14.007 Z-2.108 B21.801 C=DC(90.)
X-13.833 Y14.007 Z-2.412 B21.801 C=DC(90.)
X-14.191 Y14.008 Z-2.735 B21.801 C=DC(90.)
X-16.732 Y14.007 Z-5.275 B21.801 C=DC(90.)
X-18.733 Y14.007 Z-7.276 B21.801 C=DC(90.)
X-21.244 Y14.007 Z-9.783 B21.801 C=DC(90.),8
X-25. Y14.007 Z-9.786 B21.801 C=DC(90.),7
X-25. Y13.708 Z-9.786 B21.801 C=DC(90.),7
X-21.244 Y13.708 Z-9.783 B21.801 C=DC(90.),8
X-18.862 Y13.708 Z-7.405 B21.801 C=DC(90.)
X-16.75 Y13.708 Z-5.293 B21.801 C=DC(90.)
X-14.116 Y13.708 Z-2.666 B21.801 C=DC(90.)
X-13.812 Y13.708 Z-2.396 B21.801 C=DC(90.)
X-13.433 Y13.708 Z-2.108 B21.801 C=DC(90.)
X-13.025 Y13.709 Z-1.847 B21.801 C=DC(90.)
X-12.588 Y13.708 Z-1.615 B21.801 C=DC(90.)
X-12.124 Y13.708 Z-1.419 B21.801 C=DC(90.)
X-11.729 Y13.708 Z-1.287 B21.801 C=DC(90.)
X-11.451 Y13.708 Z-1.209 B21.801 C=DC(90.),6
X-11.133 Y13.708 Z-1.138 B21.801 C=DC(90.)
X-10.678 Y13.708 Z-1.068 B21.801 C=DC(90.)
X-10.169 Y13.708 Z-1.131 B21.801 C=DC(90.),1
X-9.77 Y13.708 Z-1.033 B21.801 C=DC(90.)
X-9.256 Y13.708 Z-1.076 B21.801 C=DC(90.)
X-8.809 Y13.708 Z-1.148 B21.801 C=DC(90.)
X-8.28 Y13.708 Z-1.28 B21.801 C=DC(90.)
X-7.784 Y13.708 Z-1.454 B21.801 C=DC(90.)
X-7.309 Y13.708 Z-1.666 B21.801 C=DC(90.)
X-6.893 Y13.708 Z-1.898 B21.801 C=DC(90.)
X-6.467 Y13.708 Z-2.179 B21.801 C=DC(90.)
X-6.13 Y13.708 Z-2.444 B21.801 C=DC(90.)
X-5.931 Y13.708 Z-2.623 B21.801 C=DC(90.)
X-5.382 Y13.708 Z-3.161 B21.801 C=DC(90.),6
X-3.125 Y13.708 Z-5.416 B21.801 C=DC(90.),6
X-3.045 Y13.708 Z-5.488 B21.801 C=DC(90.),8
X2.93 Y13.708 Z-5.493 B21.801 C=DC(90.),6
X3.053 Y13.708 Z-5.487 B21.801 C=DC(90.),8
X5.899 Y13.708 Z-2.653 B21.801 C=DC(90.)
X6.106 Y13.708 Z-2.463 B21.801 C=DC(90.)
X6.467 Y13.708 Z-2.179 B21.801 C=DC(90.)
X6.902 Y13.708 Z-1.892 B21.801 C=DC(90.)
X7.299 Y13.708 Z-1.672 B21.801 C=DC(90.)
X7.788 Y13.708 Z-1.453 B21.801 C=DC(90.)
X8.289 Y13.708 Z-1.278 B21.801 C=DC(90.)
X8.809 Y13.708 Z-1.148 B21.801 C=DC(90.)
X9.256 Y13.708 Z-1.076 B21.801 C=DC(90.)
X9.77 Y13.708 Z-1.033 B21.801 C=DC(90.)
X10.282 Y13.708 Z-1.037 B21.801 C=DC(90.)
X10.72 Y13.708 Z-1.071 B21.801 C=DC(90.)




X11.187 Y13.708 Z-1.171 B21.801 C=DC(90.)
X11.679 Y13.708 Z-1.272 B21.801 C=DC(90.)
X12.068 Y13.708 Z-1.399 B21.801 C=DC(90.)
X12.363 Y13.708 Z-1.517 B21.801 C=DC(90.)
X12.678 Y13.708 Z-1.662 B21.801 C=DC(90.)
X13.117 Y13.709 Z-1.903 B21.801 C=DC(90.)
X13.444 Y13.708 Z-2.116 B21.801 C=DC(90.)
X13.833 Y13.708 Z-2.413 B21.801 C=DC(90.)
X14.21 Y13.708 Z-2.754 B21.801 C=DC(90.)
X16.75 Y13.708 Z-5.293 B21.801 C=DC(90.)
X18.862 Y13.708 Z-7.405 B21.801 C=DC(90.)
X21.244 Y13.708 Z-9.783 B21.801 C=DC(90.),8
X25. Y13.708 Z-9.786 B21.801 C=DC(90.),7
X25. Y13.409 Z-9.786 B21.801 C=DC(90.),7
X21.244 Y13.408 Z-9.783 B21.801 C=DC(90.),8
X18.992 Y13.409 Z-7.535 B21.801 C=DC(90.)
X16.7 Y13.409 Z-5.242 B21.801 C=DC(90.)
X14.121 Y13.409 Z-2.671 B21.801 C=DC(90.)
X13.81 Y13.409 Z-2.394 B21.801 C=DC(90.)
X13.433 Y13.409 Z-2.108 B21.801 C=DC(90.)
X13.041 Y13.409 Z-1.856 B21.801 C=DC(90.)
X12.601 Y13.409 Z-1.622 B21.801 C=DC(90.)
X12.138 Y13.409 Z-1.424 B21.801 C=DC(90.)
X11.661 Y13.409 Z-1.264 B21.801 C=DC(90.)
X11.135 Y13.409 Z-1.138 B21.801 C=DC(90.)
X10.72 Y13.409 Z-1.071 B21.801 C=DC(90.)
X10.168 Y13.409 Z-1.031 B21.801 C=DC(90.)
X9.689 Y13.409 Z-1.039 B21.801 C=DC(90.)
X9.245 Y13.409 Z-1.077 B21.801 C=DC(90.)
X8.815 Y13.409 Z-1.146 B21.801 C=DC(90.)
X8.273 Y13.409 Z-1.282 B21.801 C=DC(90.)
X7.771 Y13.409 Z-1.459 B21.801 C=DC(90.)
X7.285 Y13.409 Z-1.679 B21.801 C=DC(90.)
X6.967 Y13.409 Z-1.851 B21.801 C=DC(90.)
X6.495 Y13.409 Z-2.158 B21.801 C=DC(90.)
X6.05 Y13.409 Z-2.513 B21.801 C=DC(90.)
X5.743 Y13.409 Z-2.801 B21.801 C=DC(90.)
X3.114 Y13.409 Z-5.426 B21.801 C=DC(90.),3
X3.045 Y13.409 Z-5.488 B21.801 C=DC(90.),8
X-2.932 Y13.409 Z-5.493 B21.801 C=DC(90.),6
X-3.053 Y13.409 Z-5.487 B21.801 C=DC(90.),8
X-5.491 Y13.409 Z-3.052 B21.801 C=DC(90.),6
X-5.922 Y13.409 Z-2.631 B21.801 C=DC(90.)
X-6.102 Y13.409 Z-2.467 B21.801 C=DC(90.)
X-6.495 Y13.409 Z-2.158 B21.801 C=DC(90.)
X-6.967 Y13.409 Z-1.851 B21.801 C=DC(90.)
X-7.345 Y13.409 Z-1.648 B21.801 C=DC(90.)
X-7.775 Y13.409 Z-1.458 B21.801 C=DC(90.)
X-8.264 Y13.409 Z-1.285 B21.801 C=DC(90.)
X-8.815 Y13.409 Z-1.146 B21.801 C=DC(90.)
X-9.291 Y13.409 Z-1.072 B21.801 C=DC(90.)
X-9.77 Y13.409 Z-1.033 B21.801 C=DC(90.)
X-10.26 Y13.409 Z-1.136 B21.801 C=DC(90.),1
X-10.72 Y13.409 Z-1.071 B21.801 C=DC(90.)
X-11.256 Y13.409 Z-1.163 B21.801 C=DC(90.)
X-11.726 Y13.409 Z-1.283 B21.801 C=DC(90.)
X-12.246 Y13.409 Z-1.466 B21.801 C=DC(90.)
X-12.672 Y13.409 Z-1.659 B21.801 C=DC(90.)
X-13.094 Y13.409 Z-1.888 B21.801 C=DC(90.)
X-13.433 Y13.409 Z-2.108 B21.801 C=DC(90.)
X-13.889 Y13.409 Z-2.461 B21.801 C=DC(90.)
X-14.246 Y13.409 Z-2.789 B21.801 C=DC(90.)
X-16.7 Y13.409 Z-5.242 B21.801 C=DC(90.)
X-18.992 Y13.409 Z-7.535 B21.801 C=DC(90.)
X-21.244 Y13.408 Z-9.783 B21.801 C=DC(90.),8
X-25. Y13.409 Z-9.786 B21.801 C=DC(90.),7
X-25. Y13.109 Z-9.786 B21.801 C=DC(90.),7
X-21.244 Y13.109 Z-9.783 B21.801 C=DC(90.),8
X-19.022 Y13.109 Z-7.565 B21.801 C=DC(90.)
X-16.619 Y13.109 Z-5.162 B21.801 C=DC(90.)
X-14.125 Y13.109 Z-2.675 B21.801 C=DC(90.)
X-13.849 Y13.109 Z-2.425 B21.801 C=DC(90.)
X-13.433 Y13.109 Z-2.108 B21.801 C=DC(90.)
X-13.018 Y13.11 Z-1.845 B21.801 C=DC(90.)
X-12.592 Y13.109 Z-1.617 B21.801 C=DC(90.)
X-12.212 Y13.109 Z-1.451 B21.801 C=DC(90.)
X-11.693 Y13.11 Z-1.274 B21.801 C=DC(90.)
X-11.211 Y13.109 Z-1.152 B21.801 C=DC(90.)
X-10.72 Y13.109 Z-1.071 B21.801 C=DC(90.)
X-10.169 Y13.109 Z-1.031 B21.801 C=DC(90.)
X-9.697 Y13.109 Z-1.038 B21.801 C=DC(90.)
X-9.213 Y13.109 Z-1.081 B21.801 C=DC(90.)
X-8.811 Y13.109 Z-1.147 B21.801 C=DC(90.)
X-8.283 Y13.109 Z-1.28 B21.801 C=DC(90.)
X-7.804 Y13.109 Z-1.447 B21.801 C=DC(90.)
X-7.355 Y13.109 Z-1.644 B21.801 C=DC(90.)
X-6.945 Y13.11 Z-1.864 B21.801 C=DC(90.)
X-6.499 Y13.109 Z-2.156 B21.801 C=DC(90.)
X-6.106 Y13.109 Z-2.463 B21.801 C=DC(90.)
X-5.803 Y13.109 Z-2.742 B21.801 C=DC(90.)
X-3.053 Y13.109 Z-5.487 B21.801 C=DC(90.),8
X-2.035 Y13.109 Z-5.493 B21.801 C=DC(90.),6
X2.926 Y13.109 Z-5.493 B21.801 C=DC(90.),6
X3.053 Y13.109 Z-5.487 B21.801 C=DC(90.),8
X5.49 Y13.109 Z-3.053 B21.801 C=DC(90.),6
X6.078 Y13.109 Z-2.488 B21.801 C=DC(90.)
X6.514 Y13.109 Z-2.145 B21.801 C=DC(90.)
X6.933 Y13.11 Z-1.872 B21.801 C=DC(90.)
X7.327 Y13.109 Z-1.656 B21.801 C=DC(90.)
X7.723 Y13.109 Z-1.478 B21.801 C=DC(90.)
X8.192 Y13.11 Z-1.309 B21.801 C=DC(90.)
X8.63 Y13.109 Z-1.19 B21.801 C=DC(90.)
X8.891 Y13.109 Z-1.133 B21.801 C=DC(90.)
X9.294 Y13.109 Z-1.171 B21.801 C=DC(90.),1
X9.776 Y13.109 Z-1.032 B21.801 C=DC(90.)
X10.261 Y13.109 Z-1.036 B21.801 C=DC(90.)
X10.72 Y13.109 Z-1.071 B21.801 C=DC(90.)
X11.228 Y13.11 Z-1.156 B21.801 C=DC(90.)
X11.684 Y13.11 Z-1.271 B21.801 C=DC(90.)
X12.212 Y13.109 Z-1.451 B21.801 C=DC(90.)
X12.592 Y13.109 Z-1.617 B21.801 C=DC(90.)
X13.087 Y13.11 Z-1.883 B21.801 C=DC(90.)
X13.435 Y13.109 Z-2.109 B21.801 C=DC(90.)
X13.849 Y13.109 Z-2.425 B21.801 C=DC(90.)
X14.285 Y13.11 Z-2.828 B21.801 C=DC(90.)
X16.619 Y13.109 Z-5.162 B21.801 C=DC(90.)
X19.022 Y13.109 Z-7.565 B21.801 C=DC(90.)
X21.244 Y13.109 Z-9.783 B21.801 C=DC(90.),8
X25. Y13.109 Z-9.786 B21.801 C=DC(90.),7
X25. Y12.81 Z-9.786 B21.801 C=DC(90.),7
X21.244 Y12.81 Z-9.783 B21.801 C=DC(90.),8
X18.902 Y12.81 Z-7.445 B21.801 C=DC(90.)
X16.499 Y12.81 Z-5.042 B21.801 C=DC(90.)
X14.173 Y12.81 Z-2.721 B21.801 C=DC(90.)
X13.872 Y12.81 Z-2.445 B21.801 C=DC(90.)
X13.416 Y12.81 Z-2.097 B21.801 C=DC(90.)
X13.08 Y12.811 Z-1.879 B21.801 C=DC(90.)
X12.606 Y12.81 Z-1.624 B21.801 C=DC(90.)
X12.212 Y12.81 Z-1.451 B21.801 C=DC(90.)
X11.753 Y12.81 Z-1.291 B21.801 C=DC(90.)
X11.244 Y12.81 Z-1.159 B21.801 C=DC(90.)
X10.72 Y12.81 Z-1.071 B21.801 C=DC(90.)
X10.168 Y12.81 Z-1.031 B21.801 C=DC(90.)
X9.77 Y12.81 Z-1.033 B21.801 C=DC(90.)
X9.228 Y12.81 Z-1.08 B21.801 C=DC(90.)
X8.805 Y12.81 Z-1.149 B21.801 C=DC(90.)
X8.269 Y12.81 Z-1.283 B21.801 C=DC(90.)
X7.861 Y12.81 Z-1.425 B21.801 C=DC(90.)
X7.53 Y12.81 Z-1.565 B21.801 C=DC(90.)
X7.268 Y12.81 Z-1.688 B21.801 C=DC(90.)
X6.869 Y12.81 Z-1.912 B21.801 C=DC(90.)
X6.504 Y12.81 Z-2.152 B21.801 C=DC(90.)
X6.1 Y12.81 Z-2.468 B21.801 C=DC(90.)
X5.701 Y12.81 Z-2.842 B21.801 C=DC(90.)
X3.117 Y12.81 Z-5.424 B21.801 C=DC(90.),3
X3.045 Y12.81 Z-5.488 B21.801 C=DC(90.),8
X-2.91 Y12.81 Z-5.493 B21.801 C=DC(90.),6
X-3.053 Y12.81 Z-5.487 B21.801 C=DC(90.),8
X-5.85 Y12.81 Z-2.696 B21.801 C=DC(90.)
X-6.214 Y12.81 Z-2.377 B21.801 C=DC(90.)
X-6.486 Y12.81 Z-2.165 B21.801 C=DC(90.)
X-6.886 Y12.81 Z-1.902 B21.801 C=DC(90.)
X-7.327 Y12.81 Z-1.656 B21.801 C=DC(90.)
X-7.78 Y12.81 Z-1.457 B21.801 C=DC(90.)
X-8.187 Y12.81 Z-1.311 B21.801 C=DC(90.)
X-8.618 Y12.81 Z-1.193 B21.801 C=DC(90.),6
X-8.889 Y12.81 Z-1.134 B21.801 C=DC(90.)
X-9.313 Y12.81 Z-1.069 B21.801 C=DC(90.)
X-9.77 Y12.81 Z-1.033 B21.801 C=DC(90.)
X-10.251 Y12.81 Z-1.035 B21.801 C=DC(90.)
X-10.762 Y12.81 Z-1.078 B21.801 C=DC(90.)
X-11.275 Y12.81 Z-1.165 B21.801 C=DC(90.)
X-11.765 Y12.81 Z-1.295 B21.801 C=DC(90.)
X-12.272 Y12.81 Z-1.476 B21.801 C=DC(90.)
X-12.643 Y12.81 Z-1.644 B21.801 C=DC(90.)
X-13.085 Y12.81 Z-1.882 B21.801 C=DC(90.)
X-13.433 Y12.81 Z-2.108 B21.801 C=DC(90.)
X-13.872 Y12.81 Z-2.445 B21.801 C=DC(90.)
X-14.266 Y12.81 Z-2.809 B21.801 C=DC(90.)
X-16.499 Y12.81 Z-5.042 B21.801 C=DC(90.)
X-18.902 Y12.81 Z-7.445 B21.801 C=DC(90.)
X-21.244 Y12.81 Z-9.783 B21.801 C=DC(90.),8
X-25. Y12.81 Z-9.786 B21.801 C=DC(90.),7
X-25. Y12.511 Z-9.786 B21.801 C=DC(90.),7
X-21.244 Y12.51 Z-9.783 B21.801 C=DC(90.),8
X-18.782 Y12.511 Z-7.325 B21.801 C=DC(90.)
X-16.513 Y12.511 Z-5.055 B21.801 C=DC(90.)
X-14.159 Y12.511 Z-2.709 B21.801 C=DC(90.)
X-13.865 Y12.511 Z-2.439 B21.801 C=DC(90.)
X-13.433 Y12.511 Z-2.108 B21.801 C=DC(90.)
X-13.082 Y12.511 Z-1.881 B21.801 C=DC(90.)
X-12.606 Y12.511 Z-1.624 B21.801 C=DC(90.)
X-12.151 Y12.511 Z-1.429 B21.801 C=DC(90.)
X-11.699 Y12.511 Z-1.275 B21.801 C=DC(90.)
X-11.258 Y12.511 Z-1.161 B21.801 C=DC(90.)
X-10.72 Y12.511 Z-1.071 B21.801 C=DC(90.)
X-10.168 Y12.511 Z-1.031 B21.801 C=DC(90.)
X-9.687 Y12.511 Z-1.039 B21.801 C=DC(90.)
X-9.281 Y12.511 Z-1.073 B21.801 C=DC(90.)
X-8.795 Y12.511 Z-1.151 B21.801 C=DC(90.)
X-8.251 Y12.511 Z-1.289 B21.801 C=DC(90.)
X-7.803 Y12.511 Z-1.448 B21.801 C=DC(90.)
X-7.324 Y12.511 Z-1.658 B21.801 C=DC(90.)
X-6.956 Y12.511 Z-1.858 B21.801 C=DC(90.)
X-6.477 Y12.511 Z-2.172 B21.801 C=DC(90.)
X-6.106 Y12.511 Z-2.463 B21.801 C=DC(90.)
X-5.744 Y12.511 Z-2.801 B21.801 C=DC(90.)
X-3.053 Y12.511 Z-5.487 B21.801 C=DC(90.),8
X-1.54 Y12.511 Z-5.493 B21.801 C=DC(90.),6
X2.886 Y12.511 Z-5.493 B21.801 C=DC(90.),6
X3.053 Y12.511 Z-5.487 B21.801 C=DC(90.),8
X5.857 Y12.511 Z-2.69 B21.801 C=DC(90.)
X6.106 Y12.511 Z-2.463 B21.801 C=DC(90.)
X6.532 Y12.511 Z-2.133 B21.801 C=DC(90.)
X6.998 Y12.511 Z-1.835 B21.801 C=DC(90.)
X7.327 Y12.511 Z-1.656 B21.801 C=DC(90.)
X7.805 Y12.511 Z-1.447 B21.801 C=DC(90.)
X8.283 Y12.511 Z-1.279 B21.801 C=DC(90.)
X8.802 Y12.511 Z-1.149 B21.801 C=DC(90.)
X9.314 Y12.511 Z-1.069 B21.801 C=DC(90.)
X9.77 Y12.511 Z-1.033 B21.801 C=DC(90.)
X10.268 Y12.511 Z-1.036 B21.801 C=DC(90.)
X10.72 Y12.511 Z-1.071 B21.801 C=DC(90.)
X11.258 Y12.511 Z-1.161 B21.801 C=DC(90.)
X11.746 Y12.511 Z-1.289 B21.801 C=DC(90.)
X12.204 Y12.511 Z-1.448 B21.801 C=DC(90.)
X12.609 Y12.511 Z-1.625 B21.801 C=DC(90.)
X13.082 Y12.511 Z-1.881 B21.801 C=DC(90.)
X13.518 Y12.511 Z-2.168 B21.801 C=DC(90.)
X13.881 Y12.511 Z-2.452 B21.801 C=DC(90.)
X14.256 Y12.511 Z-2.801 B21.801 C=DC(90.)
X16.513 Y12.511 Z-5.055 B21.801 C=DC(90.)
X18.782 Y12.511 Z-7.325 B21.801 C=DC(90.)
X21.244 Y12.51 Z-9.783 B21.801 C=DC(90.),8
X25. Y12.511 Z-9.786 B21.801 C=DC(90.),7
X25. Y12.211 Z-9.786 B21.801 C=DC(90.),7
X21.244 Y12.211 Z-9.783 B21.801 C=DC(90.),8
X18.663 Y12.211 Z-7.205 B21.801 C=DC(90.)
X16.642 Y12.211 Z-5.185 B21.801 C=DC(90.)
X14.131 Y12.212 Z-2.681 B21.801 C=DC(90.)
X13.822 Y12.211 Z-2.404 B21.801 C=DC(90.)
X13.392 Y12.211 Z-2.08 B21.801 C=DC(90.)
X13.008 Y12.211 Z-1.838 B21.801 C=DC(90.)
X12.606 Y12.211 Z-1.624 B21.801 C=DC(90.)
X12.166 Y12.211 Z-1.435 B21.801 C=DC(90.)
X11.712 Y12.212 Z-1.279 B21.801 C=DC(90.)
X11.258 Y12.211 Z-1.161 B21.801 C=DC(90.)
X10.72 Y12.211 Z-1.071 B21.801 C=DC(90.)
X10.177 Y12.211 Z-1.031 B21.801 C=DC(90.)
X9.77 Y12.211 Z-1.033 B21.801 C=DC(90.)
X9.228 Y12.211 Z-1.08 B21.801 C=DC(90.)
X8.723 Y12.211 Z-1.168 B21.801 C=DC(90.)
X8.221 Y12.212 Z-1.299 B21.801 C=DC(90.)
X7.712 Y12.211 Z-1.483 B21.801 C=DC(90.)
X7.327 Y12.211 Z-1.656 B21.801 C=DC(90.)
X6.973 Y12.211 Z-1.848 B21.801 C=DC(90.)
X6.531 Y12.211 Z-2.135 B21.801 C=DC(90.)
X6.228 Y12.211 Z-2.367 B21.801 C=DC(90.)
X6.008 Y12.211 Z-2.552 B21.801 C=DC(90.)
X5.626 Y12.211 Z-2.918 B21.801 C=DC(90.)
X3.098 Y12.211 Z-5.442 B21.801 C=DC(90.),3
X3.045 Y12.211 Z-5.488 B21.801 C=DC(90.),8
X-2.856 Y12.211 Z-5.493 B21.801 C=DC(90.),6
X-3.053 Y12.211 Z-5.487 B21.801 C=DC(90.),8
X-5.552 Y12.211 Z-2.991 B21.801 C=DC(90.),6
X-5.987 Y12.211 Z-2.572 B21.801 C=DC(90.)
X-6.211 Y12.211 Z-2.38 B21.801 C=DC(90.)
X-6.421 Y12.211 Z-2.214 B21.801 C=DC(90.)
X-6.766 Y12.211 Z-1.978 B21.801 C=DC(90.)
X-7.061 Y12.211 Z-1.8 B21.801 C=DC(90.)
X-7.327 Y12.211 Z-1.656 B21.801 C=DC(90.)
X-7.711 Y12.211 Z-1.483 B21.801 C=DC(90.)
X-8.119 Y12.211 Z-1.334 B21.801 C=DC(90.)
X-8.395 Y12.211 Z-1.248 B21.801 C=DC(90.)
X-8.887 Y12.211 Z-1.134 B21.801 C=DC(90.)
X-9.313 Y12.211 Z-1.069 B21.801 C=DC(90.)
X-9.77 Y12.211 Z-1.033 B21.801 C=DC(90.)
X-10.261 Y12.211 Z-1.036 B21.801 C=DC(90.)
X-10.72 Y12.211 Z-1.071 B21.801 C=DC(90.)
X-11.258 Y12.211 Z-1.161 B21.801 C=DC(90.)
X-11.712 Y12.212 Z-1.279 B21.801 C=DC(90.)
X-12.212 Y12.211 Z-1.451 B21.801 C=DC(90.)
X-12.683 Y12.211 Z-1.663 B21.801 C=DC(90.)
X-13.14 Y12.212 Z-1.917 B21.801 C=DC(90.)
X-13.466 Y12.211 Z-2.131 B21.801 C=DC(90.)
X-13.887 Y12.211 Z-2.46 B21.801 C=DC(90.)
X-14.268 Y12.211 Z-2.811 B21.801 C=DC(90.)
X-16.642 Y12.211 Z-5.185 B21.801 C=DC(90.)
X-18.663 Y12.211 Z-7.205 B21.801 C=DC(90.)
X-21.244 Y12.211 Z-9.783 B21.801 C=DC(90.),8
X-25. Y12.211 Z-9.786 B21.801 C=DC(90.),7
X-25. Y11.912 Z-9.786 B21.801 C=DC(90.),7
X-21.244 Y11.912 Z-9.783 B21.801 C=DC(90.),8
X-18.728 Y11.912 Z-7.271 B21.801 C=DC(90.)
X-16.771 Y11.912 Z-5.314 B21.801 C=DC(90.)
X-14.134 Y11.912 Z-2.682 B21.801 C=DC(90.)
X-13.823 Y11.912 Z-2.404 B21.801 C=DC(90.)
X-13.408 Y11.912 Z-2.091 B21.801 C=DC(90.)
X-13.025 Y11.913 Z-1.847 B21.801 C=DC(90.)
X-12.562 Y11.912 Z-1.604 B21.801 C=DC(90.)
X-12.205 Y11.912 Z-1.448 B21.801 C=DC(90.)
X-11.655 Y11.912 Z-1.261 B21.801 C=DC(90.)
X-11.194 Y11.912 Z-1.15 B21.801 C=DC(90.)
X-10.72 Y11.912 Z-1.071 B21.801 C=DC(90.)
X-10.2 Y11.912 Z-1.032 B21.801 C=DC(90.)
X-9.676 Y11.912 Z-1.039 B21.801 C=DC(90.)
X-9.205 Y11.912 Z-1.082 B21.801 C=DC(90.)
X-8.717 Y11.912 Z-1.169 B21.801 C=DC(90.)
X-8.294 Y11.912 Z-1.277 B21.801 C=DC(90.)
X-7.792 Y11.912 Z-1.451 B21.801 C=DC(90.)
X-7.327 Y11.912 Z-1.656 B21.801 C=DC(90.)
X-6.972 Y11.912 Z-1.85 B21.801 C=DC(90.)
X-6.488 Y11.912 Z-2.164 B21.801 C=DC(90.)
X-6.214 Y11.912 Z-2.377 B21.801 C=DC(90.)
X-5.829 Y11.912 Z-2.717 B21.801 C=DC(90.)
X-3.111 Y11.912 Z-5.429 B21.801 C=DC(90.),3
X-3.045 Y11.912 Z-5.488 B21.801 C=DC(90.),8
X2.872 Y11.912 Z-5.493 B21.801 C=DC(90.),6
X3.053 Y11.912 Z-5.487 B21.801 C=DC(90.),8
X5.594 Y11.912 Z-2.95 B21.801 C=DC(90.)
X5.968 Y11.912 Z-2.589 B21.801 C=DC(90.)
X6.132 Y11.912 Z-2.441 B21.801 C=DC(90.)
X6.544 Y11.912 Z-2.125 B21.801 C=DC(90.)
X6.987 Y11.912 Z-1.84 B21.801 C=DC(90.)
X7.319 Y11.912 Z-1.661 B21.801 C=DC(90.)
X7.791 Y11.912 Z-1.452 B21.801 C=DC(90.)
X8.285 Y11.912 Z-1.28 B21.801 C=DC(90.)
X8.828 Y11.912 Z-1.144 B21.801 C=DC(90.)
X9.285 Y11.912 Z-1.072 B21.801 C=DC(90.)
X9.77 Y11.912 Z-1.033 B21.801 C=DC(90.)
X10.286 Y11.912 Z-1.036 B21.801 C=DC(90.)
X10.72 Y11.912 Z-1.071 B21.801 C=DC(90.)
X11.258 Y11.912 Z-1.161 B21.801 C=DC(90.)
X11.721 Y11.912 Z-1.281 B21.801 C=DC(90.)
X12.226 Y11.912 Z-1.457 B21.801 C=DC(90.)
X12.679 Y11.912 Z-1.662 B21.801 C=DC(90.)
X13.124 Y11.912 Z-1.907 B21.801 C=DC(90.)
X13.513 Y11.912 Z-2.165 B21.801 C=DC(90.)
X13.823 Y11.912 Z-2.404 B21.801 C=DC(90.)
X14.171 Y11.912 Z-2.717 B21.801 C=DC(90.)
X16.771 Y11.912 Z-5.314 B21.801 C=DC(90.)
X18.728 Y11.912 Z-7.271 B21.801 C=DC(90.)
X21.248 Y11.912 Z-9.783 B21.801 C=DC(90.),8
X25. Y11.912 Z-9.786 B21.801 C=DC(90.),7
X25. Y11.613 Z-9.786 B21.801 C=DC(90.),7
X21.244 Y11.612 Z-9.783 B21.801 C=DC(90.),8
X18.839 Y11.613 Z-7.382 B21.801 C=DC(90.)
X16.685 Y11.613 Z-5.228 B21.801 C=DC(90.)
X14.119 Y11.613 Z-2.669 B21.801 C=DC(90.)
X13.831 Y11.613 Z-2.411 B21.801 C=DC(90.)
X13.433 Y11.613 Z-2.108 B21.801 C=DC(90.)
X13.025 Y11.613 Z-1.847 B21.801 C=DC(90.)
X12.583 Y11.613 Z-1.613 B21.801 C=DC(90.)
X12.212 Y11.613 Z-1.451 B21.801 C=DC(90.)
X11.742 Y11.613 Z-1.288 B21.801 C=DC(90.)
X11.258 Y11.613 Z-1.161 B21.801 C=DC(90.)
X10.72 Y11.613 Z-1.071 B21.801 C=DC(90.)
X10.256 Y11.613 Z-1.034 B21.801 C=DC(90.)
X9.726 Y11.613 Z-1.035 B21.801 C=DC(90.)
X9.263 Y11.613 Z-1.075 B21.801 C=DC(90.)
X8.788 Y11.613 Z-1.152 B21.801 C=DC(90.)
X8.293 Y11.613 Z-1.276 B21.801 C=DC(90.)
X7.877 Y11.613 Z-1.418 B21.801 C=DC(90.)
X7.52 Y11.613 Z-1.568 B21.801 C=DC(90.)
X7.229 Y11.613 Z-1.709 B21.801 C=DC(90.)
X6.985 Y11.613 Z-1.841 B21.801 C=DC(90.)
X6.483 Y11.613 Z-2.167 B21.801 C=DC(90.)
X6.139 Y11.613 Z-2.436 B21.801 C=DC(90.)
X5.697 Y11.613 Z-2.846 B21.801 C=DC(90.)
X3.141 Y11.613 Z-5.4 B21.801 C=DC(90.),6
X3.045 Y11.613 Z-5.488 B21.801 C=DC(90.),8
X-3.012 Y11.613 Z-5.491 B21.801 C=DC(90.),3
X-3.053 Y11.613 Z-5.487 B21.801 C=DC(90.),8
X-5.843 Y11.613 Z-2.704 B21.801 C=DC(90.)
X-6.079 Y11.613 Z-2.488 B21.801 C=DC(90.)
X-6.483 Y11.613 Z-2.167 B21.801 C=DC(90.)
X-6.937 Y11.613 Z-1.87 B21.801 C=DC(90.)
X-7.361 Y11.613 Z-1.64 B21.801 C=DC(90.)
X-7.781 Y11.613 Z-1.454 B21.801 C=DC(90.)
X-8.299 Y11.613 Z-1.274 B21.801 C=DC(90.)
X-8.802 Y11.613 Z-1.149 B21.801 C=DC(90.)
X-9.278 Y11.613 Z-1.073 B21.801 C=DC(90.)
X-9.77 Y11.613 Z-1.033 B21.801 C=DC(90.)
X-10.318 Y11.613 Z-1.037 B21.801 C=DC(90.)
X-10.81 Y11.613 Z-1.085 B21.801 C=DC(90.)
X-11.258 Y11.613 Z-1.161 B21.801 C=DC(90.)
X-11.742 Y11.613 Z-1.288 B21.801 C=DC(90.)
X-12.212 Y11.613 Z-1.451 B21.801 C=DC(90.)
X-12.583 Y11.613 Z-1.613 B21.801 C=DC(90.)
X-13.025 Y11.613 Z-1.847 B21.801 C=DC(90.)
X-13.439 Y11.613 Z-2.112 B21.801 C=DC(90.)
X-13.866 Y11.613 Z-2.442 B21.801 C=DC(90.)
X-14.283 Y11.613 Z-2.826 B21.801 C=DC(90.)
X-16.685 Y11.613 Z-5.228 B21.801 C=DC(90.)
X-18.839 Y11.613 Z-7.382 B21.801 C=DC(90.)
X-21.244 Y11.612 Z-9.783 B21.801 C=DC(90.),8
X-25. Y11.613 Z-9.786 B21.801 C=DC(90.),7
X-25. Y11.313 Z-9.786 B21.801 C=DC(90.),7
X-21.244 Y11.313 Z-9.783 B21.801 C=DC(90.),8
X-18.95 Y11.313 Z-7.493 B21.801 C=DC(90.)
X-16.565 Y11.313 Z-5.108 B21.801 C=DC(90.)
X-14.131 Y11.313 Z-2.68 B21.801 C=DC(90.)
X-13.793 Y11.313 Z-2.381 B21.801 C=DC(90.)
X-13.401 Y11.313 Z-2.087 B21.801 C=DC(90.)
X-13.064 Y11.314 Z-1.87 B21.801 C=DC(90.)
X-12.623 Y11.313 Z-1.634 B21.801 C=DC(90.)
X-12.212 Y11.313 Z-1.451 B21.801 C=DC(90.)
X-11.683 Y11.314 Z-1.271 B21.801 C=DC(90.)
X-11.19 Y11.313 Z-1.149 B21.801 C=DC(90.)
X-10.72 Y11.313 Z-1.071 B21.801 C=DC(90.)
X-10.217 Y11.313 Z-1.033 B21.801 C=DC(90.)
X-9.679 Y11.313 Z-1.038 B21.801 C=DC(90.)
X-9.23 Y11.313 Z-1.079 B21.801 C=DC(90.)
X-8.802 Y11.313 Z-1.149 B21.801 C=DC(90.)
X-8.269 Y11.314 Z-1.283 B21.801 C=DC(90.)
X-7.754 Y11.313 Z-1.465 B21.801 C=DC(90.)
X-7.306 Y11.314 Z-1.668 B21.801 C=DC(90.)
X-6.908 Y11.314 Z-1.887 B21.801 C=DC(90.)
X-6.474 Y11.313 Z-2.174 B21.801 C=DC(90.)
X-6.092 Y11.313 Z-2.476 B21.801 C=DC(90.)
X-5.808 Y11.313 Z-2.736 B21.801 C=DC(90.)
X-3.051 Y11.313 Z-5.488 B21.801 C=DC(90.),8
X2.914 Y11.313 Z-5.493 B21.801 C=DC(90.),6
X3.053 Y11.313 Z-5.487 B21.801 C=DC(90.),8
X5.518 Y11.313 Z-3.025 B21.801 C=DC(90.),6
X5.907 Y11.313 Z-2.645 B21.801 C=DC(90.)
X6.106 Y11.313 Z-2.463 B21.801 C=DC(90.)
X6.474 Y11.313 Z-2.174 B21.801 C=DC(90.)
X6.908 Y11.314 Z-1.887 B21.801 C=DC(90.)
X7.41 Y11.313 Z-1.616 B21.801 C=DC(90.)
X7.851 Y11.313 Z-1.428 B21.801 C=DC(90.)
X8.337 Y11.314 Z-1.265 B21.801 C=DC(90.)
X8.802 Y11.313 Z-1.149 B21.801 C=DC(90.)
X9.316 Y11.313 Z-1.068 B21.801 C=DC(90.)
X9.8 Y11.313 Z-1.032 B21.801 C=DC(90.)
X10.293 Y11.313 Z-1.036 B21.801 C=DC(90.)
X10.72 Y11.313 Z-1.071 B21.801 C=DC(90.)
X11.258 Y11.313 Z-1.161 B21.801 C=DC(90.)
X11.762 Y11.314 Z-1.294 B21.801 C=DC(90.)
X12.25 Y11.313 Z-1.467 B21.801 C=DC(90.)
X12.576 Y11.313 Z-1.61 B21.801 C=DC(90.)
X13.064 Y11.314 Z-1.87 B21.801 C=DC(90.)
X13.433 Y11.313 Z-2.108 B21.801 C=DC(90.)
X13.834 Y11.313 Z-2.413 B21.801 C=DC(90.)
X14.136 Y11.313 Z-2.687 B21.801 C=DC(90.)
X15.858 Y11.313 Z-4.401 B21.801 C=DC(90.),6
X16.565 Y11.313 Z-5.108 B21.801 C=DC(90.)
X18.95 Y11.313 Z-7.493 B21.801 C=DC(90.)
X21.244 Y11.313 Z-9.783 B21.801 C=DC(90.),8
X25. Y11.313 Z-9.786 B21.801 C=DC(90.),7
X25. Y11.014 Z-9.786 B21.801 C=DC(90.),7
X21.244 Y11.014 Z-9.783 B21.801 C=DC(90.),8
X18.848 Y11.014 Z-7.391 B21.801 C=DC(90.)
X16.643 Y11.014 Z-5.186 B21.801 C=DC(90.)
X14.146 Y11.014 Z-2.693 B21.801 C=DC(90.)
X13.841 Y11.014 Z-2.419 B21.801 C=DC(90.)
X13.445 Y11.014 Z-2.116 B21.801 C=DC(90.)
X13.104 Y11.014 Z-1.894 B21.801 C=DC(90.)
X12.635 Y11.014 Z-1.64 B21.801 C=DC(90.)
X12.212 Y11.014 Z-1.451 B21.801 C=DC(90.)
X11.688 Y11.014 Z-1.272 B21.801 C=DC(90.)
X11.192 Y11.014 Z-1.149 B21.801 C=DC(90.)
X10.657 Y11.014 Z-1.066 B21.801 C=DC(90.)
X10.216 Y11.014 Z-1.033 B21.801 C=DC(90.)
X9.77 Y11.014 Z-1.033 B21.801 C=DC(90.)
X9.235 Y11.014 Z-1.079 B21.801 C=DC(90.)
X8.733 Y11.014 Z-1.165 B21.801 C=DC(90.)
X8.269 Y11.014 Z-1.283 B21.801 C=DC(90.)
X7.74 Y11.014 Z-1.471 B21.801 C=DC(90.)
X7.312 Y11.014 Z-1.664 B21.801 C=DC(90.)
X6.963 Y11.014 Z-1.853 B21.801 C=DC(90.)
X6.482 Y11.014 Z-2.169 B21.801 C=DC(90.)
X6.122 Y11.014 Z-2.45 B21.801 C=DC(90.)
X5.798 Y11.014 Z-2.745 B21.801 C=DC(90.)
X3.053 Y11.014 Z-5.487 B21.801 C=DC(90.),8
X2.369 Y11.014 Z-5.493 B21.801 C=DC(90.),6
X-3.05 Y11.014 Z-5.49 B21.801 C=DC(90.),8
X-5.493 Y11.014 Z-3.05 B21.801 C=DC(90.),6
X-5.901 Y11.014 Z-2.651 B21.801 C=DC(90.)
X-6.106 Y11.014 Z-2.463 B21.801 C=DC(90.)
X-6.466 Y11.014 Z-2.18 B21.801 C=DC(90.)
X-6.946 Y11.014 Z-1.864 B21.801 C=DC(90.)
X-7.412 Y11.014 Z-1.616 B21.801 C=DC(90.)
X-7.84 Y11.014 Z-1.432 B21.801 C=DC(90.)
X-8.277 Y11.014 Z-1.281 B21.801 C=DC(90.)
X-8.802 Y11.014 Z-1.149 B21.801 C=DC(90.)
X-9.32 Y11.014 Z-1.068 B21.801 C=DC(90.)
X-9.824 Y11.014 Z-1.032 B21.801 C=DC(90.)
X-10.3 Y11.014 Z-1.037 B21.801 C=DC(90.)
X-10.72 Y11.014 Z-1.071 B21.801 C=DC(90.)
X-11.258 Y11.014 Z-1.161 B21.801 C=DC(90.)
X-11.752 Y11.014 Z-1.29 B21.801 C=DC(90.)
X-12.228 Y11.014 Z-1.458 B21.801 C=DC(90.)
X-12.577 Y11.014 Z-1.61 B21.801 C=DC(90.)
X-13.086 Y11.014 Z-1.882 B21.801 C=DC(90.)
X-13.506 Y11.014 Z-2.16 B21.801 C=DC(90.)
X-13.841 Y11.014 Z-2.419 B21.801 C=DC(90.)
X-14.275 Y11.014 Z-2.818 B21.801 C=DC(90.)
X-16.643 Y11.014 Z-5.186 B21.801 C=DC(90.)
X-18.848 Y11.014 Z-7.391 B21.801 C=DC(90.)
X-21.244 Y11.014 Z-9.783 B21.801 C=DC(90.),8
X-25. Y11.014 Z-9.786 B21.801 C=DC(90.),7
X-25. Y10.715 Z-9.786 B21.801 C=DC(90.),7
X-21.244 Y10.714 Z-9.783 B21.801 C=DC(90.),8
X-18.733 Y10.715 Z-7.276 B21.801 C=DC(90.)
X-16.73 Y10.715 Z-5.273 B21.801 C=DC(90.)
X-14.112 Y10.715 Z-2.663 B21.801 C=DC(90.)
X-13.836 Y10.715 Z-2.415 B21.801 C=DC(90.)
X-13.395 Y10.715 Z-2.082 B21.801 C=DC(90.)
X-13.037 Y10.715 Z-1.854 B21.801 C=DC(90.)
X-12.584 Y10.714 Z-1.613 B21.801 C=DC(90.)
X-12.122 Y10.715 Z-1.418 B21.801 C=DC(90.)
X-11.684 Y10.715 Z-1.271 B21.801 C=DC(90.)
X-11.258 Y10.715 Z-1.161 B21.801 C=DC(90.)
X-10.72 Y10.715 Z-1.071 B21.801 C=DC(90.)
X-10.169 Y10.715 Z-1.031 B21.801 C=DC(90.)
X-9.729 Y10.715 Z-1.036 B21.801 C=DC(90.)
X-9.214 Y10.715 Z-1.081 B21.801 C=DC(90.)
X-8.802 Y10.715 Z-1.149 B21.801 C=DC(90.)
X-8.277 Y10.715 Z-1.281 B21.801 C=DC(90.)
X-7.848 Y10.715 Z-1.429 B21.801 C=DC(90.)
X-7.357 Y10.715 Z-1.642 B21.801 C=DC(90.)
X-6.985 Y10.715 Z-1.841 B21.801 C=DC(90.)
X-6.569 Y10.715 Z-2.11 B21.801 C=DC(90.)
X-6.264 Y10.715 Z-2.339 B21.801 C=DC(90.)
X-6.092 Y10.715 Z-2.476 B21.801 C=DC(90.)
X-5.86 Y10.715 Z-2.689 B21.801 C=DC(90.)
X-3.136 Y10.715 Z-5.405 B21.801 C=DC(90.),6
X-3.045 Y10.715 Z-5.488 B21.801 C=DC(90.),8
X2.899 Y10.715 Z-5.493 B21.801 C=DC(90.),6
X3.053 Y10.715 Z-5.487 B21.801 C=DC(90.),8
X5.797 Y10.715 Z-2.747 B21.801 C=DC(90.)
X6.106 Y10.715 Z-2.463 B21.801 C=DC(90.)
X6.465 Y10.715 Z-2.18 B21.801 C=DC(90.)
X6.925 Y10.715 Z-1.877 B21.801 C=DC(90.)
X7.357 Y10.715 Z-1.642 B21.801 C=DC(90.)
X7.82 Y10.715 Z-1.44 B21.801 C=DC(90.)
X8.276 Y10.715 Z-1.281 B21.801 C=DC(90.)
X8.802 Y10.715 Z-1.149 B21.801 C=DC(90.)
X9.291 Y10.715 Z-1.072 B21.801 C=DC(90.)
X9.811 Y10.715 Z-1.032 B21.801 C=DC(90.)
X10.272 Y10.715 Z-1.036 B21.801 C=DC(90.)
X10.72 Y10.715 Z-1.071 B21.801 C=DC(90.)
X11.258 Y10.715 Z-1.161 B21.801 C=DC(90.)
